/* XPM */
static char *_c6eab27b4de4efcd4a44856a7c88d8aGIE0ouGp1XlPEw8B[] = {
/* columns rows colors chars-per-pixel */
"187 1792 26 1 ",
"  c black",
". c #000001",
"X c gray22",
"o c #402028",
"O c #287000",
"+ c #785018",
"@ c #005868",
"# c #604878",
"$ c #686868",
"% c #F83808",
"& c #A07818",
"* c #F05030",
"= c #FF7F27",
"- c #38B818",
"; c #60C808",
": c #22B14C",
"> c #25C555",
", c #C09038",
"< c #F89850",
"1 c #406898",
"2 c #3F48CC",
"3 c #5048F8",
"4 c #00A2E8",
"5 c #99D9EA",
"6 c #F8F8F8",
"7 c white",
/* pixels */
"7777777777777777777777777777777777777777777777777777777777777777777777777777777777777777777777777777777777777777777777777777777777777777777777777777777777777777777777777777777777777777777",
"7777777777777777777777777777777777777777777777777777777777777777777777777777777777777777777777777777777777777777777777777777777777777777777777777777777777777777777777777777777777777777777",
"7777                                                                                                                                                                                  77777",
"777 7777777777777777777777777777777777777777777777777777777777777777777777777777777777777777777777777777777777777777777777777777777777777777777777777777777777777777777777777777777777 7777",
"77 77                                                                                                                                                                                77 777",
"77 7                                                                                                                                                                                  7 777",
"77 7  777777777777777777777777777777777777777777777777777777777777777777777777777777777777777777777777777777777777777777777777777777777777777777777777777777777777777777777777777777  7 777",
"77 7 77777777777777777777777777777777777777777777777777777777777777777777777777777777777777777777777777777777777777777777777777777777777777777777777777777777777777777777777777777777 7 777",
"77 7 77777777777777777777777777777777777777777777777777777777777777777777777777777777777777777777777777777777777777777777777777777777777777777777777777777777777777777777777777777777 7 777",
"77 7 77777777777777777777777777777777777777777777777777777777777777777777777777777777777777777777777777777777777777777777777777777777777777777777777777777777777777777777777777777777 7 777",
"77 7 77777777777777777777777777777777777777777777777777777777777777777777777777777777777777777777777777777777777777777777777777777777777777777777777777777777777777777777777777777777 7 777",
"77 7 77777777                                                                                                                                                                77777777 7 777",
"77 7 7777777 7777777777777777777777777777777777777777777777777777777777777777777777777777777777777777777777777777777777777777777777777777777777777777777777777777777777777777 7777777 7 777",
"77 7 777777 77                                                                                                                                                              77 777777 7 777",
"77 7 777777 7                                                                                                                                                                7 777777 7 777",
"77 7 777777 7  777777777777777777777777777777777777777777777777777777777777777777777777777777777777777777777777777777777777777777777777777777777777777777777777777777777777  7 777777 7 777",
"77 7 777777 7 77777777777777777777777777777777777777777777777777777777777777777777777777777777777777777777777777777777777777777777777777777777777777777777777777777777777777 7 777777 7 777",
"77 7 777777 7 7777    777 7777777777777777777777777777777777777777 777777777777777777777777777777777777777777777777777777777777777777777777777777777777777777777777777777777 7 777777 7 777",
"77 7 777777 7 777 7777 77 7777777777777777777777777777777777777777 777777777777777777777777777777777777777777777777777777777777777777777777777777777777777777777777777777777 7 777777 7 777",
"77 7 777777 7 77 77777777 7777777   7777 77   777   77777    777     777    777 77   777    77777777777777777777777777777777777777777777777777777777777777777777777777777777 7 777777 7 777",
"77 7 777777 7 77 77777777    7777777 777 7 777777777 777 7777 7777 7777 7777 77 7 77777 777777777777777777777777777777777777777777777777777777777777777777777777777777777777 7 777777 7 777",
"77 7 777777 7 77 77777777 777 777    777  7777777    777 777777777 7777      77  7777777    77777777777777777777777777777777777777777777777777777777777777777777777777777777 7 777777 7 777",
"77 7 777777 7 777 7777 77 777 77 777 777 7777777 777 777 7777 7777 7777 7777777 777777777777 7777777777777777777777777777777777777777777777777777777777777777777777777777777 7 777777 7 777",
"77 7 777777 7 7777    777 777 777     77 77777777     777    777777  777     77 7777777     77777777777777777777777777777777777777777777777777777777777777777777777777777777 7 777777 7 777",
"77 7 777777 7 77777777777777777777777777777777777777777777777777777777777777777777777777777777777777777777777777777777777777777777777777777777777777777777777777777777777777 7 777777 7 777",
"77 7 777777 7 77777777777777777777777777777777777777777777777777777777777777777777777777777777777777777777777777777777777777777777777777777777777777777777777777777777777777 7 777777 7 777",
"77 7 777777 7 77777777777777777777777777777777777777777777777777777777777777777777777777777777777777777777777777777777777777777777777777777777777777777777777777777777777777 7 777777 7 777",
"77 7 777777 77                                                                                                                                                              77 777777 7 777",
"77 7 777777  7777777777777777777777777777777777777777777777777777777777777777777777777777777777777777777777777777777777777777777777777777777777777777777777777777777777777777  777777 7 777",
"77 7 7777777                                                                                                                                                                  7777777 7 777",
"77 7 77777777                                                                                                                                                                77777777 7 777",
"77 7 77777777777777777777777777777777777777777777777777777777777777777777777777777777777777777777777777777777777777777777777777777777777777777777777777777777777777777777777777777777 7 777",
"77 7 77777777777777777777777777777777777777777777777777777777777777777777777777777777777777777777777777777777777777777777777777777777777777777777777777777777777777777777777777777777 7 777",
"77 7 77777777777777777777777777777777777777777777777777777777777777777777777777777777777777777777777777777777777777777777777777777777777777777777777777777777777777777777777777777777 7 777",
"77 7 7777================7=====      =====7================7================7=====      =====7================7=====      =====7================7=====      =====7================777 7 777",
"77 7 7777=====      =====7==== %%%%%% ====7=====      =====7=====      =====7==== %%%%%% ====7=====      =====7==== %%%%%% ====7=====      =====7==== %%%%%% ====7=====      =====777 7 777",
"77 7 7777==== %%%%%% ====7=== %%%%%%%% ===7==== %%%%%% ====7==== %%%%%% ====7=== %%%%%%%% ===7==== %%%%%% ====7=== %%%%%%%% ===7==== %%%%%% ====7=== %%%%%%%% ===7==== %%%%%% ====777 7 777",
"77 7 7777=== %%%%%%%% ===7=== %%%  %%% ===7=== %%%%%%%% ===7=== %%%%%%%% ===7=== %%%%%%%% ===7=== %%%%%%%% ===7===  %%%%%%<  ==7=== %%%%%%%% ===7==  <%%%%%%  ===7=== %%%%%%%% ===777 7 777",
"77 7 7777=== %%%  %%% ===7==  %%    %%  ==7=== %%%  %%% ===7=== %%%%%%%% ===7==  %%%%%%%%  ==7=== %%%%%%%% ===7==   %%%%%<<<< =7===  %%%%%%<  ==7= <<<<%%%%%   ==7==  <%%%%%%  ===777 7 777",
"77 7 7777==  %%    %%  ==7==    %%%%    ==7==  %%    %%  ==7==  %%%%%%%%  ==7==   %<<<<%   ==7==  %%%%%%%%  ==7==       %%%  ==7==   %%%%%<<<< =7==  %%%       ==7= <<<<%%%%%   ==777 7 777",
"77 7 7777==    %%%%    ==7= < <<<<<<<< < =7==    %%%%    ==7==   %<<<<%   ==7= <          < =7==   %<<<<%   ==7=== < <<      ==7==       %%%  ==7==      << < ===7==  %%%       ==777 7 777",
"77 7 7777= < <<<<<<<< < =7= <<<< << <<<< =7= < <<<<<<<< < =7= <          < =7= <<        << =7= <          < =7=== < << <<  ===7=== < <<      ==7===  << << < ===7==      << < ===777 7 777",
"77 7 7777= <<<< << <<<< =7==  << << <<  ==7= <<<< << <<<< =7= <<        << =7==            ==7= <<        << =7=== <<<<<<< ====7=== < << <<  ===7==== <<<<<<< ===7===  << << < ===777 7 777",
"77 7 7777=   << << <<  ==7===  <<%%<<  ===7==  << << <<   =7=             ==7=== <%    %< ===7==             =7==== %<<<   ====7=== <<<<<<< ====7====   <<<% ====7==== <<<<<<< ===777 7 777",
"77 7 7777= <  <<%%<<   ==7==  <%    %<  ==7==   <<%%<<  < =7= < <%    %  ===7== %  <<<<  % ==7===  %    %< < =7=====     << ===7==== %<<<   ====7=== <<     =====7====   <<<% ====777 7 777",
"77 7 7777==  <       % ==7= << <<%%<< << =7== %       <  ==7==    <<<< << ==7= < % %%%% % < =7== << <<<<    ==7===== %   %% ===7=====   %  < ===7=== %%   % =====7=== <  %   =====777 7 777",
"77 7 7777===  %%<< << ===7= << %%<<%% << =7=== << <<%%  ===7===   %%%% << ==7= <   <<<<   < =7== << %%%%   ===7====== << << ===7===   %% <<  ===7=== << << ======7===  << %%   ===777 7 777",
"77 7 7777====   %% << ===7==            ==7=== << %%   ====7====  <<<<   ===7==            ==7===   <<<<  ====7=====  <<   ====7== %%  < << % ==7====   <<  =====7== % << <  %% ==777 7 777",
"77 7 7777==== %%     ====7=== %%    %% ===7====     %% ====7==== %     =====7=== %%    %% ===7=====     % ====7==== %%  % =====7=== %%  %  %% ==7===== %  %% ====7== %%  %  %% ===777 7 777",
"77 7 7777=====   ========7====   ==   ====7========   =====7=====   ========7====   ==   ====7========   =====7=====     ======7====   ====  ===7======     =====7===  ====   ====777 7 777",
"77 7 77777777777777777777777777777777777777777777777777777777777777777777777777777777777777777777777777777777777777777777777777777777777777777777777777777777777777777777777777777777 7 777",
"77 7 7777======      ====7=====      =====7====      ======7=====      =====7=====      =====7=====      =====7=====      =====7====      ======7=====      =====7======      ====777 7 777",
"77 7 7777===== %%%%%% ===7==== %%%%%% ====7=== %%%%%% =====7==== %%%%%% ====7==== %%%%%% ====7==== %%%%%% ====7==== %%%%%% ====7=== %%%%%% =====7==== %%%%%% ====7===== %%%%%% ===777 7 777",
"77 7 7777==== %%%%%%%% ==7=== %%%%%%%% ===7== %%%%%%%% ====7=== %%%%%%%% ===7=== %%%%%%%% ===7=== %%%%%%%% ===7=== %%%%%%%% ===7== %%%%%%%% ====7=== %%%%%%%% ===7==== %%%%%%%% ==777 7 777",
"77 7 7777==== %%%  %%% ==7=== %%%  %%% ===7== %%%  %%% ====7=== %%%%%%%% ===7=== %%%%%%%% ===7=== %%%%%%%% ===7=== %%%%%%%<  ==7== %%%%%%%<  ===7==  <%%%%%%% ===7===  <%%%%%%% ==777 7 777",
"77 7 7777===  %%    %%  =7==  %%    %%  ==7=  %%    %%  ===7==  %%%%%%%%  ==7==  %%%%%%%%  ==7==  %%%%%%%%  ==7==   %%%%%<<<< =7=   %%%%%<<<< ==7= <<<<%%%%%   ==7== <<<<%%%%%   =777 7 777",
"77 7 7777===    %%%%    =7==    %%%%    ==7=    %%%%    ===7==   %<<<<%   ==7==   %<<<<%   ==7==   %<<<<%   ==7==       %%%  ==7=       %%%  ===7==  %%%       ==7===  %%%       =777 7 777",
"77 7 7777== < <<<<<<<< < 7= < <<<<<<<< < =7 < <<<<<<<< < ==7= <          < =7= <          < =7= <          < =7=== < <<      ==7== < <<      ===7==      << < ===7===      << < ==777 7 777",
"77 7 7777== <<<< << <<<< 7= <<<< << <<<< =7 <<<< << <<<< ==7= <<        << =7= <<        << =7= <<        << =7=== < << <<  ===7== < << <<  ====7===  << << < ===7====  << << < ==777 7 777",
"77 7 7777==   << << <<  =7==  << << <<  ==7=  << << <<   ==7==            ==7==            ==7==            ==7=== <<<<<<< ====7== <<<<<<< =====7==== <<<<<<< ===7===== <<<<<<< ==777 7 777",
"77 7 7777==    <<%%<<   =7==   <<%%<<   ==7=   <<%%<<    ==7==  <%    %<%  =7==  <%    %<  ==7=  %<%    %<  ==7==    <<<  < ===7==    <<  < ====7=== <  <<<    ==7==== <  <<    ==777 7 777",
"77 7 7777= <<        << =7= <<        << =7= <<        << =7= <   <<<<   < =7= <   <<<<   < =7= <   <<<<   < =7==  <<     <  ==7==  <<    <   ==7==  <     <<  ==7==   <    <<  ==777 7 777",
"77 7 7777= <<        << =7= <<        << =7= <<        << =7=   % %%%%     =7=   % %%%% %   =7=     %%%% %   =7= < <<      << =7= < <<     <<< =7= <<      << < =7= <<<     << < =777 7 777",
"77 7 7777==     << %%  ==7==  %% <<     ==7==  %% <<     ==7==    <<<< %< ==7==    <<<<    ==7== <% <<<<    ==7 %    %%% %   < 7 <        <   < 7 <   % %%%    % 7 <   <        < 777 7 777",
"77 7 7777=== <% <<    ===7====   %% %% ===7===    << %< ===7====         ===7=== <%    %< ===7===         ====7 <   <    <   < 7 <   < %%%    < 7 <   <    <   < 7 <    %%% <   < 777 7 777",
"77 7 7777====   %% ======7====== <<   ====7====== %%   ====7==== <% %% =====7====   <<   ====7===== %% %< ====7= <<< ==== <<< =7= <<% =    <<% =7= <<< ==== <<< =7= %<<    = %<< =777 7 777",
"77 7 7777=======  =======7=======  =======7=======  =======7=====  =  ======7=======  =======7======  =  =====7==   ======   ==7==   ======   ==7==   ======   ==7==   ======   ==777 7 777",
"77 7 77777777777777777777777777777777777777777777777777777777777777777777777777777777777777777777777777777777777777777777777777777777777777777777777777777777777777777777777777777777 7 777",
"77 7 7777=====      =====7=====      =====7=====      =====7=====      =====7==225525525522==7======= ========7=============2227222=============7::::::::7::::::::7777777777777777777 7 777",
"77 7 7777==== %%%%%% ====7==== %%%%%% ====7==== %%%%%% ====7==== %%%%%% ====7====25555552====7======= ========7============244474442============7::::::::7::::::::7777777777777777777 7 777",
"77 7 7777=== %%%%%%%% ===7=== %%%%%%%% ===7=== %%%%%%%% ===7=== %%%%%%%% ===7===2422222242===7======= ========7===========24444744442===========7::::::::7::::::::7777777777777777777 7 777",
"77 7 7777=== %%%  %%% ===7=== %%%%%%%% ===7===  %%%%%%<  ==7==  <%%%%%%  ===7===2422222242===7======= ========7===========22444744422===========7::::::::7::::::::7777777777777777777 7 777",
"77 7 7777==  %%    %%  ==7==  %%%%%%%%  ==7==   %%%%%<<<< =7= <<<<%%%%%   ==7====25522552====7======= ========7==========2224447444222==========7  ::::::7::::::  7777777777777777777 7 777",
"77 7 7777==    %%%%    ==7==   %<<<<%   ==7==       %%%  ==7==  %%%       ==7===2255225522===7======= ========7==========2222227222222==========7    ::::7::::    7777777777777777777 7 777",
"77 7 7777= < <<<<<<<< < =7= <          < =7=== < <<      ==7==      << < ===7===2422222242===7======= ========7===========25255755252===========7::    ::7::    ::7777777777777777777 7 777",
"77 7 7777= <<<< << <<<< =7= <<        << =7=== < << <<  ===7===  << << < ===7====22222222====7======= ========7===========25255755252===========7::::    7    ::::7777777777777777777 7 777",
"77 7 7777==  << << <<  ==7==            ==7  = <<<<<<< ====7==== <<<<<<< =  7======= ========7=====222222=====7===     22=25555755552=22     ===7::::::  7  ::::::7:::::: :7777777777 7 777",
"77 7 7777==== <<<<<< ====7== %<%    %<% ==7=  = %<<<   ====7====   <<<% =  =7======= ========7====24444442====7=  ======22=245575542=22======  =7::::::::7::::::::7::::: < 7777777777 7 777",
"77 7 7777=== %      % ===7== %  <<<<  % ==7==        << ===7=== <<        ==7======= ========7===2444444442===7 =========2222227222222========= 7::::::::7::::::::7::::: < 7777777777 7 777",
"77 7 7777=== %      % ===7===   %%%%   ===7=== << %% %% ===7=== %% %% << ===7======= ========7===2444444442===7===========25524742552===========7::::::::7::::::::7 ::: <% 7777777777 7 777",
"77 7 7777==== <<  << ====7====  <<<<  ====7=== <<    << ===7=== <<    << ===7======= ========7==224444444422==7===========25522722552===========7::::::::7::::::::7   : <% 7777777777 7 777",
"77 7 7777===  <<  <<  ===7=== %      % ===7====   <<   ====7====   <<   ====7======= ========7==222455554222==7============222575222============7::::::::7::::::::7  : <  :7777777777 7 777",
"77 7 7777=== %      % ===7=== %%%  %%% ===7===== %%%% =====7===== %%%% =====7======= ========7=25222222222252=7=============2447442=============7::::::::7::::::::7 :   :::7777777777 7 777",
"77 7 7777====        ====7====   ==   ====7======    ======7======    ======7======= ========7=25522222222552=7==============22722==============7::::::::7::::::::7:  :::::7777777777 7 777",
"77 7 77777777777777777777777777777777777777777777777777777777777777777777777777777777777777777777777777777777777777777777777777777777777777777777777777777777777777777777777777777777 7 777",
"77 7 7777================7=====      =====7================7================7=====      =====7================7=====      =====7================7=====      =====7================777 7 777",
"77 7 7777=====      =====7==== <3333< ====7=====      =====7=====      =====7==== <<<<<< ====7=====      =====7==== 33<<<< ====7=====      =====7==== <<<<33 ====7=====      =====777 7 777",
"77 7 7777==== <3333< ====7=== 33<<<<33 ===7==== <3333< ====7==== <<<<<< ====7=== 3<<<<<<3 ===7==== <<<<<< ====7=== 3<<333<< ===7==== 33<<<< ====7=== <<333<<3 ===7==== <<<<33 ====777 7 777",
"77 7 7777=== 33<<<<33 ===7=== << 33 << ===7=== 33<<<<33 ===7=== 3<<<<<<3 ===7=== 33<<<<33 ===7=== 3<<<<<<3 ===7== 33  <<<33 ===7=== 3<<333<< ===7=== 33<<<  33 ==7=== <<333<<3 ===777 7 777",
"77 7 7777=== << 33 << ===7== 33 3  3 33 ==7=== << 33 << ===7=== 33<<<<33 ===7== 3<333333<3 ==7=== 33<<<<33 ===7== 3 <3   << ===7== 33  <<<33 ===7=== <<   3< 3 ==7=== 33<<<  33 ==777 7 777",
"77 7 7777== 3  3  3  3 ==7== 3 < << < 3 ==7== 3  3  3  3 ==7== 3<333333<3 ==7== 3 <<<<<< 3 ==7== 3<333333<3 ==7=== << < 3333 ==7== 3 <3   << ===7== 3333 < << ===7=== <<   3< 3 ==777 7 777",
"77 7 7777== 3 < << < 3 ==7===  <<<<<<  ===7== 3 < << < 3 ==7== 3 <<<<<< 3 ==7=== 3      3 ===7== 3 <<<<<< 3 ==7=== < <<   33 ==7=== << < 3333 ==7== 33   << < ===7== 3333 < << ===777 7 777",
"77 7 7777===  <<<<<<  ===7   <<< << <<<   7===  <<<<<<  ===7=== 3      3 ===7   3 333333 3   7=== 3      3 ===7=== < << <<  ===7=== < <<   33 ==7===  << << < ===7== 33   << < ===777 7 777",
"77 7 7777   <<< << <<<   7 33 << << << 33 7   <<< << <<<   7   3 333333 3   7 3333  33  3333 7   3 333333 3   7=== <<< 33333 ==7=== < << <<  ===7== 33333 <<< ===7===  << << < ===777 7 777",
"77 7 7777 33 << << << 33 7=    <<<<<<    =7 33 << << << 33 7 3333  33  3333 7=  333    333  =7 3333  33  3333 7==== <<  3333 ==7=== <<< 33333 ==7== 3333  << ====7== 33333 <<< ===777 7 777",
"77 7 7777=    <<<<<<    =7===  3    3  ===7=    <<<<<<    =7=  333    3    =7===   <<<<   ===7=    3    333  =7=====        ===7==== <<  3333 ==7===        =====7== 3333  << ====777 7 777",
"77 7 7777== < 3   3  ====7== << <  < << ==7====  3   3 < ==7===   <<<< < ===7== <3 3333 3< ==7=== < <<<<   ===7===== 3   33 ===7=====        ===7=== 33   3 =====7===        =====777 7 777",
"77 7 7777===  <  < << ===7== << <  < << ==7=== << <  <  ===7====  3333 < ===7== <  <<<<  < ==7=== < 3333  ====7====== << << ===7===   33 <<  ===7=== << << ======7===  << 33   ===777 7 777",
"77 7 7777====    < << ===7===    33    ===7=== << <    ====7====  <<<<   ===7===          ===7===   <<<<  ====7=====  <<   ====7== 33  < << 3 ==7====   <<  =====7== 3 << <  33 ==777 7 777",
"77 7 7777===== 33    ====7==== 33  33 ====7====    33 =====7===== 3    =====7==== 33  33 ====7=====    3 =====7==== 33  3 =====7=== 33  3  33 ==7===== 3  33 ====7== 33  3  33 ===777 7 777",
"77 7 7777======  ========7=====  ==  =====7========  ======7======   =======7=====  ==  =====7=======   ======7=====     ======7====   ====  ===7======     =====7===  ====   ====777 7 777",
"77 7 77777777777777777777777777777777777777777777777777777777777777777777777777777777777777777777777777777777777777777777777777777777777777777777777777777777777777777777777777777777 7 777",
"77 7 7777======      ====7=====      =====7====      ======7====      ======7=====      =====7======      ====7=====      =====7====      ======7=====      =====7======      ====777 7 777",
"77 7 7777===== <3333< ===7==== <3333< ====7=== <3333< =====7=== <<<<<< =====7==== <<<<<< ====7===== <<<<<< ===7==== 33<<<< ====7=== 33<<<< =====7==== <<<<33 ====7===== <<<<33 ===777 7 777",
"77 7 7777==== 33<<<<33 ==7=== 33<<<<33 ===7== 33<<<<33 ====7== 3<<<<<<3 ====7=== 3<<<<<<3 ===7==== 3<<<<<<3 ==7=== 3<<333<< ===7== 3<<333<< ====7=== <<333<<3 ===7==== <<333<<3 ==777 7 777",
"77 7 7777==== << 33 << ==7=== << 33 << ===7== << 33 << ====7== 33<<<<33 ====7=== 33<<<<33 ===7==== 33<<<<33 ==7== 33  <<<33 ===7= 33  <<<33 ====7=== 33<<<  33 ==7==== 33<<<  33 =777 7 777",
"77 7 7777=== 33 3  3 33 =7== 33 3  3 33 ==7= 33 3  3 33 ===7= 3<333333<3 ===7== 3<333333<3 ==7=== 3<333333<3 =7== 3 <3   << ===7= 3 <3   << ====7=== <<   3< 3 ==7==== <<   3< 3 =777 7 777",
"77 7 7777=== 3 < << < 3 =7== 3 < << < 3 ==7= 3 < << < 3 ===7= 3 <<<<<< 3 ===7== 3 <<<<<< 3 ==7=== 3 <<<<<< 3 =7=== << < 3333 ==7== << < 3333 ===7== 3333 < << ===7=== 3333 < << ==777 7 777",
"77 7 7777====  <<<<<<  ==7===  <<<<<<  ===7==  <<<<<<  ====7== 3      3 ====7=== 3      3 ===7==== 3      3 ==7=== < <<   33 ==7== < <<   33 ===7== 33   << < ===7=== 33   << < ==777 7 777",
"77 7 7777=   <<< << <<< =7   <<< << <<<   7= <<< << <<<   =7=   333333 3   =7   3 333333 3   7=   3 333333   =7=== < << <<  ===7== < << <<  ====7===  << << < ===7====  << << < ==777 7 777",
"77 7 7777= 33 << << << 3 7 33 << << << 33 7 3 << << << 33 =7 333  33  3333 =7 3333  33  3333 7= 3333  33  333 7=== <<< 33333 ==7== <<< 33333 ===7== 33333 <<< ===7=== 33333 <<< ==777 7 777",
"77 7 7777==    <<<<<<    7=    <<<<<<    =7    <<<<<<    ==7  333    333  ==7=  333    333  =7==  333    333  7====  <  3333 ==7===   < 3333 ===7== 3333  <  ====7=== 3333 <   ===777 7 777",
"77 7 7777= <<        << =7= <<        << =7= <<        << =7 <   <<<<    ===7= <   <<<<   < =7===    <<<<   < 7==  <<       ===7==  <<      = ==7===       <<  ==7== =      <<  ==777 7 777",
"77 7 7777= <<        << =7= <<        << =7= <<        << =7   3 3333    ===7=   3 3333 3   =7===    3333 3   7= < <<     <<< =7= < <<     <<< =7= <<<     << < =7= <<<     << < =777 7 777",
"77 7 7777==     << 33  ==7==  33 <<     ==7==  33 <<     ==7=    <<<< 3< ===7==    <<<<    ==7=== <3 <<<<    =7 3    333 3   < 7 <        <   < 7 <   3 333    3 7 <   <        < 777 7 777",
"77 7 7777=== <3 <<    ===7====   33 33 ===7===    << 3< ===7===         ====7=== <3    3< ===7====         ===7 <   <    <   < 7 <   < 333    < 7 <   <    <   < 7 <    333 <   < 777 7 777",
"77 7 7777====   33 ======7====== <<   ====7====== 33   ====7=== <3 33 ======7====   <<   ====7====== 33 3< ===7= <<< ==== <<< =7= <<3 =    <<3 =7= <<< ==== <<< =7= 3<<    = 3<< =777 7 777",
"77 7 7777=======  =======7=======  =======7=======  =======7====  =  =======7=======  =======7=======  =  ====7==   ======   ==7==   ======   ==7==   ======   ==7==   ======   ==777 7 777",
"77 7 77777777777777777777777777777777777777777777777777777777777777777777777777777777777777777777777777777777777777777777777777777777777777777777777777777777777777777777777777777777 7 777",
"77 7 7777=====      =====7=====      =====7=====      =====7=====      =====724425525525524427======= ========7=============2227222=============7::::::::7::::::::7777777777777777777 7 777",
"77 7 7777==== <3333< ====7==== <<<<<< ====7==== 33<<<< ====7==== <<<<33 ====7=22225555552222=7======= ========7============244575442============7::::::::7::::::::7777777777777777777 7 777",
"77 7 7777=== 33<<<<33 ===7=== 3<<<<<<3 ===7=== 3<<333<< ===7=== <<333<<3 ===7===2222222222===7======= ========7===========24554745542===========7::::::::7::::::::7777777777777777777 7 777",
"77 7 7777=== << 33 << ===7=== 33<<<<33 ===7== 33  <<<33 ===7=== 33<<<  33 ==7===2422222242===7======= ========7==========2442257522442==========7::::::::7::::::::7777777777777777777 7 777",
"77 7 7777== 33 3  3 33 ==7== 3<333333<3 ==7== 3 <3   << ===7=== <<   3< 3 ==7====25522552====7======= ========7==========2425427245242==========7  ::::::7::::::  7777777777777777777 7 777",
"77 7 7777== 3 < << < 3 ==7== 3 <<<<<< 3 ==7=== << < 3333 ==7== 3333 < << ===7===2255225522===7======= ========7===========25525752552===========7    ::::7::::    7777777777777777777 7 777",
"77 7 7777===  <<<<<<  ===7=== 3      3 ===7=== < <<   33 ==7== 33   << < ===7===2422222242===7======= ========7===========25255755252===========7::    ::7::    ::7777777777777777777 7 777",
"77 7 7777   <<< << <<<   7   3 333333 3   7=== < << <<  ===7===  << << < ===7====22222222====7======= ========7===========25255755252===========7::::    7    ::::7777777777777777777 7 777",
"77 7 7777 33 << << << 33 7 3333  33  3333 7  = <<< 33333 ==7== 33333 <<< =  7======= ========7=====222222=====7===     22=25552725552=22     ===7::::::  7  ::::::7:::::: :7777777777 7 777",
"77 7 7777=    <<<<<<    =7=  333    333  =7=  = <<  3333 ==7== 3333  << =  =7======= ========7====25555552====7=  ======22=255272552=22======  =7::::::::7::::::::7::::: < 7777777777 7 777",
"77 7 7777===          ===7===   <<<<   ===7==           ===7===           ==7======= ========7===2455555542===7 =========2222227222222========= 7::::::::7::::::::7::::: < 7777777777 7 777",
"77 7 7777=== 3      3 ===7===   3333   ===7=== << 33 33 ===7=== 33 33 << ===7======= ========7===2445555442===7===========25524742552===========7::::::::7::::::::7 ::: <% 7777777777 7 777",
"77 7 7777==== <<  << ====7====  <<<<  ====7=== <<    << ===7=== <<    << ===7======= ========7==245444444542==7===========25522722552===========7::::::::7::::::::7   : <% 7777777777 7 777",
"77 7 7777===  <<  <<  ===7=== 3      3 ===7====   <<   ====7====   <<   ====7======= ========7==242555555242==7============222575222============7::::::::7::::::::7  : <  :7777777777 7 777",
"77 7 7777=== 3      3 ===7=== 333  333 ===7===== 3333 =====7===== 3333 =====7======= ========7===2422222242===7=============2447442=============7::::::::7::::::::7 :   :::7777777777 7 777",
"77 7 7777====        ====7====   ==   ====7======    ======7======    ======7======= ========722242444444242227==============22722==============7::::::::7::::::::7:  :::::7777777777 7 777",
"77 7 77777777777777777777777777777777777777777777777777777777777777777777777777777777777777777777777777777777777777777777777777777777777777777777777777777777777777777777777777777777 7 777",
"77 7 7777================7======    ======7================7================7======    ======7================7=====     ======7================7======     =====7================777 7 777",
"77 7 7777======    ======7====  %%%%  ====7======    ======7======    ======7====  %%%%  ====7======    ======7==== %%%%%  ====7=====     ======7====  %%%%% ====7======     =====777 7 777",
"77 7 7777====  %%%%  ====7=== %%%%%%%% ===7====  %%%%  ====7====  %%%%  ====7=== %%%%%%%% ===7====  %%%%  ====7=== %%%%%%%% ===7==== %%%%%  ====7=== %%%%%%%% ===7====  %%%%% ====777 7 777",
"77 7 7777=== %%%%%%%% ===7== %%%%  %%%% ==7=== %%%%%%%% ===7=== %%%%%%%% ===7== %%%%%%%%%% ==7=== %%%%%%%% ===7== % %%%%%%%% ==7=== %%%%%%%% ===7== %%%%%%%% % ==7=== %%%%%%%% ===777 7 777",
"77 7 7777== %%%%  %%%% ==7== %%% << %%% ==7== %%%%  %%%% ==7== %%%%%%%%%% ==7== %%%%%%%%%% ==7== %%%%%%%%%% ==7==  % %%%%%%% ==7== % %%%%%%%% ==7== %%%%%%% %  ==7== %%%%%%%% % ==777 7 777",
"77 7 7777== %%% << %%% ==7= %%  <<<<  %% =7== %%% << %%% ==7== %%%%%%%%%% ==7= %%%%%%%%%%%% =7== %%%%%%%%%% ==7== %<% %%%%%%% =7==  % %%%%%%% ==7= %%%%%%% %<% ==7== %%%%%%% %  ==777 7 777",
"77 7 7777= %%  <<<<  %% =7= % <<<<<<<< % =7= %%  <<<<  %% =7= %%%%%%%%%%%% =7= %%%%%%%%%%%% =7= %%%%%%%%%%%% =7=== <    %%%%% =7== %<% %%%%%%% =7= %%%%%    < ===7= %%%%%%% %<% ==777 7 777",
"77 7 7777= % <<<<<<<< % =7= % <  <<  < % =7= % <<<<<<<< % =7= %%%%%%%%%%%% =7= %%%%%%%%%%%% =7= %%%%%%%%%%%% =7=== < <<< %% % =7=== <    %%%%% =7= % %% <<< < ===7= %%%%%    < ===777 7 777",
"77 7 7777= % <  <<  < % =7= % << << << % =7= % <  <<  < % =7= %%%%%%%%%%%% =7= %% %%%%%% %% =7= %%%%%%%%%%%% =7=== <<<<< %% % =7=== < <<< %% % =7= % %% <<<<< ===7= % %% <<< < ===777 7 777",
"77 7 7777= % << << << % =7== % <<%%<< % ==7= % << << << % =7=  %%%%%%%%%% ==7== % %%%%%% % ==7== %%%%%%%%%%  =7==== %<<<< %% ==7=== <<<<< %% % =7== %% <<<<% ====7= % %% <<<<< ===777 7 777",
"77 7 7777== % <<%%<< % ==7==  <      <  ==7== % <<%%<< % ==7= < % %%%% %  ==7=   % %%%% %   =7==  % %%%% % < =7=====        ===7==== %<<<< %% ==7===        =====7== %% <<<<% ====777 7 777",
"77 7 7777==  <         ==7= << <%  %< << =7==         <  ==7==  % %%%% %<< =7= <          < =7= <<% %%%% %  ==7======  <<  ====7=====        ===7====  <<  ======7===        =====777 7 777",
"77 7 7777==== %%   << ===7= << %%  %% << =7=== <<   %% ====7===  %    % << =7==   %%%%%%   ==7= << %    %  ===7======  <<  ====7===      <<  ===7====  <<  ======7===  <<      ===777 7 777",
"77 7 7777====   %% << ===7==            ==7=== << %%   ====7====          ==7===    %%    ===7==          ====7===== %     ====7== <% %% << % ==7====     % =====7== % << %% %< ==777 7 777",
"77 7 7777==== %   =  ====7=== <%    %< ===7====  =   % ====7==== %    ======7=== %      % ===7======    % ====7=====      =====7=== %%     <% ==7=====      =====7== %<     %% ===777 7 777",
"77 7 7777=====   ========7====   ==   ====7========   =====7=====   ========7====   ==   ====7========   =====7======    ======7====   ====  ===7======    ======7===  ====   ====777 7 777",
"77 7 77777777777777777777777777777777777777777777777777777777777777777777777777777777777777777777777777777777777777777777777777777777777777777777777777777777777777777777777777777777 7 777",
"77 7 7777================7======    ======7================7================7======    ======7================7======   =======7================7=======   ======7================777 7 777",
"77 7 7777======    ======7====  ++++  ====7======    ======7======    ======7====  ++++  ====7======    ======7====  +++  =====7======   =======7=====  +++  ====7=======   ======777 7 777",
"77 7 7777====  ++++  ====7=== +< ++ <+ ===7====  ++++  ====7====  ++++  ====7=== ++++++++ ===7====  ++++  ====7=== ++< +++ ====7====  +++  =====7==== +++ <++ ===7=====  +++  ====777 7 777",
"77 7 7777=== +< ++ <+ ===7=== <<<  <<< ===7=== +< ++ <+ ===7=== ++++++++ ===7=== ++++++++ ===7=== ++++++++ ===7== <<<<< +++ ===7=== ++< +++ ====7=== +++ <<<<< ==7==== +++ <++ ===777 7 777",
"77 7 7777=== <<<  <<< ===7== <<<<<<<<<< ==7=== <<<  <<< ===7=== ++++++++ ===7== ++++++++++ ==7=== ++++++++ ===7== <<<<< +++ ===7== <<<<< +++ ===7=== +++ <<<<< ==7=== +++ <<<<< ==777 7 777",
"77 7 7777== <<<<<<<<<< ==7==  <  <<  << ==7== <<<<<<<<<< ==7== ++++++++++ ==7== ++++++++++ ==7== ++++++++++ ==7==  <<<<  +++ ==7== <<<<< +++ ===7== +++  <<<<  ==7=== +++ <<<<< ==777 7 777",
"77 7 7777== <<  <<  <  ==7= <+ <<  << +< =7==  <  <<  << ==7== ++++++++++ ==7= < ++++++++ < =7== ++++++++++ ==7== < ++ << ++ ==7==  <<<<  +++ ==7== ++ << ++ < ==7== +++  <<<<  ==777 7 777",
"77 7 7777= <+ <<  << +< =7= < <  <<  < < =7= <+ <<  << +< =7= < ++++++++ < =7= < <++++++< < =7= < ++++++++ < =7==  <<<<<< + ===7== < ++ << ++ ==7=== + <<<<<<  ==7== ++ << ++ < ==777 7 777",
"77 7 7777= < <  <<  < < =7==  <<<<<<<<  ==7= < <  <<  < < =7= < <++++++< < =7==  <<<<<<<<  ==7= < <++++++< < =7== <<<<<  ++ ===7==  <<<<<< + ===7=== ++  <<<<< ==7=== + <<<<<<  ==777 7 777",
"77 7 7777=   <<<<<<<<  ==7==   <<++<<   ==7==  <<<<<<<<   =7=   <<<<<<<<  ==7==   <<<<<<   ==7==  <<<<<<<<   =7=== +<<< ++ ====7== <<<<<  ++ ===7==== ++ <<<+ ===7=== ++  <<<<< ==777 7 777",
"77 7 7777= << <<++<<  ===7= <<        << =7===  <<++<< << =7= <  <<<<<<  ===7= < <      < < =7===  <<<<<<  < =7====    << =====7=== +<<< ++ ====7===== <<    ====7==== ++ <<<+ ===777 7 777",
"77 7 7777==  <      << ==7= << < << < << =7== <<      <  ==7==  <      << ==7= < <<<<<<<< < =7== <<      <  ==7==== < << < ====7====    <  =====7==== < << < ====7=====  <    ====777 7 777",
"77 7 7777== <<< <<  << ==7==  <<    <<  ==7== <<  << <<< ==7=== <<<<<< << ==7==  <<<<<<<<  ==7== << <<<<<< ===7==== < << < ====7===  +< <<  ====7==== < << < ====7====  << <+  ===777 7 777",
"77 7 7777=== <  ++ <  ===7== <<< ++ <<< ==7===  < ++  < ===7===    <<<<  ===7===  <<<<<<  ===7===  <<<<    ===7==== <<  << ====7== ++ < << + ===7==== <<  << ====7=== + << < ++ ==777 7 777",
"77 7 7777==== ++    =====7=== ++    ++ ===7=====    ++ ====7==== ++    =====7=== ++    ++ ===7=====    ++ ====7===== +++  =====7=== ++ <  ++ ===7=====  +++ =====7=== ++  < ++ ===777 7 777",
"77 7 7777=====   ========7====   ==   ====7========   =====7=====  =========7====   ==   ====7=========  =====7======   =======7====     =  ====7=======   ======7====  =     ====777 7 777",
"77 7 77777777777777777777777777777777777777777777777777777777777777777777777777777777777777777777777777777777777777777777777777777777777777777777777777777777777777777777777777777777 7 777",
"77 7 7777================7=====      =====7================7================7=====      =====7================7=====     ======7================7======     =====7================777 7 777",
"77 7 7777=====      =====7==   <<<<<< ====7=====      =====7=====      =====7==== <<<<<<   ==7=====      =====7==   <<<<< =====7=====     ======7===== <<<<<   ==7======     =====777 7 777",
"77 7 7777==   <<<<<< ====7=== <  <   < ===7==== <<<<<<   ==7==== <<<<<<   ==7=== <<<<<<<< ===7==   <<<<<< ====7= <<<<<<<<< ====7==   <<<<< =====7==== <<<<<<<<< =7===== <<<<<   ==777 7 777",
"77 7 7777=== <  <   < ===7===  << <<<  ===7=== <   <  < ===7=== <<<<<<<< ===7=== <<<<<<<< ===7=== <<<<<<<< ===7== <    <<<< ===7= <<<<<<<<< ====7=== <<<<    < ==7==== <<<<<<<<< =777 7 777",
"77 7 7777===  << <<<  ===7==  <<<<<<<<  ==7===  <<< <<  ===7=== <<<<<<<< ===7==  <<<<<<<<  ==7=== <<<<<<<< ===7==  <<<< <<< ===7== <    <<<< ===7=== <<< <<<<  ==7=== <<<<    < ==777 7 777",
"77 7 7777==  <<<<<<<<  ==7= < <+<<<<+< < =7==  <<<<<<<<  ==7==  <<<<<<<<  ==7= < <<<<<<<< < =7==  <<<<<<<<  ==7=== <<+<<    ===7==  <<<< <<< ===7===    <<+<< ===7=== <<< <<<<  ==777 7 777",
"77 7 7777= < <+<<<<+< < =7= <<<< ++ <<<< =7= < <+<<<<+< < =7= < <<<<<<<< < =7= << <<<<<< << =7= < <<<<<<<< < =7=== + <<< << ===7=== <<+<<    ===7=== << <<< + ===7===    <<+<< ===777 7 777",
"77 7 7777= <<<< ++ <<<< =7= <+<< << <<+< =7= <<<< ++ <<<< =7= << <<<<<< << =7= <+< <<<< <+< =7= << <<<<<< << =7=== < <<<+<< ===7=== + <<< << ===7=== <<+<<< < ===7=== << <<< + ===777 7 777",
"77 7 7777= <+<< << <<+< =7==  <<<<<<<<  ==7= <+<< << <<+< =7= <+< <<<< <+< =7==  <<+  +<<  ==7= <+< <<<< <+< =7=== <<<<<<< ====7=== < <<<+<< ===7==== <<<<<<< ===7=== <<+<<< < ===777 7 777",
"77 7 7777==  <<<<<<<<  ==7=  < <<++<< <  =7==  <<<<<<<<  ==7==  <<+  +<<  ==7=    <<<<<<    =7==  <<+  +<<  ==7==== +<<<  =====7=== <<<<<<< ====7=====  <<<+ ====7==== <<<<<<< ===777 7 777",
"77 7 7777=  < <<++<< +< =7 << <      < << 7= <+ <<++<< <  =7= <  <<<<<<    =7 <  <+    +<  < 7=    <<<<<<  < =7=====     < ====7==== +<<<   ====7==== <     =====7====   <<<+ ====777 7 777",
"77 7 7777= < <        < =7 << <<    << << 7= <        < < =7=   <+    +< << 7 <  <<<<<<<<  < 7 << <+    +<   =7=====   <<  ====7=====      < ===7====  <<   =====7=== <      =====777 7 777",
"77 7 7777== <<< ++  << ==7=   << ++ <<   =7== <<  ++ <<< ==7==  <<<<<<<< << 7=  <<<<<<<<<<  =7 << <<<<<<<<  ==7===== + << < ===7=====    << < ==7=== < << + =====7== < <<    =====777 7 777",
"77 7 7777== <<      << ==7== <<<    <<< ==7== <<      << ==7=== <<<<<<<<   =7== <<<+  +<<< ==7=   <<<<<<<< ===7=====  <  << ===7==    ++ << < ==7=== <<  <  =====7== < << ++    ==777 7 777",
"77 7 7777===       =  ===7===          ===7===  =       ===7===    +<+  ====7===          ===7====  +<+    ===7=====        ===7===           ==7===        =====7==           ===777 7 777",
"77 7 7777=====    =======7==     ==     ==7=======    =====7====      ======7==     ==     ==7======      ====7====      ======7====   ===   ===7======      ====7===   ===   ====777 7 777",
"77 7 77777777777777777777777777777777777777777777777777777777777777777777777777777777777777777777777777777777777777777777777777777777777777777777777777777777777777777777777777777777 7 777",
"77 7 7777::::::::::::::::7======    ======7::::::::::::::::7::::::::::::::::7======    ======7::::::::::::::::7=====     ======7================7======     =====7================777 7 777",
"77 7 7777::::::    ::::::7====        ====7::::::    ::::::7::::::    ::::::7====        ====7::::::    ::::::7====        ====7=====     ======7====        ====7======     =====777 7 777",
"77 7 7777::::        ::::7==    <  <    ==7::::        ::::7::::        ::::7==            ==7::::        ::::7===  %%%      ==7====        ====7==      %%%  ===7====        ====777 7 777",
"77 7 7777::    <  <    ::7=   %%    %%   =7::    <  <    ::7::            ::7=              =7::            ::7=== %%%%%      =7===  %%%      ==7=      %%%%% ===7==      %%%  ===777 7 777",
"77 7 7777:   %%    %%   :7   %%%%  %%%%   7:   %%    %%   :7:              :7                7:              :7===%<  %%%      7=== %%%%%      =7      %%%  <%===7=      %%%%% ===777 7 777",
"77 7 7777   %%%%  %%%%   7   %% <  < %%   7   %%%%  %%%%   7                7                7                7=== <<< %   %   7===%<  %%%      7   %   % <<< ===7      %%%  <%===777 7 777",
"77 7 7777   %% <  < %%   7=  % <<<<<< %  =7   %% <  < %%   7                7=  %        %  =7                7=== < <     %   7=== <<< %   %   7   %     < < ===7   %   % <<< ===777 7 777",
"77 7 7777:  % <<<<<< %  :7===  < << <  ===7:  % <<<<<< %  :7:  %        %  :7=== %%    %% ===7:  %        %  :7=== < << <<    =7=== < <     %   7=    << << < ===7   %     < < ===777 7 777",
"77 7 7777:::  < << <  :::7=== << << << ===7:::  < << <  :::7::: %%    %% :::7=== <<%%%%<< ===7::: %%    %% :::7=== <<<<<<<   ==7=== < << <<    =7==   <<<<<<< ===7=    << << < ===777 7 777",
"77 7 7777::: << << << :::7==== <<<<<<  ===7::: << << << :::7::: <<%%%%<< :::7==== <<<<<<  ===7::: <<%%%%<< :::7==== %<<   =====7=== <<<<<<<   ==7=====   <<% ====7==   <<<<<<< ===777 7 777",
"77 7 7777:::  <<<<<< ::::7=== <      < ===7:::: <<<<<<  :::7:::: <<<<<<  :::7=== <      < ===7:::  <<<<<< ::::7=====   < % ====7==== %<<   =====7==== % <   =====7=====   <<% ====777 7 777",
"77 7 7777::: <      < :::7== << %  % << ==7::: <      < :::7::: <      < :::7== << %  % << ==7::: <      < :::7===== % <<  ====7=====   < % ====7====  << % =====7==== % <   =====777 7 777",
"77 7 7777:: << %  % << ::7===  %%%%%%  ===7:: << %  % << ::7:: << %  % << ::7===  %%%%%%  ===7:: << %  % << ::7==== %%% < % ===7===== % <<  ====7=== % < %%% ====7====  << % =====777 7 777",
"77 7 7777:::  %%%%%%  :::7=== %%%%%%%% ===7:::  %%%%%%  :::7:::  %%%%%%  :::7=== %%%%%%%% ===7:::  %%%%%%  :::7==== %%%% %% ===7==== %%% < % ===7=== %% %%%% ====7=== % < %%% ====777 7 777",
"77 7 7777::::  %%%   ::::7==== %%%%%% ====7::::   %%%  ::::7::::  %%%  :::::7==== %%%%%% ====7:::::  %%%  ::::7=====  %%%  ====7===== %%% % ====7====  %%%  =====7==== % %%% =====777 7 777",
"77 7 7777::::::   :::::::7=====      =====7:::::::   ::::::7::::::   :::::::7=====      =====7:::::::   ::::::7=======   ======7======     =====7======   =======7=====     ======777 7 777",
"77 7 77777777777777777777777777777777777777777777777777777777777777777777777777777777777777777777777777777777777777777777777777777777777777777777777777777777777777777777777777777777 7 777",
"77 7 7777================7======    ======7================7================7======    ======7================7=====     ======7================7======     =====7================777 7 777",
"77 7 7777======    ======7====        ====7======    ======7======    ======7====        ====7======    ======7====       =====7=====     ======7=====       ====7======     =====777 7 777",
"77 7 7777====        ====7===   %%%%   ===7====        ====7====        ====7===          ===7====        ====7===  %%     ====7====       =====7====     %%  ===7=====       ====777 7 777",
"77 7 7777===   %%%%   ===7===  %%%%%%  ===7===   %%%%   ===7===          ===7===          ===7===          ===7==  %%%<     ===7===  %%     ====7===     <%%%  ==7====     %%  ===777 7 777",
"77 7 7777===  %%%%%%  ===7==  %%    %%  ==7===  %%%%%%  ===7===          ===7==            ==7===          ===7== %   %     ===7==  %%%<     ===7===     %   % ==7===     <%%%  ==777 7 777",
"77 7 7777==  %%    %%  ==7==  % %  % %  ==7==  %%    %%  ==7==            ==7=              =7==            ==7=== <<      %  =7== %   %      ==7=  %      << ===7==      %   % ==777 7 777",
"77 7 7777==  % %  % %  ==7=    <<<<<<    =7==  % %  % %  ==7==            ==7 %            % 7==            ==7=== < <<        7=== <<      %  =7        << < ===7=  %      << ===777 7 777",
"77 7 7777=    <<<<<<    =7 %  << << <<  % 7=    <<<<<<    =7=              =7                7=              =7=== < <<<       7=== < <<        7       <<< < ===7        << < ===777 7 777",
"77 7 7777 %  << << <<  % 7    << << <<    7 %  << << <<  % 7 %            % 7=              =7 %            % 7=== <<<<<      =7=== < <<<       7=      <<<<< ===7       <<< < ===777 7 777",
"77 7 7777    << << <<    7     <<%%<<     7    << << <<    7                7==  %  %%  %  ==7                7==== %<% %    ==7=== <<<<       =7==    % %<% ====7=       <<<< ===777 7 777",
"77 7 7777     <<%%<<     7=  <%      %<  =7     <<%%<<     7    %  %%  %    7== < %%  %% < ==7    %  %%  %    7=====  <  %% ===7==== %<% %    ==7=== %%  <  =====7==    % %<% ====777 7 777",
"77 7 7777=  %       %   =7= << %%  %% << =7=   %       %  =7== % %%  %% < ==7===    %%    ===7== < %%  %% % ==7===== <<%%    ==7=====  <  %% ===7==    %%<< =====7=== %%  <  =====777 7 777",
"77 7 7777= <  %%  %<<   =7==  %%%%%%%%  ==7=   <<%  %%  < =7== %%  %%  %  ==7=== %%%%%%%% ===7==  %  %%  %% ==7==== %%%%%%%% ==7===== <<%%    ==7== %%%%%%%% ====7==    %%<< =====777 7 777",
"77 7 7777==  %%%%%%%%  ==7=== %%%%%%%% ===7==  %%%%%%%%  ==7=== %%%%%%%% ===7=== %%%%%%%% ===7=== %%%%%%%% ===7==== %%%%%%%  ==7==== %%%%%%%% ==7==  %%%%%%% ====7== %%%%%%%% ====777 7 777",
"77 7 7777=== %%%%%%% ====7==== %%%%%% ====7==== %%%%%%% ===7==== %%%%%%% ===7==== %%%%%% ====7=== %%%%%%% ====7===== %%%%%  ===7====  %%%%%%% ==7===  %%%%% =====7== %%%%%%%  ====777 7 777",
"77 7 7777====       =====7=====      =====7=====       ====7=====       ====7=====      =====7====       =====7======      ====7=====        ===7====      ======7===        =====777 7 777",
"77 7 77777777777777777777777777777777777777777777777777777777777777777777777777777777777777777777777777777777777777777777777777777777777777777777777777777777777777777777777777777777 7 777",
"77 7 7777================7======    ======7================7================7======    ======7================7======      ====7================7====      ======7================777 7 777",
"77 7 7777======    ======7====        ====7======    ======7======    ======7====        ====7======    ======7===== <<%    ===7======      ====7===    %<< =====7====      ======777 7 777",
"77 7 7777====        ====7===    %<<%  ===7====        ====7====        ====7===          ===7====        ====7==== <<<<     ==7===== <<%    ===7==     <<<< ====7===    %<< =====777 7 777",
"77 7 7777===    %%    ===7===  %<<<<<< ===7===    %%    ===7===          ===7===          ===7===          ===7==== <  <      =7==== <<<<     ==7=      <  < ====7==     <<<< ====777 7 777",
"77 7 7777===  %<<<<%  ===7==  <<<<<<<<  ==7===  %<<<<%  ===7===          ===7==            ==7===          ===7=== <<<<<%     =7==== <  <      =7=     %<<<<< ===7=      <  < ====777 7 777",
"77 7 7777==  <<<<<<<<  ==7=   <  <<  <   =7==  <<<<<<<<  ==7==            ==7=              =7==            ==7=== %<<<<<<    =7=== <<<<<%     =7=    <<<<<<% ===7=     %<<<<< ===777 7 777",
"77 7 7777=   <  <<  <   =7= <%<<<<<<<<%< =7=   <  <<  <   =7=              =7= <          < =7=              =7=== <<<<<<<    =7=== %<<<<<<    =7=    <<<<<<< ===7=    <<<<<<% ===777 7 777",
"77 7 7777= <%<<<<<<<<%< =7= <<<<<%%<<<<< =7= <%<<<<<<<<%< =7= <          < =7= <<        << =7= <          < =7=== <<<<<<<    =7=== <<<<<<<    =7=    <<<<<<< ===7=    <<<<<<< ===777 7 777",
"77 7 7777= <<<<<%%<<<<< =7== %<<<<<<<<% ==7= <<<<<%%<<<<< =7= <<        << =7==  <<    <<  ==7= <<        << =7==== <<<<%    ==7=== <<<<<<<    =7==    %<<<< ====7=    <<<<<<< ===777 7 777",
"77 7 7777=  %<<<<<<<<% ==7= <  <<<<<<  < =7== %<<<<<<<<%  =7==  <<    <<  ==7= <  <<<<<<  < =7==  <<    <<  ==7=== %        ===7==== <<<<%    ==7===        % ===7==    %<<<< ====777 7 777",
"77 7 7777 <<  <<<<<<  < =7 << %      % << 7= <  <<<<<<  << 7= <  <<<<<< << =7 < %%%    %%% < 7= << <<<<<<  < =7== %<%%% << ====7=== %        ===7==== << %%%<% ==7===        % ===777 7 777",
"77 7 7777 <  %      % << 7 < %<%%%%%%<% < 7 << %      %  < 7 < %%    %% <<< 7 < %<<%%%%<<% < 7 <<< %%    %% < 7== %%%% <<< ====7== %<%%%% << ===7==== <<< %%%% ==7=== << %%%%<% ==777 7 777",
"77 7 7777   %<%%%%%% <<< 7=  %%%%%%%%%%  =7 <<< %%%%%%<%   7 < <<%%%%<< <<< 7=  %%%%%%%%%%  =7 <<< <<%%%%<< < 7== %%%% <<  ====7    %%%%% <<< ==7====  << %%%% ==7== <<< %%%%%    777 7 777",
"77 7 7777==    %%%%% << =7==   %%%%%%   ==7= << %%%%%    ==7=  %%%%%%%%%   =7==  %%%%%%%%  ==7=   %%%%%%%%%  =7=== %%%    =====7     %%%% <<< ==7=====    %%% ===7== <<< %%%%     777 7 777",
"77 7 7777==         =  ==7==            ==7==  =         ==7==     %%%%% ===7==            ==7=== %%%%%     ==7===       ======7=            ===7======       ===7===            =777 7 777",
"77 7 7777===    =========7===    ==    ===7=========    ===7===         ====7===    ==    ===7====         ===7====      ======7===    ==    ===7======      ====7===    ==    ===777 7 777",
"77 7 77777777777777777777777777777777777777777777777777777777777777777777777777777777777777777777777777777777777777777777777777777777777777777777777777777777777777777777777777777777 7 777",
"77 7 7777================7======    ======7================7================7======    ======7================7=====      =====7================7=====      =====7================777 7 777",
"77 7 7777======    ======7====        ====7======    ======7======    ======7====        ====7======    ======7====        ====7=====      =====7====        ====7=====      =====777 7 777",
"77 7 7777====        ====7===    <<    ===7====        ====7====        ====7===          ===7====        ====7===          ===7====        ====7===          ===7====        ====777 7 777",
"77 7 7777===    <<    ===7===  <<<<<<  ===7===    <<    ===7===          ===7===          ===7===          ===7=== <<       ===7===          ===7===       << ===7===          ===777 7 777",
"77 7 7777===  <<<<<<  ===7==  <<<<<<<<  ==7===  <<<<<<  ===7===          ===7==            ==7===          ===7=== <<<       ==7=== <<       ===7==       <<< ===7===       << ===777 7 777",
"77 7 7777==  <<<<<<<<  ==7= < <  <<  < < =7==  <<<<<<<<  ==7==            ==7= <          < =7==            ==7===  <<<      ==7=== <<<       ==7==      <<<  ===7==       <<< ===777 7 777",
"77 7 7777= < <  <<  < < =7= << <<  << << =7= < <  <<  < < =7= <          < =7= <          < =7= <          < =7=== < <<      ==7===  <<<      ==7==      << < ===7==      <<<  ===777 7 777",
"77 7 7777= << <<  << << =7= <% <<  << %< =7= << <<  << << =7= <          < =7= <          < =7= <          < =7=== < << <<  ===7=== <         ==7===  << << < ===7==         < ===777 7 777",
"77 7 7777= <% <<  << %< =7==  <  <<  <  ==7= <% <<  << %< =7= <  <    <  < =7==  <      <  ==7= <  <    <  < =7===  <<<<<< ====7=== < << <<  ===7==== <<<<<<  ===7===  << << < ===777 7 777",
"77 7 7777=   <  <<  <  ==7==   <<%%<<   ==7==  <  <<  <   =7=   <<<  <<<  ==7==   <<<<<<   ==7==  <<<  <<<   =7==== %<<<  =====7===  <<<<<< ====7=====  <<<% ====7==== <<<<<<  ===777 7 777",
"77 7 7777= <  <<%%<<   ==7= << %    % << =7==   <<%%<<  < =7= <   <<<<    ==7= <  %    %  < =7==    <<<<   < =7=====     < ====7==== %<<<  < ===7==== <     =====7=== <  <<<% ====777 7 777",
"77 7 7777==          < ==7= << <<  << << =7== <          ==7==   <    < << =7= < <<<<<<<< < =7= << <    <   ==7===== < <<  ====7=====      < ===7====  << < =====7=== <      =====777 7 777",
"77 7 7777===  <    <<  ==7==  <<<<<<<<  ==7==  <<    <  ===7===  <<<<<< << =7==  <<<<<<<<  ==7= << <<<<<<  ===7===== < <<  ====7===   << <<  ===7====  << < =====7===  << <<   ===777 7 777",
"77 7 7777====  <<< << ===7=== <<<<<<<< ===7=== << <<<  ====7====  <<<<    ==7=== <<<  <<< ===7==    <<<<  ====7===== <<  < ====7==   <<< <<   ==7==== <  << =====7==   << <<<   ==777 7 777",
"77 7 7777====     =  ====7===          ===7====  =     ====7====      ======7===          ===7======      ====7=====       ====7===           ==7====       =====7==           ===777 7 777",
"77 7 7777=====   ========7====   ==   ====7========   =====7=====   ========7====   ==   ====7========   =====7======    ======7====   ====  ===7======    ======7===  ====   ====777 7 777",
"77 7 77777777777777777777777777777777777777777777777777777777777777777777777777777777777777777777777777777777777777777777777777777777777777777777777777777777777777777777777777777777 7 777",
"77 7 7777================7======    ======7================7================7======    ======7================7=====     ======7================7======     =====7================777 7 777",
"77 7 7777======    ======7====        ====7======    ======7======    ======7====        ====7======    ======7====        ====7=====     ======7====        ====7======     =====777 7 777",
"77 7 7777====        ====7===          ===7====        ====7====        ====7===          ===7====        ====7===          ===7====        ====7===          ===7====        ====777 7 777",
"77 7 7777===          ===7==            ==7===          ===7===          ===7==            ==7===          ===7==            ==7===          ===7==            ==7===          ===777 7 777",
"77 7 7777==            ==7==            ==7==            ==7==            ==7==            ==7==            ==7==  %         ==7==            ==7==         %  ==7==            ==777 7 777",
"77 7 7777==            ==7= %    <<    % =7==            ==7==            ==7= %          % =7==            ==7== %<%         =7==  %         ==7=         %<% ==7==         %  ==777 7 777",
"77 7 7777= %    <<    % =7= < < <<<< < < =7= %    <<    % =7= %          % =7= <          < =7= %          % =7=== < < << <   =7== %<%         =7=   < << < < ===7=         %<% ==777 7 777",
"77 7 7777= < < <<<< < < =7= <%<< << <<%< =7= < < <<<< < < =7= <          < =7= <%        %< =7= <          < =7=== < <<<<%<   =7=== < < << <   =7=   <%<<<< < ===7=   < << < < ===777 7 777",
"77 7 7777= <%<< << <<%< =7==  << << <<  ==7= <%<< << <<%< =7= <%        %< =7==  <%    %<  ==7= <%        %< =7=== <<<<<<<<  ==7=== < <<<<%<   =7==  <<<<<<<< ===7=   <%<<<< < ===777 7 777",
"77 7 7777==  << << <<  ==7===  <<%%<<  ===7==  << << <<  ==7=   <%    %<  ==7===   <<<<   ===7==  <%    %<   =7==== %<<<<   ===7=== <<<<<<<<  ==7===   <<<<% ====7==  <<<<<<<< ===777 7 777",
"77 7 7777== < <<%%<<   ==7== <<      << ==7==   <<%%<< < ==7= <   <<<<    ==7== <        < ==7==    <<<<   < =7=====       ====7==== %<<<<   ===7====       =====7===   <<<<% ====777 7 777",
"77 7 7777===         < ==7== << %<<% << ==7== <         ===7==  %      %<< =7== < %%%%%% < ==7= <<%      %  ==7======  <<  ====7=====       ====7====  <<  ======7====       =====777 7 777",
"77 7 7777==== <<  %<< ===7===  %%%%%%  ===7=== <<%  << ====7===   %%%%  << =7===  %%%%%%  ===7= <<  %%%%   ===7======  <<  ====7===      <<  ===7====  <<  ======7===  <<      ===777 7 777",
"77 7 7777====   %% << ===7====        ====7=== << %%   ====7====          ==7===    %%    ===7==          ====7===== %     ====7== %  %% <<   ==7====     % =====7==   << %%  % ==777 7 777",
"77 7 7777==== %   =  ====7=== %      % ===7====  =   % ====7==== %    ======7=== %      % ===7======    % ====7=====      =====7===        %  ==7=====      =====7==  %        ===777 7 777",
"77 7 7777=====   ========7===    ==    ===7========   =====7=====   ========7====   ==   ====7========   =====7======    ======7====   ====  ===7======    ======7===  ====   ====777 7 777",
"77 7 77777777777777777777777777777777777777777777777777777777777777777777777777777777777777777777777777777777777777777777777777777777777777777777777777777777777777777777777777777777 7 777",
"77 7 7777================7=====      =====7================7================7=====      =====7================7=====     ======7================7======     =====7================777 7 777",
"77 7 7777=====      =====7====        ====7=====      =====7=====      =====7====        ====7=====      =====7====        ====7=====     ======7====        ====7======     =====777 7 777",
"77 7 7777====        ====7===          ===7====        ====7====        ====7===          ===7====        ====7===          ===7====        ====7===          ===7====        ====777 7 777",
"77 7 7777===          ===7===          ===7===          ===7===          ===7===          ===7===          ===7==           ===7===          ===7===           ==7===          ===777 7 777",
"77 7 7777===          ===7==   <<  <<   ==7===          ===7===          ===7==            ==7===          ===7==   <<       ==7==           ===7==       <<   ==7===           ==777 7 777",
"77 7 7777==   <<  <<   ==7= < <<< <<<< < =7==   <<  <<   ==7==            ==7= <          < =7==            ==7=== <<<<      ==7==   <<       ==7==      <<<< ===7==       <<   ==777 7 777",
"77 7 7777= < <<< <<<< < =7= <<<<<<<<<<<< =7= < <<<< <<< < =7= <          < =7= <<        << =7= <          < =7=== <<<< <<   ==7=== <<<<      ==7==   << <<<< ===7==      <<<< ===777 7 777",
"77 7 7777= <<<<<<<<<<<< =7= <%<< << <<%< =7= <<<<<<<<<<<< =7= <<        << =7= <%        %< =7= <<        << =7=== < <<%<<   ==7=== < << <<   ==7==   <<%<< < ===7==   << << < ===777 7 777",
"77 7 7777= <%<< << <<%< =7==  << << <<  ==7= <%<< << <<%< =7= <%        %< =7==  <%    %<  ==7= <%        %< =7=== <<<<<<<  ===7=== < <<%<<   ==7===  <<<<<<< ===7==   <<%<< < ===777 7 777",
"77 7 7777 <  << << <<  ==7==   <<%%<<   ==7==  << << <<  < 7 <  <%    %<  ==7== <  %%%%  < ==7==  <%    %<  < 7==== %<<<< %====7=== <<<<<<<  ===7====% <<<<% ====7===  <<<<<<< ===777 7 777",
"77 7 7777= << <<%%<< < ==7= <<        << =7== < <<%%<< << =7= <<  %%%%  < ==7= << <    < << =7== <  %%%%  << =7====      < ====7==== %<<%  =====7==== <      ====7=====  %<<% ====777 7 777",
"77 7 7777==  <      <<< =7= << <<  << << =7= <<<      <  ==7==  <<    < << =7= <  <<<<<<  < =7= << <    <<  ==7==== < << < ====7====    << =====7==== < << < ====7===== <<    ====777 7 777",
"77 7 7777===  <<  << << =7==            ==7= << <<  <<  ===7===         << =7==            ==7= <<         ===7====   <<   ====7===   < <<<  ===7====   <<   ====7===  <<< <   ===777 7 777",
"77 7 7777=== %         ==7=== %      % ===7==         % ===7=== %         ==7=== %      % ===7==         % ===7=====  <<  =====7== %%    << % ==7=====  <<  =====7== % <<    %% ==777 7 777",
"77 7 7777=== %%%   ======7=== %%%  %%% ===7======   %%% ===7=== %%%   ======7=== %%%  %%% ===7======   %%% ===7===== %  % =====7=== %%     %% ==7===== %  % =====7== %%     %% ===777 7 777",
"77 7 7777====   =========7====   ==   ====7=========   ====7====   =========7====   ==   ====7=========   ====7======     =====7====  =====  ===7=====     ======7===  =====  ====777 7 777",
"77 7 77777777777777777777777777777777777777777777777777777777777777777777777777777777777777777777777777777777777777777777777777777777777777777777777777777777777777777777777777777777 7 777",
"77 7 7777================7====        ====7================7================7====        ====7================7====        ====7================7====        ====7================777 7 777",
"77 7 7777====        ====7====        ====7====        ====7====        ====7====        ====7====        ====7====        ====7====        ====7====        ====7====        ====777 7 777",
"77 7 7777====        ====7====        ====7====        ====7====        ====7====        ====7====        ====7====        ====7====        ====7====        ====7====        ====777 7 777",
"77 7 7777====        ====7=== %%%%%%%% ===7====        ====7====        ====7=== %%%%%%%% ===7====        ====7=== %%%%%%%% ===7====        ====7=== %%%%%%%% ===7====        ====777 7 777",
"77 7 7777=== %%%%%%%% ===7=              =7=== %%%%%%%% ===7=== %%%%%%%% ===7=              =7=== %%%%%%%% ===7=              =7=== %%%%%%%% ===7=              =7=== %%%%%%%% ===777 7 777",
"77 7 7777=              =7==            ==7=              =7=              =7==            ==7=              =7==            ==7=              =7==            ==7=              =777 7 777",
"77 7 7777==            ==7= < %<<%%<<% < =7==            ==7==            ==7= < %%%%%%%% < =7==            ==7=== %<<%%%%% ===7==            ==7=== %%%%%<<% ===7==            ==777 7 777",
"77 7 7777= < %<<%%<<% < =7= <<<< << <<<< =7= < %<<%%<<% < =7= < %%%%%%%% < =7= <<%%%%%%%%<< =7= < %%%%%%%% < =7=== < <<%%%% ===7=== %<<%%%%% ===7=== %%%%<< < ===7=== %%%%%<<% ===777 7 777",
"77 7 7777= <<<< << <<<< =7==  << << <<  ==7= <<<< << <<<< =7= <<%%%%%%%%<< =7==  <%%%%%%<  ==7= <<%%%%%%%%<< =7=== < <<%<<% ===7=== < <<%%%% ===7=== %<<%<< < ===7=== %%%%<< < ===777 7 777",
"77 7 7777=   << << <<  ==7==   <<%%<<   ==7==  << << <<   =7=   <%%%%%%<  ==7==   <<<<<<   ==7==  <%%%%%%<   =7==== %%<<<< ====7=== < <<%<<% ===7==== <<<<%% ====7=== %<<%<< < ===777 7 777",
"77 7 7777= <  <<%%<< % ==7= <<  %<<%  << =7== % <<%%<<  < =7= <  <<<<<<   ==7= <          < =7==   <<<<<<  < =7===== <%<  =====7==== %%<<<< ====7=====  <%< =====7==== <<<<%% ====777 7 777",
"77 7 7777==    %<<%  < ==7= <<        << =7== <  %<<%    ==7==           ===7= <          < =7===           ==7======      ====7===== <%<  =====7====      ======7=====  <%< =====777 7 777",
"77 7 7777===       <<  ==7==     %%     ==7==  <<       ===7===        << ==7==            ==7== <<        ===7======  <<  ====7===  %   <<  ===7====  <<  ======7===  <<   %  ===777 7 777",
"77 7 7777====      << ===7===          ===7=== <<      ====7====       << ==7===          ===7== <<       ====7=====   <<  ====7== <  %  <<   ==7====  <<   =====7==   <<  %  < ==777 7 777",
"77 7 7777==== <   =  ====7=== <      < ===7====  =   < ====7==== <   ==  ===7=== <      < ===7===  ==   < ====7==== <       ===7===           ==7===       < ====7==           ===777 7 777",
"77 7 7777=====   ========7====   ==   ====7========   =====7=====   ========7====   ==   ====7========   =====7====       =====7====   ====  ===7=====       ====7===  ====   ====777 7 777",
"77 7 77777777777777777777777777777777777777777777777777777777777777777777777777777777777777777777777777777777777777777777777777777777777777777777777777777777777777777777777777777777 7 777",
"77 7 7777====        ====7================7===        =====7=====        ===777777777777777777777777777777777777777777777777777777777777777777777777777777777777777777777777777777777 7 777",
"77 7 7777=== <<<  <<< ===7====        ====7==  <<<<<<< ====7==== <<<<<<<  ==777777777777777777777777777777777777777777777777777777777777777777777777777777777777777777777777777777777 7 777",
"77 7 7777=== <<    << ===7=== <<<  <<< ===7==   <<<<<<< ===7=== <<<<<<<   ==777777777777777777777777777777777777777777777777777777777777777777777777777777777777777777777777777777777 7 777",
"77 7 7777=== <<    << ===7=== <<    << ===7==   <<<<<<< ===7=== <<<<<<<   ==777777777777777777777777777777777777777777777777777777777777777777777777777777777777777777777777777777777 7 777",
"77 7 7777===  <<  <<  ===7=== <<    << ===7==  <<<<<<<< ===7=== <<<<<<<<  ==777777777777777777777777777777777777777777777777777777777777777777777777777777777777777777777777777777777 7 777",
"77 7 7777== %        % ==7===  <<  <<  ===7===          ===7===          ===777777777777777777777777777777777777777777777777777777777777777777777777777777777777777777777777777777777 7 777",
"77 7 7777==  << << <<  ==7== %        % ==7=== < <<< %% ===7=== %% <<< < ===777777777777777777777777777777777777777777777777777777777777777777777777777777777777777777777777777777777 7 777",
"77 7 7777==  << << <<  ==7==  <<<<<<<<  ==7=== < <<< %% ===7=== %% <<< < ===777777777777777777777777777777777777777777777777777777777777777777777777777777777777777777777777777777777 7 777",
"77 7 7777= %% <<%%<< %% =7==  <  <<  <  ==7=== %<<< %%%% ==7== %%%% <<<% ===777777777777777777777777777777777777777777777777777777777777777777777777777777777777777777777777777777777 7 777",
"77 7 7777= %%%      %%% =7= %% <<%%<< %  =7====    %%%%%% =7= %%%%%%    ====777777777777777777777777777777777777777777777777777777777777777777777777777777777777777777777777777777777 7 777",
"77 7 7777= %% <    < %% =7= %%%      %%% =7====  <  %%%%% =7= %%%%%  <  ====777777777777777777777777777777777777777777777777777777777777777777777777777777777777777777777777777777777 7 777",
"77 7 7777==  < <<<< <  ==7= %%  <  <  %% =7=== << << %%% ==7== %%% << << ===777777777777777777777777777777777777777777777777777777777777777777777777777777777777777777777777777777777 7 777",
"77 7 7777===  <<<<<<  ===7==     <<     ==7====  <<<<   ===7===   <<<<  ====777777777777777777777777777777777777777777777777777777777777777777777777777777777777777777777777777777777 7 777",
"77 7 7777====  <<<<  ====7==== <    < ====7===== <<<  =====7=====  <<< =====777777777777777777777777777777777777777777777777777777777777777777777777777777777777777777777777777777777 7 777",
"77 7 7777====        ====7=====      =====7=====      =====7=====      =====777777777777777777777777777777777777777777777777777777777777777777777777777777777777777777777777777777777 7 777",
"77 7 7777======    ======7======    ======7======    ======7======    ======777777777777777777777777777777777777777777777777777777777777777777777777777777777777777777777777777777777 7 777",
"77 7 77777777777777777777777777777777777777777777777777777777777777777777777777777777777777777777777777777777777777777777777777777777777777777777777777777777777777777777777777777777 7 777",
"77 7 7777================7====        ====7================7================7====        ====7================7====        ====7================7====        ====7================777 7 777",
"77 7 7777====        ====7=== <<<<<<<< ===7====        ====7====        ====7=== <<<<<<<< ===7====        ====7=== <<<<<<<< ===7====        ====7=== <<<<<<<< ===7====        ====777 7 777",
"77 7 7777=== <<<<<<<< ===7=== <<<<<<<< ===7=== <<<<<<<< ===7=== <<<<<<<< ===7=== <<<<<<<< ===7=== <<<<<<<< ===7=== -<<<<<<< ===7=== <<<<<<<< ===7=== <<<<<<<- ===7=== <<<<<<<< ===777 7 777",
"77 7 7777=== <<<<<<<< ===7==  <<<--<<<  ==7=== <<<<<<<< ===7=== <<<<<<<< ===7==  <<<<<<<<  ==7=== <<<<<<<< ===7=== -<<<<<<< ===7=== -<<<<<<< ===7=== <<<<<<<- ===7=== <<<<<<<- ===777 7 777",
"77 7 7777==  <<<--<<<  ==7== - <<--<< - ==7==  <<<--<<<  ==7==  <<<<<<<<  ==7== - <<<<<< - ==7==  <<<<<<<<  ==7===  <<<<<  ====7=== -<<<<<<< ===7====  <<<<<  ===7=== <<<<<<<- ===777 7 777",
"77 7 7777== - <<--<< - ==7=  --      --  =7== - <<--<< - ==7== - <<<<<< - ==7=  --      --  =7== - <<<<<< - ==7=== -     --  ==7===  <<<<<  ====7==  --     - ===7====  <<<<<  ===777 7 777",
"77 7 7777=  --      --  =7 --- <<<<<< --- 7=  --      --  =7=  --      --  =7 -------------- 7=  --      --  =7=== < < ------ =7=== -     --  ==7= ------ < < ===7==  --     - ===777 7 777",
"77 7 7777 --- <<<<<< --- 7 -- << << << -- 7 --- <<<<<< --- 7 -------------- 7 -------------- 7 -------------- 7=== < << ----- =7=== < < ------ =7= ----- << < ===7= ------ < < ===777 7 777",
"77 7 7777 -- << << << -- 7= --<< << <<-- =7 -- << << << -- 7 -------------- 7= ----------- ==7 -------------- 7=== <<<<----- ==7=== < << ----- =7== -----<<<< ===7= ----- << < ===777 7 777",
"77 7 7777= --<< << <<-- =7==   <<<<<<   ==7= --<< << <<-- =7= ------------ =7==  ---  --  ===7= ------------ =7==== -<  --  ===7=== <<<<----- ==7===  --  <- ====7== -----<<<< ===777 7 777",
"77 7 7777==   <<<<<<   ==7=====      =====7==   <<<<<<   ==7==  ---  ---  ==7====   <   =====7==  ---  ---  ==7=====      =====7==== -<  --  ===7=====      =====7===  --  <- ====777 7 777",
"77 7 7777== <<      << ==7==== <    < ====7== <<      << ==7===         ====7=== <   << =====7====         ===7===== < << =====7=====      =====7===== << < =====7=====      =====777 7 777",
"77 7 7777===  <    <  ===7=== < <<<< < ===7===  <    <  ===7=== <     < ====7==== <  << =====7==== <     < ===7==== < <<< =====7===== < << =====7===== <<< < ====7===== << < =====777 7 777",
"77 7 7777==== <<<<<< ====7==== <<<<<< ====7==== <<<<<< ====7==== <<<<<< ====7==== <<<<<< ====7==== <<<<<< ====7===== <<<<< ====7==== < <<< =====7==== <<<<< =====7===== <<< < ====777 7 777",
"77 7 7777====  <<<  =====7====  <<<<  ====7=====  <<<  ====7=====  <<< =====7====  <<<<  ====7===== <<<  =====7=====  <<<  ====7====  <<<<< ====7====  <<<  =====7==== <<<<<  ====777 7 777",
"77 7 7777=====     ======7=====      =====7======     =====7=======   ======7=====      =====7======   =======7======     =====7=====      =====7=====     ======7=====      =====777 7 777",
"77 7 77777777777777777777777777777777777777777777777777777777777777777777777777777777777777777777777777777777777777777777777777777777777777777777777777777777777777777777777777777777 7 777",
"77 7 7777::::::::::::::::7======    ======7::::::::::::::::7::::::::::::::::7======    ======7::::::::::::::::7=====     ======7::::::::::::::::7======     =====7::::::::::::::::777 7 777",
"77 7 7777::::::    ::::::7====        ====7::::::    ::::::7::::::    ::::::7====        ====7::::::    ::::::7====        ====7:::::     ::::::7====        ====7::::::     :::::777 7 777",
"77 7 7777::::        ::::7===          ===7::::        ::::7::::        ::::7===          ===7::::        ::::7===          ===7::::        ::::7===          ===7::::        ::::777 7 777",
"77 7 7777:::          :::7==       <    ==7:::          :::7:::          :::7==            ==7:::          :::7==            ==7:::          :::7==            ==7:::          :::777 7 777",
"77 7 7777::       <    ::7==      <<<   ==7::    <       ::7::            ::7==            ==7::            ::7==  %         ==7::            ::7==         %  ==7::            ::777 7 777",
"77 7 7777::      <<<   ::7= %    <<<<  % =7::   <<<      ::7::            ::7= %          % =7::            ::7== %<%         =7::  %         ::7=         %<% ==7::         %  ::777 7 777",
"77 7 7777: %    <<<<  % :7= < <<<<<<<< < =7: %  <<<<    % :7: %          % :7= <          < =7: %          % :7=== <<<<<< <   =7:: %<%         :7=   < <<<<<< ===7:         %<% ::777 7 777",
"77 7 7777: < <<<<<<<< < :7= <%<  <<  <%< =7: < <<<<<<<< < :7: <          < :7= <%%      %%< =7: <          < :7=== <  <<<%<   =7::: <<<<<< <   :7=   <%<<<  < ===7:   < <<<<<< :::777 7 777",
"77 7 7777: <%<  <<  <%< :7==  <<<<<<<<  ==7: <%<  <<  <%< :7: <%%      %%< :7==  <%    %<  ==7: <%%      %%< :7=== <<<<<<<<  ==7::: <  <<<%<   :7==  <<<<<<<< ===7:   <%<<<  < :::777 7 777",
"77 7 7777:   <<<<<<<<  ::7===  <<%%<<  ===7::  <<<<<<<<   :7::  <%    %<  ::7==    <<<<    ==7::  <%    %<  ::7==== %<<<<   ===7::: <<<<<<<<  ::7===   <<<<% ====7::  <<<<<<<< :::777 7 777",
"77 7 7777: <  <<%%<<  :::7==            ==7:::  <<%%<<  < :7: <   <<<<    ::7= < %      % < =7::    <<<<   < :7=====       ====7:::: %<<<<   :::7====       =====7:::   <<<<% ::::777 7 777",
"77 7 7777::  <       % ::7= << <%%%%< << =7:: %       <  ::7::  %      % < :7= < %% %% %% < =7: < %      %  ::7===== % <<  ====7:::::       ::::7====  << % =====7::::       :::::777 7 777",
"77 7 7777::: %%%%  <<  ::7= << %%%%%% << =7::  <<  %%%% :::7:::  % %% % << :7==  %%%  %%%  ==7: << % %% %  :::7===== % <<  ====7:::   %% <<  :::7====  << % =====7:::  << %%   :::777 7 777",
"77 7 7777::::   %% << :::7==   %%%%%%   ==7::: << %%   ::::7:::: %%  %    ::7=== %% %% %% ===7::    %  %% ::::7=====       ====7::    %% <<   ::7====       =====7::   << %%    ::777 7 777",
"77 7 7777::::     :  ::::7===          ===7::::  :     ::::7::::      ::::::7===          ===7::::::      ::::7=====      =====7:::           ::7=====      =====7::           :::777 7 777",
"77 7 7777:::::   ::::::::7====   ==   ====7::::::::   :::::7:::::   ::::::::7====   ==   ====7::::::::   :::::7======    ======7::::   ::::  :::7======    ======7:::  ::::   ::::777 7 777",
"77 7 77777777777777777777777777777777777777777777777777777777777777777777777777777777777777777777777777777777777777777777777777777777777777777777777777777777777777777777777777777777 7 777",
"77 7 7777================7======    ======7================7================7====== << ======7================7=====    <<  ===7================7===  <<    =====7================777 7 777",
"77 7 7777======    ======7====   <<   ====7======    ======7====== << ======7====  %  %  ====7====== << ======7===        %  ==7=====    <<  ===7==  %        ===7===  <<    =====777 7 777",
"77 7 7777====   <<   ====7===          ===7====   <<   ====7====  %  %  ====7===  %    %  ===7====  %  %  ====7==          %  =7===        %  ==7=  %          ==7==  %        ===777 7 777",
"77 7 7777===          ===7===          ===7===          ===7===  %    %  ===7===  %    %  ===7===  %    %  ===7==          %  =7==          %  =7=  %          ==7=  %          ==777 7 777",
"77 7 7777===          ===7==            ==7===          ===7===  %    %  ===7==   %    %   ==7===  %    %  ===7=  %        %  =7=           %  =7=  %        %  =7=  %           =777 7 777",
"77 7 7777==            ==7==  % <  < %  ==7==            ==7==   %     %  ==7==   %    %   ==7==  %     %   ==7=  < %      %  =7=  %        %  =7=  %      % <  =7=  %        %  =777 7 777",
"77 7 7777==  % <  < %  ==7== < <<<<<< < ==7==  % <  < %  ==7==    %    %  ==7==   %    %   ==7==  %    %    ==7=  <<<     %   =7=  < %      %   7=   %     <<<  =7   %      % <  =777 7 777",
"77 7 7777== < <<<<<< < ==7== <<< << <<< ==7== < <<<<<< < ==7==    %    %  ==7==    %%%%    ==7==  %    %    ==7== < << <<     =7=  <<<     %    7=     << << < ==7    %     <<<  =777 7 777",
"77 7 7777== <<< << <<< ==7=== << << << ===7== <<< << <<< ==7==     %%%%   ==7=== <      < ===7==   %%%%     ==7== < <<<<<    ==7== < << <<      7==    <<<<< < ==7      << << < ==777 7 777",
"77 7 7777=== << << << ===7==== <<%%<< ====7=== << << << ===7=== <      < ===7==== <<<<<< ====7=== <      < ===7=== <<<<<  =====7== < <<<<< =   =7=====  <<<<< ===7=   = <<<<< < ==777 7 777",
"77 7 7777==   <<%%<< ====7=== <      < ===7==== <<%%<<   ==7==== <<<<<< ====7==  <      <  ==7==== <<<<<< ====7====      ======7=== <<<<<  =====7======      ====7=====  <<<<< ===777 7 777",
"77 7 7777== <<      < ===7== <<      << ==7=== <      << ==7=== <      < ===7== <<      << ==7=== <      < ===7====  <%  ======7====      ======7======  %<  ====7======      ====777 7 777",
"77 7 7777===        << ==7=== %%    %% ===7== <<        ===7== < %     < ===7=== %%    %% ===7=== <     % < ==7===== << % =====7==== <     =====7===== % << =====7=====     < ====777 7 777",
"77 7 7777=== %%    << ===7====  %%%%  ====7=== <<    %% ===7===   %%%%%  ===7==== %%%%%% ====7===  %%%%%   ===7==== %  %% =====7=== < %%%%   ===7===== %%  % ====7===   %%%% < ===777 7 777",
"77 7 7777====  %%    ====7====        ====7====    %%  ====7====        ====7====        ====7====        ====7====      ======7====         ===7======      ====7===         ====777 7 777",
"77 7 7777=====   ========7=====  ==  =====7========   =====7=====  =========7=====  ==  =====7=========  =====7=====     ======7===    ===  ====7======     =====7====  ===    ===777 7 777",
"77 7 77777777777777777777777777777777777777777777777777777777777777777777777777777777777777777777777777777777777777777777777777777777777777777777777777777777777777777777777777777777 7 777",
"77 7 7777================7======   =======7================7================7=======  =======7================7=====    =  ====7================7====  =    =====7================777 7 777",
"77 7 7777=======   ======7=====   %  =====7======   =======7======   =======7=====  %%  =====7=======   ======7===  %%%% << ===7=====    =   ===7=== << %%%%  ===7===   =    =====777 7 777",
"77 7 7777=====   %  =====7==== %%% %% ====7=====  %   =====7===== %%%  =====7====  %<<%  ====7=====  %%% =====7== << %%%% << ==7===  %%%% %<< ==7== << %%%% << ==7== <<% %%%%  ===777 7 777",
"77 7 7777==== %%% %% ====7=== <<%% %%< ===7==== %% %%% ====7==== %<<% % ====7=== % <%%< % ===7==== % %<<% ====7= %<%% %%%% < ==7== << %%%% %<< =7== < %%%% %%<% =7= <<% %%%% << ==777 7 777",
"77 7 7777=== <<%% %%< ===7== %%< %% <%% ==7=== <%% %%<< ===7===  <%%< %% ===7== %% %%%% %% ==7=== %% <%%<  ===7=   %%% %%% % ==7= %<%% %%%% %< =7== % %%% %%%   =7= <% %%%% %%<% =777 7 777",
"77 7 7777== %%< %% <%% ==7== %% <  < %% ==7== %%< %% <%% ==7== % %%%% %%% ==7== %% %%%% %% ==7== %%% %%%% % ==7== < %% %%% % ==7=   %%% %%%  %% 7== % %%% %% < ==7 %%  %%% %%%   =777 7 777",
"77 7 7777== %% <  < %% ==7== % <<<<<< % ==7== %% <  < %% ==7==  %%%% %%%% ==7== %% %%%% %% ==7== %%%% %%%%  ==7== <  % %%% % ==7== < %% %%%  %% 7== % %%% %  < ==7 %%  %%% %% < ==777 7 777",
"77 7 7777== % <<<<<< % ==7=== << << << ===7== % <<<<<< % ==7==  %%% %%%%% ==7== %%% %% %%% ==7== %%%%% %%%  ==7== < <   %% % ==7== <  % %%% = % 7== % %%   < < ==7 % = %%% %  < ==777 7 777",
"77 7 7777=== << << << ===7=== << << << ===7=== << << << ===7== %%% %%%%%% ==7=== %%%  %%% ===7== %%%%%% %%% ==7== <<<<<  % % ==7== < <   %% = % 7== % %  <<<<< ==7 % = %%   < < ==777 7 777",
"77 7 7777=== << << << ===7===  <<%%<<  ===7=== << << << ===7===   %%%%%% ===7===  %%%%%%  ===7=== %%%%%%   ===7=== %<<<<  = ===7== <<<<<  % = % 7=== =  <<<<% ===7 % = %  <<<<< ==777 7 777",
"77 7 7777==   <<%%<<  ===7== <<      << ==7===  <<%%<<   ==7== < %%%%%% ====7== <        < ==7==== %%%%%% < ==7==== %  % ======7=== %<<<<  === =7====== %  % ====7= ===  <<<<% ===777 7 777",
"77 7 7777== <        %===7== << <<<< << ==7===%        < ==7== <         ===7== <  <<<<  < ==7===         < ==7====  <<  ======7====  %  %======7======  <<  ====7======%  %  ====777 7 777",
"77 7 7777===  % %% << ===7===  % %% %  ===7=== << %% %  ===7===  <<%%  << ==7===  % %% %  ===7== <<  %%<<  ===7====  << < =====7==== < << ======7===== < <<  ====7====== << < ====777 7 777",
"77 7 7777====  <<< << ===7==== <<<<<< ====7=== << <<<  ====7====   <<< << ==7==== <<<<<< ====7== << <<<   ====7==== <  %< =====7==   < <<   ====7===== <%  < ====7====   << <   ==777 7 777",
"77 7 7777====     %  ====7====        ====7====  %     ====7====      %  ===7====        ====7===  %      ====7====      ======7==    %  %  ====7======      ====7====  %  %    ==777 7 777",
"77 7 7777=====  =========7=====  ==  =====7=========  =====7=====  =========7=====  ==  =====7=========  =====7===      =======7===        =====7=======      ===7=====        ===777 7 777",
"77 7 77777777777777777777777777777777777777777777777777777777777777777777777777777777777777777777777777777777777777777777777777777777777777777777777777777777777777777777777777777777 7 777",
"77 7 7777================7======    ======7================7================7======    ======7================7======    ======7======    ======7======    ======7======    ======777 7 777",
"77 7 7777======    ======7====        ====7======    ======7======    ======7====        ====7======    ======7====        ====7====        ====7====        ====7====        ====777 7 777",
"77 7 7777====        ====7=== +<    <+ ===7====        ====7====        ====7===          ===7====        ====7===  <<<+    ===7===  <<<+    ===7===    +<<<  ===7===    +<<<  ===777 7 777",
"77 7 7777=== +<    <+ ===7=== <<<  <<< ===7=== +<    <+ ===7===          ===7===          ===7===          ===7=== <<<<<+   ===7=== <<<<<+   ===7===   +<<<<< ===7===   +<<<<< ===777 7 777",
"77 7 7777=== <<<  <<< ===7== +<<<<<<<<+ ==7=== <<<  <<< ===7===          ===7==            ==7===          ===7== <<<<<<<    ==7== <<<<<<<    ==7==    <<<<<<< ==7==    <<<<<<< ==777 7 777",
"77 7 7777== +<<<<<<<<+ ==7= < <<<<<<<< < =7== +<<<<<<<<+ ==7==            ==7= <          < =7==            ==7== <<<<<<<    ==7== <<<<<<<    ==7==    <<<<<<< ==7==    <<<<<<< ==777 7 777",
"77 7 7777= < <<<<<<<< < =7= <<<<<<<<<<<< =7= < <<<<<<<< < =7= <          < =7= <          < =7= <          < =7== <<<<<<     ==7== <<<<<<     ==7==     <<<<<< ==7==     <<<<<< ==777 7 777",
"77 7 7777= <<<<<<<<<<<< =7= <+<  <<  <+< =7= <<<<<<<<<<<< =7= <          < =7= <          < =7= <          < =7== <  <<<<<   ==7== <  <<<<<   ==7==   <<<<<  < ==7==   <<<<<  < ==777 7 777",
"77 7 7777= <+<  <<  <+< =7=   <<<<<<<<  ==7= <+<  <<  <+< =7= <          < =7==            ==7= <          < =7== <<<<<<<<   ==7== <<<<<<<<   ==7==   <<<<<<<< ==7==   <<<<<<<< ==777 7 777",
"77 7 7777=   <<<<<<<<  ==7==  <<    <<   =7==  <<<<<<<<   =7=             ==7== +  <<<<  + ==7==             =7===   <<+  < ===7===   <<+  < ===7=== <  +<<   ===7=== <  +<<   ===777 7 777",
"77 7 7777=   <<    <<  ==7= << +<<<<+ << =7==  <<    <<   =7== +       +   =7= <  <    <  < =7=   +       + ==7=== <<<+     ===7=== <<<+     ===7===     +<<< ===7===     +<<< ===777 7 777",
"77 7 7777= << +<<<<+   ==7= << <    < << =7==   +<<<<+ << =7==  <<    < << =7= <  <<<<<<  < =7= << <    <<  ==7====    +<<  ===7====    +<<  ===7===  <<+    ====7===  <<+    ====777 7 777",
"77 7 7777= << <    <  ===7==    <<<<    ==7===  <    < << =7===  <<<<<  << =7==  ++++++++  ==7= <<  <<<<<  ===7===== << <<  ===7==== <<<  << ===7===  << << =====7=== <<  <<< ====777 7 777",
"77 7 7777== << +++++  ===7== < ++++++ < ==7===  +++++ << ==7===  +++++    ==7===          ===7==    +++++  ===7==== +++++++ ===7==== ++++ << ===7=== +++++++ ====7=== << ++++ ====777 7 777",
"77 7 7777===         ====7===          ===7====         ===7===         ====7===          ===7====         ===7====         ===7=====        ===7===         ====7===        =====777 7 777",
"77 7 7777====      ======7=====      =====7======      ====7====      ======7=====      =====7======      ====7=====       ====7=====       ====7====       =====7====       =====777 7 777",
"77 7 77777777777777777777777777777777777777777777777777777777777777777777777777777777777777777777777777777777777777777777777777777777777777777777777777777777777777777777777777777777 7 777",
"77 7 7777================7================7================7================7================7================7================7================7================7================777 7 777",
"77 7 7777================7===  ======  ===7================7================7===  ======  ===7================7================7================7================7================777 7 777",
"77 7 7777===  ======  ===7==   %    %   ==7===  ======  ===7===  ======  ===7==   %    %   ==7===  ======  ===7======  %%%=====7================7=====%%%  ======7================777 7 777",
"77 7 7777==   %    %   ==7==  %      %  ==7==   %    %   ==7==   %    %   ==7==  %      %  ==7==   %    %   ==7====   %   %====7======  %%%=====7====%   %   ====7=====%%%  ======777 7 777",
"77 7 7777==  %      %  ==7===%        %===7==  %      %  ==7==  %      %  ==7===%        %===7==  %      %  ==7===    %   % ===7====   %   %====7=== %   %    ===7====%   %   ====777 7 777",
"77 7 7777===%        %===7===          ===7===%        %===7===%        %===7===          ===7===%        %===7==     %   %  ==7===    %   % ===7==  %   %     ==7=== %   %    ===777 7 777",
"77 7 7777===          ===7==    <  <    ==7===          ===7===          ===7==            ==7===          ===7==   <  %%%   ==7==     %   %  ==7==   %%%  <   ==7==  %   %     ==777 7 777",
"77 7 7777==    <  <    ==7==  <<<<<<<<  ==7==    <  <    ==7==            ==7==            ==7==            ==7=== <<<<      ==7==   <  %%%   ==7==      <<<< ===7==   %%%  <   ==777 7 777",
"77 7 7777==  <<<<<<<<  ==7== <<< << <<< ==7==  <<<<<<<<  ==7==            ==7== <        < ==7==            ==7=== < << <<   ==7=== <<<<      ==7==   << << < ===7==      <<<< ===777 7 777",
"77 7 7777== <<< << <<< ==7=== << << << ===7== <<< << <<< ==7== <        < ==7=== <<    << ===7== <        < ==7=== < <<<<<  ===7=== < << <<   ==7===  <<<<< < ===7==   << << < ===777 7 777",
"77 7 7777=== << << << ===7==== <<%%<< ====7=== << << << ===7=== <      < ===7==== <<<<<< ====7=== <      < ===7==== <<<<<  ====7=== < <<<<<  ===7====  <<<<< ====7===  <<<<< < ===777 7 777",
"77 7 7777==== <<%%<< ====7=== <      < ===7==== <<%%<< ====7==== <<<<<< ====7=== <      < ===7==== <<<<<< ====7=====     ======7==== <<<<<  ====7======     =====7====  <<<<< ====777 7 777",
"77 7 7777=== <%%  %%< ===7== << %%%% << ==7=== <%%  %%< ===7=== <      < ===7== << %%%% << ==7=== <      < ===7===== %<<% =====7====      ======7===== %<<% =====7======      ====777 7 777",
"77 7 7777====    % << ===7===  %%%%%%  ===7=== << %    ====7====  %%% << ===7===  %%%%%%  ===7=== << %%%  ====7====== <<%% ====7===   %<<%  ====7==== %%<< ======7====  %<<%   ===777 7 777",
"77 7 7777=====       ====7====        ====7====       =====7=====       ====7====        ====7====       =====7=====      =====7====   <<   ====7=====      =====7====   <<   ====777 7 777",
"77 7 7777======  ========7=====  ==  =====7========  ======7======  ========7=====  ==  =====7========  ======7======    ======7===== =  = =====7======    ======7===== =  = =====777 7 777",
"77 7 77777777777777777777777777777777777777777777777777777777777777777777777777777777777777777777777777777777777777777777777777777777777777777777777777777777777777777777777777777777 7 777",
"77 7 7777================7======    ======7================7================7======    ======7================7======    ======7======    ======7======    ======7======    ======777 7 777",
"77 7 7777======    ======7====  %<<%  ====7======    ======7======    ======7====  <<<<  ====7======    ======7====  %<<%  ====7====  %<<%  ====7====  %<<%  ====7====  %<<%  ====777 7 777",
"77 7 7777====  %<<%  ====7=== %<<<<<<% ===7====  %<<%  ====7====  <<<<  ====7=== %<<<<<<% ===7====  <<<<  ====7=== %<<<<<<% ===7=== %<<<<<<% ===7=== %<<<<<<% ===7=== %<<<<<<% ===777 7 777",
"77 7 7777=== %<<<<<<% ===7=== <<<<<<<< ===7=== %<<<<<<% ===7=== %<<<<<<% ===7=== <<<<<<<< ===7=== %<<<<<<% ===7=== <<<<<<<< ===7=== <<<<<<<< ===7=== <<<<<<<< ===7=== <<<<<<<< ===777 7 777",
"77 7 7777=== <<<<<<<< ===7== %<<<<<<<<% ==7=== <<<<<<<< ===7=== <<<<<<<< ===7== %<<<<<<<<% ==7=== <<<<<<<< ===7== <<<<<<<<<% ==7== <<<<<<<<<% ==7== %<<<<<<<<< ==7== %<<<<<<<<< ==777 7 777",
"77 7 7777== %<<<<<<<<% ==7= < <<<<<<<< < =7== %<<<<<<<<% ==7== %<<<<<<<<% ==7= < <<<<<<<< < =7== %<<<<<<<<% ==7== <<<<<<<<<< ==7== <<<<<<<<<< ==7== <<<<<<<<<< ==7== <<<<<<<<<< ==777 7 777",
"77 7 7777= < <<<<<<<< < =7= <<<<<<<<<<<< =7= < <<<<<<<< < =7= < <<<<<<<< < =7= < <<<<<<<< < =7= < <<<<<<<< < =7== <<<<<<  << ==7== <<<<<<  << ==7== <<  <<<<<< ==7== <<  <<<<<< ==777 7 777",
"77 7 7777= <<<<<<<<<<<< =7= <%<  <<  <%< =7= <<<<<<<<<<<< =7= < <<<<<<<< < =7= <<<<<<<<<<<< =7= < <<<<<<<< < =7== <  <<<<< % ==7== <  <<<<< < ==7== % <<<<<  < ==7== < <<<<<  < ==777 7 777",
"77 7 7777= <%<  <<  <%< =7==  <<<<<<<<  ==7= <%<  <<  <%< =7= <<<<<<<<<<<< =7==  %<<<<<<%  ==7= <<<<<<<<<<<< =7== <<<<<<<< < ==7== <<<<<<<< < ==7== < <<<<<<<< ==7== < <<<<<<<< ==777 7 777",
"77 7 7777==  <<<<<<<<  ==7==   <<  <<   ==7==  <<<<<<<<  ==7=   %<<<<<<%  ==7==    <<<<    ==7==  %<<<<<<%   =7===  <<<%  < ===7===  <<<%  < ===7=== <  %<<<  ===7=== <  %<<<  ===777 7 777",
"77 7 7777=    <<  <<   ==7= <<   <<   << =7==   <<  <<    =7=     <<<<     =7= <  %    %  < =7=     <<<<     =7=== <<<%     ===7=== <<<%     ===7===     %<<< ===7===     %<<< ===777 7 777",
"77 7 7777=      <<     ==7= << %    % << =7==     <<      =7=    %    % << =7= <  %%%%%%  < =7= << %    %    =7====        ====7====    %<<  ===7====        ====7===  <<%    ====777 7 777",
"77 7 7777== <<     %  ===7==   %%%%%%   ==7===  %     << ==7==   %%%%%  << =7==  %%%%%%%%  ==7= <<  %%%%%   ==7==== %%%  << ===7===== %% <<  ===7=== <<  %%% ====7===  << %% =====777 7 777",
"77 7 7777== << %%%%%  ===7===          ===7===  %%%%% << ==7===           ==7===          ===7==           ===7====      << ===7====         ===7=== <<      ====7===         ====777 7 777",
"77 7 7777===         ====7===          ===7====         ===7===         ====7===          ===7====         ===7=====        ===7====         ===7===        =====7===         ====777 7 777",
"77 7 7777====      ======7=====      =====7======      ====7====      ======7=====      =====7======      ====7=====       ====7=====       ====7====       =====7====       =====777 7 777",
"77 7 77777777777777777777777777777777777777777777777777777777777777777777777777777777777777777777777777777777777777777777777777777777777777777777777777777777777777777777777777777777 7 777",
"77 7 7777================7======    ======7================7================7======    ======7================7======    ======7================7======    ======7================777 7 777",
"77 7 7777======    ======7====  <%%<  ====7======    ======7======    ======7====  <<<<  ====7======    ======7====  %%<<  ====7=====    =======7====  <<%%  ====7=======    =====777 7 777",
"77 7 7777====  <%%<  ====7=== %<<<<<<% ===7====  <%%<  ====7====  <<<<  ====7=== %<%%%%<% ===7====  <<<<  ====7=== <<<<%<<< ===7===  %%<<  =====7=== <<<%<<<< ===7=====  <<%%  ===777 7 777",
"77 7 7777=== %<<<<<<% ===7=== %<%%%%<% ===7=== %<<<<<<% ===7=== %<%%%%<% ===7=== %<<<<<<% ===7=== %<%%%%<% ===7=== %%%<<<<< ===7== <<<<%<<< ====7=== <<<<<%%% ===7==== <<<%<<<< ==777 7 777",
"77 7 7777=== %<%%%%<% ===7== %<<<<<<<<% ==7=== %<%%%%<% ===7=== %<<<<<<% ===7== %<<<<<<<<% ==7=== %<<<<<<% ===7== <<<<%<<%%% ==7== %%%<<<<< ====7== %%%<<%<<<< ==7==== <<<<<%%% ==777 7 777",
"77 7 7777== %<<<<<<<<% ==7= < <  <<  < < =7== %<<<<<<<<% ==7== %<<<<<<<<% ==7= < <<<<<<<< < =7== %<<<<<<<<% ==7== <  <<<%%%% ==7= <<<<%<<%%% ===7== %%%%<<<  < ==7=== %%%<<%<<<< =777 7 777",
"77 7 7777= < <  <<  < < =7= << <<  << << =7= < <  <<  < < =7= < <<<<<<<< < =7= < <<<<<<<< < =7= < <<<<<<<< < =7==  <<     %% ==7= <  <<<%%%% ===7== %%     <<  ==7=== %%%%<<<  < =777 7 777",
"77 7 7777= << <<  << << =7= <%<  <<  <%< =7= << <<  << << =7= < <<<<<<<< < =7= <<<<<<<<<<<< =7= < <<<<<<<< < =7== <  <<< < % ==7=  <<     %% ===7== % < <<<  < ==7=== %%     <<  =777 7 777",
"77 7 7777= <%<  <<  <%< =7==  <<<%%<<<  ==7= <%<  <<  <%< =7= <<<<<<<<<<<< =7==  <<<<<<<<  ==7= <<<<<<<<<<<< =7== %%<<<<<< % ==7= <  <<< < % ===7== % <<<<<<%% ==7=== % < <<<  < =777 7 777",
"77 7 7777==  <<<%%<<<  ==7== % <%<<%< % ==7==  <<<%%<<<  ==7==  <<<<<<<<  ==7= %  <<<<<<  % =7==  <<<<<<<<  ==7== <<%<<%  % ===7= %%<<<<<< % ===7=== %  %<<%<< ==7=== % <<<<<<%% =777 7 777",
"77 7 7777= %% <%<<%< %% =7= %%%%<<<<%%%% =7= %% <%<<%< %% =7= %  <<<<<<  % =7= % %      % % =7= %  <<<<<<  % =7== <<%<% %   ===7= <<%<<%  % ====7===   % %<%<< ==7==== %  %<<%<< =777 7 777",
"77 7 7777= %%% <<<< %%% =7= % %%<<<<%% % =7= %%% <<<< %%% =7= % %      % % =7= %%<< %% <<%% =7= % %      % % =7=== <   %%%<< ==7= <<%<% %   ====7== <<%%%   < ===7====   % %<%<< =777 7 777",
"77 7 7777==  %%<<<<%%  ==7==     <<     ==7==  %%<<<<%%  ==7= %%<< %% <<%% =7==  << %% <<  ==7= %%<< %% <<%% =7====  %% %%<< ==7== <%%% %<< ====7== <<%% %%  ====7==== <<% %%%< ==777 7 777",
"77 7 7777===    <<    ===7=== %%%%%%%% ===7===    <<    ===7==  << %% <<% ==7===   %%%%   ===7== %<< %% <<  ==7====          ==7===      << ====7==          ====7==== <<      ===777 7 777",
"77 7 7777===   %%     ===7==   %%%%%%   ==7===     %%   ===7===    %     ===7==   %%%%%%   ==7===     %    ===7====    %%%% ===7====   %%   ====7=== %%%%    ====7====   %%   ====777 7 777",
"77 7 7777===     ========7==            ==7========     ===7===     ========7==            ==7========     ===7=====       ====7====       =====7====       =====7=====       ====777 7 777",
"77 7 77777777777777777777777777777777777777777777777777777777777777777777777777777777777777777777777777777777777777777777777777777777777777777777777777777777777777777777777777777777 7 777",
"77 7 7777================7======    ======7================7================7=====      =====7================7=====      =====7================7=====      =====7================777 7 777",
"77 7 7777======    ======7====        ====7======    ======7=====      =====7====        ====7=====      =====7====        ====7=====      =====7====        ====7=====      =====777 7 777",
"77 7 7777====        ====7===          ===7====        ====7====        ====7===          ===7====        ====7===          ===7====        ====7===          ===7====        ====777 7 777",
"77 7 7777===          ===7==            ==7===          ===7===          ===7===          ===7===          ===7==           ===7===          ===7===           ==7===          ===777 7 777",
"77 7 7777==            ==7==    %  %    ==7==            ==7===          ===7==            ==7===          ===7==  %         ==7==           ===7==         %  ==7===           ==777 7 777",
"77 7 7777==    %  %    ==7==   %<%%<%   ==7==    %  %    ==7==            ==7==            ==7==            ==7== %<%        ==7==  %         ==7==        %<% ==7==         %  ==777 7 777",
"77 7 7777==   %<%%<%   ==7= <%<<<<<<<<%< =7==   %<%%<%   ==7==            ==7= <          < =7==            ==7=== < <<      ==7== %<%        ==7==      << < ===7==        %<% ==777 7 777",
"77 7 7777= < <<<<<<<< < =7= < << << << < =7= < <<<<<<<< < =7= <          < =7= <<%      %<< =7= <          < =7=== < << <<  ===7=== < <<      ==7===  << << < ===7==      << < ===777 7 777",
"77 7 7777= <%<< << <<%< =7==  << << <<  ==7= <%<< << <<%< =7= <<%      %<< =7==  <<%  %<<  ==7= <<%      %<< =7=== <<<<<<< ====7=== < << <<  ===7==== <<<<<<< ===7===  << << < ===777 7 777",
"77 7 7777=   << << <<  ==7==   <<%%<<   ==7==  << << <<   =7=   <<%  %<<  ==7==    <<<<    ==7==  <<%  %<<   =7==== %<<<   ====7=== <<<<<<< ====7====   <<<% ====7==== <<<<<<< ===777 7 777",
"77 7 7777= <  <<%%<<   ==7= <<        << =7==   <<%%<<  < =7= <   <<<<    ==7= < %      % < =7==    <<<<   < =7=====       ====7==== %<<<   ====7====       =====7====   <<<% ====777 7 777",
"77 7 7777==          < ==7= << %    % << =7== <          ==7==  %      %<< =7= <          < =7= <<%      %  ==7======  <<  ====7=====       ====7====  <<  ======7====       =====777 7 777",
"77 7 7777====      << ===7==            ==7=== <<      ====7===   %%%%  << =7==   %%%%%%   ==7= <<  %%%%   ===7======  <<  ====7===      <<  ===7====  <<  ======7===  <<      ===777 7 777",
"77 7 7777====   %% << ===7===   %%%%   ===7=== << %%   ====7====          ==7===          ===7==          ====7===== <%    ====7== <% %% << % ==7====    %< =====7== % << %% %< ==777 7 777",
"77 7 7777==== <%  =  ====7=== <%    %< ===7====  =  %< ====7==== <%%  ======7=== <%%  %%< ===7======  %%< ====7===== %%%% =====7=== %%     <% ==7===== %%%% =====7== %<     %% ===777 7 777",
"77 7 7777=====   ========7====   ==   ====7========   =====7=====   ========7====   ==   ====7========   =====7======    ======7====   ====  ===7======    ======7===  ====   ====777 7 777",
"77 7 77777777777777777777777777777777777777777777777777777777777777777777777777777777777777777777777777777777777777777777777777777777777777777777777777777777777777777777777777777777 7 777",
"77 7 7777================7=====      =====7================7================7=====      =====7================7======     =====7================7=====     ======7================777 7 777",
"77 7 7777=====      =====7==== <<<<<< ====7=====      =====7=====      =====7==== <<<<<< ====7=====      =====7===== <<<<< ====7======     =====7==== <<<<< =====7=====     ======777 7 777",
"77 7 7777==== <<<<<< ====7=== <<<<<<<< ===7==== <<<<<< ====7==== <<<<<< ====7=== <<<<<<<< ===7==== <<<<<< ====7==== <<<<<<< ===7===== <<<<< ====7=== <<<<<<< ====7==== <<<<< =====777 7 777",
"77 7 7777=== <<<<<<<< ===7==  <<<<<<<<  ==7=== <<<<<<<< ===7=== <<<<<<<< ===7==            ==7=== <<<<<<<< ===7=== <<<<<<    ==7==== <<<<<<< ===7==    <<<<<< ===7=== <<<<<<< ====777 7 777",
"77 7 7777==  <<<<<<<<  ==7=   <<<<<<<<   =7==  <<<<<<<<  ==7==            ==7=              =7==            ==7=== <<<<<     ==7=== <<<<<<    ==7==     <<<<< ===7==    <<<<<< ===777 7 777",
"77 7 7777=   <<<<<<<<   =7= < <<<<<<<< < =7=   <<<<<<<<   =7=              =7= <          < =7=              =7=== <<<<<<    ==7=== <<<<<     ==7==    <<<<<< ===7==     <<<<< ===777 7 777",
"77 7 7777= < <<<<<<<< < =7= <<<  <<  <<< =7= < <<<<<<<< < =7= <          < =7= <<        << =7= <          < =7=== <  <<<< < ==7=== <<<<<<    ==7== < <<<<  < ===7==    <<<<<< ===777 7 777",
"77 7 7777= <<<  <<  <<< =7==  <<<<<<<<  ==7= <<<  <<  <<< =7= <<        << =7==  <<<<<<<<  ==7= <<        << =7=== <<<<<<< < ==7=== <  <<<< < ==7== < <<<<<<< ===7== < <<<<  < ===777 7 777",
"77 7 7777==  <<<<<<<<  ==7= <<  <%%<  << =7==  <<<<<<<<  ==7==  <<<<<<<<  ==7= << <<<<<< << =7==  <<<<<<<<  ==7==== %<<<<<< ===7=== <<<<<<< < ==7=== <<<<<<% ====7== < <<<<<<< ===777 7 777",
"77 7 7777== <  <%%<  < ==7 << <<    << << 7== <  <%%<  < ==7== <  <<<<    ==7 << <      < << 7==    <<<<  < ==7=====       ====7==== %<<<<<< ===7====       =====7=== <<<<<<% ====777 7 777",
"77 7 7777= < <<    <<< ==7 < <<<<  <<<< < 7== <<<    << < =7=== <<     << ==7 < <<<<<<<<<< < 7== <<     << ===7====  < << < ===7=====        ===7=== < << <  ====7===        =====777 7 777",
"77 7 7777==  <<<<< <<  ==7=   <<<<<<<<   =7==  << <<<<<  ==7== %<<<<<< << ==7=   <<<<<<<<   =7== << <<<<<<% ==7=== <<< << < ===7==== <<  <<<< ==7=== < << <<< ===7== <<<<  << ====777 7 777",
"77 7 7777== %%<<< %  % ==7== %%<<<<<<%% ==7== %  % <<<%% ==7== %%<<<<<<   ==7== %%%%%%%%%% ==7==   <<<<<<%% ==7=== <<< << < ===7==  <<<<< <<  ==7=== < << <<< ===7==  << <<<<<  ==777 7 777",
"77 7 7777== %%%%  %%%% ==7== %%%%  %%%% ==7== %%%%  %%%% ==7== %%%%      ===7== %%%%  %%%% ==7===      %%%% ==7==== <% <<  ====7= %%%<<<<   %% =7====  << %< ====7= %%   <<<<%%% =777 7 777",
"77 7 7777=== %%% =    ===7== %%% == %%% ==7===    = %%% ===7== %%% ==   ====7== %%% == %%% ==7====   == %%% ==7==== %%%   =====7== %%%      %% =7=====   %%% ====7= %%      %%% ==777 7 777",
"77 7 7777===    =========7===    ==    ===7=========    ===7===    =========7===    ==    ===7=========    ===7=====      =====7===   ======  ==7=====      =====7==  ======   ===777 7 777",
"77 7 77777777777777777777777777777777777777777777777777777777777777777777777777777777777777777777777777777777777777777777777777777777777777777777777777777777777777777777777777777777 7 777",
"77 7 7777================7================7================7================7================7================7================7================7================7================777 7 777",
"77 7 7777================7================7================7================7================7================7================7================7================7================777 7 777",
"77 7 7777================7======    ======7================7================7======    ======7================7======    ======7================7======    ======7================777 7 777",
"77 7 7777======    ======7====        ====7======    ======7======    ======7====        ====7======    ======7====        ====7======    ======7====        ====7======    ======777 7 777",
"77 7 7777====        ====7===          ===7====        ====7====        ====7===          ===7====        ====7===          ===7====        ====7===          ===7====        ====777 7 777",
"77 7 7777===          ===7===          ===7===          ===7===          ===7===          ===7===          ===7==           ===7===          ===7===           ==7===          ===777 7 777",
"77 7 7777===          ===7==    <  <    ==7===          ===7===          ===7==            ==7===          ===7==   <        ==7==           ===7==        <   ==7===           ==777 7 777",
"77 7 7777==    <  <    ==7==  <<<<<<<<  ==7==    <  <    ==7==            ==7==            ==7==            ==7=== <<<<      ==7==   <        ==7==      <<<< ===7==        <   ==777 7 777",
"77 7 7777==  <<<<<<<<  ==7== <<< << <<< ==7==  <<<<<<<<  ==7==            ==7== <        < ==7==            ==7=== < << <<   ==7=== <<<<      ==7==   << << < ===7==      <<<< ===777 7 777",
"77 7 7777== <<< << <<< ==7=== << << << ===7== <<< << <<< ==7== <        < ==7=== <<    << ===7== <        < ==7=== < <<<<<  ===7=== < << <<   ==7===  <<<<< < ===7==   << << < ===777 7 777",
"77 7 7777=== << << << ===7==== <<%%<< ====7=== << << << ===7=== <<    << ===7==== <<<<<< ====7=== <<    << ===7==== <<<<<  ====7=== < <<<<<  ===7====  <<<<< ====7===  <<<<< < ===777 7 777",
"77 7 7777==== <<%%<< ====7===          ===7==== <<%%<< ====7== < <<<<<< ====7===          ===7==== <<<<<< < ==7=====     ======7==== <<<<<  ====7======     =====7====  <<<<< ====777 7 777",
"77 7 7777=== <     %< ===7== <<      << ==7=== <%     < ===7===        < ===7== <<      << ==7=== <        ===7===== %<<% =====7====       =====7===== %<<% =====7=====       ====777 7 777",
"77 7 7777====  <<  << ===7===  %%%%%%  ===7=== <<  <<  ====7==== %%%%% << ==7===  %%%%%%  ===7== << %%%%% ====7====== <<% =====7=== <  << < ====7===== %<< ======7==== < <<  < ===777 7 777",
"77 7 7777===== <<    ====7==== <<  << ====7====    << =====7==== <<      ===7==== <<  << ====7===      << ====7===== <  < =====7==== < << < ====7===== <  < =====7==== < << < ====777 7 777",
"77 7 7777======  ========7=====  ==  =====7========  ======7=====  =========7=====  ==  =====7=========  =====7======    ======7===== =  = =====7======    ======7===== =  = =====777 7 777",
"77 7 77777777777777777777777777777777777777777777777777777777777777777777777777777777777777777777777777777777777777777777777777777777777777777777777777777777777777777777777777777777 7 777",
"77 7 7777================7======    ======7================7================7======    ======7================7======    ======7================7======    ======7================777 7 777",
"77 7 7777======    ======7====        ====7======    ======7======    ======7====        ====7======    ======7====        ====7======    ======7====        ====7======    ======777 7 777",
"77 7 7777====        ====7===          ===7====        ====7====        ====7===          ===7====        ====7===          ===7====        ====7===          ===7====        ====777 7 777",
"77 7 7777===          ===7==   <<<<<<   ==7===          ===7===          ===7===          ===7===          ===7==           ===7===          ===7===           ==7===          ===777 7 777",
"77 7 7777==            ==7==  <<<<<<<<  ==7==            ==7===          ===7==            ==7===          ===7==  <<<       ==7==           ===7==       <<<  ==7===           ==777 7 777",
"77 7 7777==   <<<<<<   ==7= < <<<<<<<< < =7==   <<<<<<   ==7==            ==7= <          < =7==            ==7=== <<<<      ==7==  <<<       ==7==      <<<< ===7==       <<<  ==777 7 777",
"77 7 7777= < <<<<<<<< < =7= < <  <<  < < =7= < <<<<<<<< < =7= <          < =7= <<        << =7= <          < =7===   << <    ==7=== <<<<      ==7==    < <<   ===7==      <<<< ===777 7 777",
"77 7 7777= < <  <<  < < =7= <  <<  <<  < =7= < <  <<  < < =7= <<        << =7= <%<      <%< =7= <<        << =7=== <    <    ==7===   << <    ==7==    <    < ===7==    < <<   ===777 7 777",
"77 7 7777= <  <<  <<  < =7==  <  <<  <  ==7= <  <<  <<  < =7= <%<      <%< =7==  %<<  <<%  ==7= <%<      <%< =7===   <<<    ===7=== <    <    ==7===    <<<   ===7==    <    < ===777 7 777",
"77 7 7777==  <  <<  <  ==7===  <<%%<<  ===7==  <  <<  <  ==7=   <<<  <<<  ==7==    %<<%    ==7==  <<<  <<<   =7==== <<<<   ====7===   <<<    ===7====   <<<< ====7===    <<<   ===777 7 777",
"77 7 7777= <  <<%%<<  ===7==  %      %  ==7===  <<%%<<  < =7= <   <<<<    ==7= < %%    %% < =7==    <<<<   < =7====       =====7==== <<<<   ====7=====       ====7====   <<<< ====777 7 777",
"77 7 7777= < %        ===7= << %%%%%% << =7===        % < =7==  %%    % < ==7= << %%%%%% << =7== < %    %%  ==7==== % << % ====7====       %====7==== % << % ====7====%       ====777 7 777",
"77 7 7777==   <<%%% << ==7= << <<<<<< << =7== << %%%<<   ==7===  <<<%% << ==7==   <<<<<<   ==7== << %%<<<  ===7==== < << < ====7===   << <<  ===7==== < << < ====7===  << <<   ===777 7 777",
"77 7 7777====   <<< << ==7==            ==7== << <<<   ====7====    <<   ===7===          ===7===   <<    ====7=====      =====7== <% %< << % ==7=====      =====7== % << <% %< ==777 7 777",
"77 7 7777==== <%   =  ===7=== <%    %< ===7===  =   %< ====7==== <%%  ======7=== <%    %< ===7======  %%< ====7===== <%%% =====7=== %%  %  <% ==7===== %%%< =====7== %<  %  %% ===777 7 777",
"77 7 7777=====   ========7====   ==   ====7========   =====7=====   ========7====   ==   ====7========   =====7======    ======7====  =====  ===7======    ======7===  =====  ====777 7 777",
"77 7 77777777777777777777777777777777777777777777777777777777777777777777777777777777777777777777777777777777777777777777777777777777777777777777777777777777777777777777777777777777 7 777",
"77 7 7777=======  =======7=======  =======7=======  =======7:::::::  :::::::7=======  =======7:::::::  :::::::7======    ======7======    ======7======    ======7======    ======777 7 777",
"77 7 7777=====  <<  =====7=====  <<  =====7=====  <<  =====7:::::  <<  :::::7=====  <<  =====7:::::  <<  :::::7===== ++<< =====7===== ++<< =====7===== <<++ =====7===== <<++ =====777 7 777",
"77 7 7777==== <++++< ====7==== <++++< ====7==== <++++< ====7:::: <++++< ::::7==== <++++< ====7:::: <++++< ::::7==== <<<+<< ====7==== <<<+<< ====7==== <<+<<< ====7==== <<+<<< ====777 7 777",
"77 7 7777=== <<<<<<<< ===7=== <<<<<<<< ===7=== <<<<<<<< ===7::: <<<<<<<< :::7=== <<<<<<<< ===7::: <<<<<<<< :::7=== +++<<<<< ===7=== +++<<<<< ===7=== <<<<<+++ ===7=== <<<<<+++ ===777 7 777",
"77 7 7777== +<++++++<+ ==7== +<++++++<+ ==7== +<++++++<+ ==7:: +<<<<<<<<+ ::7== +<<<<<<<<+ ==7:: +<<<<<<<<+ ::7== <<<<+<<<<< ==7== <<<<+<<<<< ==7== <<<<<+<<<< ==7== <<<<<+<<<< ==777 7 777",
"77 7 7777= < <<<<<<<< < =7= < <<<<<<<< < =7= < <<<<<<<< < =7: < <<<<<<<< < :7= < <<<<<<<< < =7: < <<<<<<<< < :7== <<<<<<<<<< ==7== <<<<<<<<<< ==7== <<<<<<<<<< ==7== <<<<<<<<<< ==777 7 777",
"77 7 7777= <<<<<<<<<<<< =7= <<<<<<<<<<<< =7= <<<<<<<<<<<< =7: <<<<<<<<<<<< :7= < <<<<<<<< < =7: <<<<<<<<<<<< :7== <<<<<<  << ==7== <<<<<<  << ==7== <<  <<<<<< ==7== <<  <<<<<< ==777 7 777",
"77 7 7777= <+<< << <<+< =7= <+<< << <<+< =7= <+<< << <<+< =7: <+<<<<<<<<+< :7= <<<<<<<<<<<< =7: <+<<<<<<<<+< :7== < <<<<<< < ==7== < <<<<<< < ==7== < <<<<<< < ==7== < <<<<<< < ==777 7 777",
"77 7 7777==  <<<<<<<<  ==7==  <<<<<<<<  ==7==  <<<<<<<<  ==7::  <<<<<<<<  ::7==  <<<<<<<<  ==7::  <<<<<<<<  ::7== <<<<<<<< < ==7== <<<<<<<< < ==7== < <<<<<<<< ==7== < <<<<<<<< ==777 7 777",
"77 7 7777= ++ <<  << ++ =7== + <<  << + ==7= ++ <<  << ++ =7: +  <<<<<<  + :7= +  <<<<<<  + =7: +  <<<<<<  + :7===  <<<+  < ===7===  <<<+  < ===7=== <  +<<<  ===7=== <  +<<<  ===777 7 777",
"77 7 7777= +    <<    + =7= ++  +<<+  ++ =7= +    <<    + =7: +    <<    + :7= + +  <<  + + =7: +    <<    + :7=== <<<+ +   ===7=== <<<+ +   ===7===   + +<<< ===7===   + +<<< ===777 7 777",
"77 7 7777==            ==7= +    ++    + =7==            ==7: ++<<    <<++ :7= ++<<    <<++ =7: ++<<    <<++ :7====    +++ ====7====    +++<< ==7==== +++    ====7== <<+++    ====777 7 777",
"77 7 7777===          ===7==            ==7===          ===7::  <<    <<  ::7==  <<    <<  ==7::  <<    <<  ::7====     +<< ===7=====    ++<< ==7=== <<+     ====7== <<++    =====777 7 777",
"77 7 7777=== ++++++   ===7=== ++++++++ ===7===   ++++++ ===7:::   ++++   :::7===   ++++   ===7:::   ++++   :::7====      << ===7====          ==7=== <<      ====7==          ====777 7 777",
"77 7 7777===    +++  ====7==   ++  ++   ==7====  +++    ===7:::    +++  ::::7==   ++  ++   ==7::::  +++    :::7=====    +   ===7====    ++++ ===7===   +    =====7=== ++++    ====777 7 777",
"77 7 7777====      ======7==            ==7======      ====7::::      ::::::7==     ==     ==7::::::      ::::7=====       ====7=====       ====7====       =====7====       =====777 7 777",
"77 7 77777777777777777777777777777777777777777777777777777777777777777777777777777777777777777777777777777777777777777777777777777777777777777777777777777777777777777777777777777777 7 777",
"77 7 7777================7===          ===7================7================7=====      =====7================7=====      =====7================7=====      =====7================777 7 777",
"77 7 7777===          ===7==            ==7===          ===7=====      =====7===          ===7=====      =====7====         ===7=====      =====7===         ====7=====      =====777 7 777",
"77 7 7777==            ==7=              =7==            ==7===          ===7==            ==7===          ===7===           ==7====         ===7==           ===7===         ====777 7 777",
"77 7 7777=              =7=              =7=              =7==            ==7=              =7==            ==7==             =7===           ==7=             ==7==           ===777 7 777",
"77 7 7777=              =7==            ==7=              =7=              =7=              =7=              =7=              =7==             =7=              =7=             ==777 7 777",
"77 7 7777==            ==7==  <      <  ==7==            ==7=              =7==            ==7=              =7==            ==7=              =7==            ==7=              =777 7 777",
"77 7 7777==  <      <  ==7= < <<<<<<<< < =7==  <      <  ==7==            ==7= <          < =7==            ==7=== <<<<      ==7==            ==7==      <<<< ===7==            ==777 7 777",
"77 7 7777= < <<<<<<<< < =7= <<<  <<  <<< =7= < <<<<<<<< < =7= <          < =7= <<        << =7= <          < =7=== <  < <<  ===7=== <<<<      ==7===  << <  < ===7==      <<<< ===777 7 777",
"77 7 7777= <<<  <<  <<< =7==  << << <<  ==7= <<<  <<  <<< =7= <<        << =7==  <<<<<<<<  ==7= <<        << =7=== < <<<<< ====7=== <  < <<  ===7==== <<<<< < ===7===  << <  < ===777 7 777",
"77 7 7777=   << << <<  ==7==   <<%%<<   ==7==  << << <<   =7=   <<<<<<<<  ==7==   %<<<<%   ==7==  <<<<<<<<   =7==== <<<<  =====7=== < <<<<< ====7=====  <<<< ====7==== <<<<< < ===777 7 777",
"77 7 7777= <  <<%%<< % ==7= <<        << =7== % <<%%<<  < =7= <  %<<<<%   ==7= <          < =7==   %<<<<%  < =7=====       ====7==== <<<<   ====7====       =====7====   <<<< ====777 7 777",
"77 7 7777==          < ==7= <<        << =7== <          ==7==          << =7= <          < =7= <<          ==7======  <<  ====7=====       ====7====  <<  ======7====       =====777 7 777",
"77 7 7777===       <<  ==7==            ==7==  <<       ===7===         << =7==            ==7= <<         ===7======  <<  ====7===      <<  ===7====  <<  ======7===  <<      ===777 7 777",
"77 7 7777====      << ===7===          ===7=== <<      ====7====          ==7===          ===7==          ====7=====       ====7==       <<   ==7====       =====7==   <<       ==777 7 777",
"77 7 7777====     =  ====7===          ===7====  =     ====7====      ======7===          ===7======      ====7=====      =====7===           ==7=====      =====7==           ===777 7 777",
"77 7 7777=====   ========7====   ==   ====7========   =====7=====   ========7====   ==   ====7========   =====7======    ======7====   ====  ===7======    ======7===  ====   ====777 7 777",
"77 7 77777777777777777777777777777777777777777777777777777777777777777777777777777777777777777777777777777777777777777777777777777777777777777777777777777777777777777777777777777777 7 777",
"77 7 7777================7===          ===7================7================7===          ===7================7=====      =====7================7=====      =====7================777 7 777",
"77 7 7777===          ===7==            ==7===          ===7===          ===7==            ==7===          ===7====         ===7=====      =====7===         ====7=====      =====777 7 777",
"77 7 7777==            ==7=              =7==            ==7==            ==7=              =7==            ==7===           ==7====         ===7==           ===7===         ====777 7 777",
"77 7 7777=              =7=              =7=              =7=              =7=              =7=              =7==             =7===           ==7=             ==7==           ===777 7 777",
"77 7 7777=              =7==            ==7=              =7=              =7==            ==7=              =7=              =7==             =7=              =7=             ==777 7 777",
"77 7 7777==            ==7== %        % ==7==            ==7==            ==7== %        % ==7==            ==7==            ==7=              =7==            ==7=              =777 7 777",
"77 7 7777== %        % ==7== % <<<<<< % ==7== %        % ==7== %        % ==7== %%%%%%%%%% ==7== %        % ==7=== < <<      ==7==            ==7==      << < ===7==            ==777 7 777",
"77 7 7777== % <<<<<< % ==7= % << << << % =7== % <<<<<< % ==7= %%%%%%%%%%% ==7= %%%%%%%%%%%% =7== %%%%%%%%%%% =7=== < << %%% ===7=== < <<      ==7=== %%% << < ===7==      << < ===777 7 777",
"77 7 7777= % << << << % =7= % << << << % =7= % << << << % =7= %%%%%%%%%%% ==7= %%%%%%%%%%%% =7== %%%%%%%%%%% =7=== <<<< %%%% ==7=== < << %%%% ==7== %%%% <<<< ===7== %%%% << < ===777 7 777",
"77 7 7777= % << << << % =7==   <<%%<<   ==7= % << << << % =7= %%%%%%%%%% ===7== %%%%%%%%%% ==7=== %%%%%%%%%% =7==== %<<  %%% ==7=== <<<< %%%%% =7== %%%  <<% ====7= %%%%% <<<< ===777 7 777",
"77 7 7777==   <<%%<<   ==7== <<      << ==7==   <<%%<<   ==7== %%%%%%%   ===7==  %%%%%%%%  ==7===   %%%%%%% ==7=====      %% ==7==== %<<  %%%% =7== %%      =====7= %%%%  <<% ====777 7 777",
"77 7 7777== <       < ===7== <<      << ==7=== <       < ==7=== %%%%% << ===7== <        < ==7=== << %%%%% ===7======  <<   ===7=====      %%% =7===   <<  ======7= %%%      =====777 7 777",
"77 7 7777===      << ====7===          ===7==== <<      ===7====      << ===7===          ===7=== <<      ====7======  <<  ====7====     <<   ==7====  <<  ======7==   <<     ====777 7 777",
"77 7 7777=====    << ====7====        ====7==== <<    =====7====        ====7====        ====7====        ====7=====       ====7=== %    <<   ==7====       =====7==   <<    % ===777 7 777",
"77 7 7777===== %%   =====7==== %%  %% ====7=====   %% =====7==== %%  =======7==== %%  %% ====7=======  %% ====7===== %%   =====7==== %        ==7=====   %% =====7==        % ====777 7 777",
"77 7 7777======  ========7=====  ==  =====7========  ======7=====  =========7=====  ==  =====7=========  =====7======    ======7=====   ===  ===7======    ======7===  ===   =====777 7 777",
"77 7 77777777777777777777777777777777777777777777777777777777777777777777777777777777777777777777777777777777777777777777777777777777777777777777777777777777777777777777777777777777 7 777",
"77 7 7777=====      =====7=====      =====7=====      =====7=====      =====7=====      =====7=====      =====7=====     ======7=====     ======7======     =====7======     =====777 7 777",
"77 7 7777====        ====7====        ====7====        ====7====   %%   ====7====   %%   ====7====   %%   ====7====       %%===7====       %%===7===%%       ====7===%%       ====777 7 777",
"77 7 7777===          ===7===          ===7===          ===7===   %  %   ===7===   %  %   ===7===   %  %   ===7===        % %==7===        % %==7==% %        ===7==% %        ===777 7 777",
"77 7 7777=== %      % ===7=== %      % ===7=== %      % ===7===  %    %  ===7===  %    %  ===7===  %    %  ===7===        %  %=7===        %  %=7=%  %        ===7=%  %        ===777 7 777",
"77 7 7777==   % << %   ==7==   % << %   ==7==   % << %   ==7==   %    %   ==7==   %    %   ==7==   %    %   ==7==     %   %  %=7==     %   %  %=7=%  %   %     ==7=%  %   %     ==777 7 777",
"77 7 7777==   <<<<<<   ==7==   <<<<<<   ==7==   <<<<<<   ==7==    %  %    ==7==    %  %    ==7==    %  %    ==7==  <<%    %  %=7==  <<%    %  %=7=%  %    %<<  ==7=%  %    %<<  ==777 7 777",
"77 7 7777=== << << << ===7=== << << << ===7=== << << << ===7===    %%    ===7===    %%    ===7===    %%    ===7=== < <<    %%==7=== < <<    %%==7==%%    << < ===7==%%    << < ===777 7 777",
"77 7 7777=== << << << ===7=== << << << ===7=== << << << ===7=== <      < ===7=== <      < ===7=== <      < ===7=== < <<      ==7=== < <<      ==7==      << < ===7==      << < ===777 7 777",
"77 7 7777==== <<%%<< ====7==== <<%%<< ====7==== <<%%<< ====7==== <<<<<< ====7==== <<<<<< ====7==== <<<<<< ====7=== <<<<<    ===7=== <<<<<    ===7===    <<<<< ===7===    <<<<< ===777 7 777",
"77 7 7777====        ====7====        ====7====        ====7===        < ===7===          ===7=== <        ===7==== %<<<   ====7==== %<<<   ====7====   <<<% ====7====   <<<% ====777 7 777",
"77 7 7777=== <      < ===7=== <      < ===7=== <      < ===7== <        < ==7== <        < ==7== <        < ==7=====      =====7=====      =====7=====      =====7=====      =====777 7 777",
"77 7 7777== <        < ==7== <        < ==7== <        < ==7= <           ==7= <          < =7==           < =7===== %<    ====7===== <<    ====7====    <% =====7====    << =====777 7 777",
"77 7 7777== < <<<<<< < ==7== < <<<<<< < ==7== < <<<<<< < ==7= <  <<<<<<  ===7= <  <<<<<<  < =7===  <<<<<<  < =7===== << << ====7==== <<% <<   ==7==== << << =====7==   << %<< ====777 7 777",
"77 7 7777==    <<<<    ==7==    <<<<    ==7==    <<<<    ==7=      <<    ===7=      <<      =7===    <<      =7===== <<     ===7==== <% <     ==7===     << =====7==     < %< ====777 7 777",
"77 7 7777===   <<<<   ===7===   <<<<   ===7===   <<<<   ===7===   <  <  ====7===   <  <   ===7====  <  <   ===7=====        ===7=====  <<     ==7===        =====7==     <<  =====777 7 777",
"77 7 7777===        =====7===          ===7=====        ===7===        =====7===          ===7=====        ===7======      ====7======      ====7====      ======7====      ======777 7 777",
"77 7 77777777777777777777777777777777777777777777777777777777777777777777777777777777777777777777777777777777777777777777777777777777777777777777777777777777777777777777777777777777 7 777",
"77 7 7777================7======    ======7================7================7======    ======7================7================7====    ========7================7========    ====777 7 777",
"77 7 7777======    ======7====  <<<<  ====7======    ======7======    ======7====  <<<<  ====7======    ======7=====    =======7==  <<<<  ======7=======    =====7======  <<<<  ==777 7 777",
"77 7 7777====  <<<<  ====7=== %<<<< <% ===7====  <<<<  ====7====  <<<<  ====7=== %<<<<<<% ===7====  <<<<  ====7===  <<<<  =====7= <<<<<<<%   ===7=====  <<<<  ===7===   %<<<<<<< =777 7 777",
"77 7 7777=== %<<<< <% ===7=== <<<  <<< ===7=== %< <<<<% ===7=== %<<<<<<% ===7=== <<<  <<< ===7=== %<<<<<<% ===7== <<<<<<<%   ==7=  %<<<< < <  ==7==   %<<<<<<< ==7==  < < <<<<%  =777 7 777",
"77 7 7777=== <<<  <<< ===7== << %<<% << ==7=== <<<  <<< ===7=== <<<<<<<< ===7== %<< << <<% ==7=== <<<<<<<< ===7==  %<<<< < <  =7 <<<   %<<%<< ==7=  < < <<<<%  ==7== <<%<<%   <<< 777 7 777",
"77 7 7777== << %<<% << ==7= < %<<<<<<% < =7== << %<<% << ==7== %<<  <<<<% ==7=  << <<<< <<  =7== %<<<<  <<% ==7= <<<   %<<%<< =7 <<<<<< <<<%< ==7= <<%<<%   <<< =7== <%<<< <<<<<< 777 7 777",
"77 7 7777= < %<<<<<<% < =7= <%<<<<<<<<%< =7= < %<<<<<<% < =7=  << << <<<<  =7=  <<< << <<<  =7=  <<<< << <<  =7= <<<<<< <<<%< =7 <<<<<< %<<  ===7= <%<<< <<<<<< =7===  <<% <<<<<< 777 7 777",
"77 7 7777= <%<<<<<<<<%< =7= < << << << < =7= <%<<<<<<<<%< =7=  < <<<< <<<  =7=  %<<<  <<<%  =7=  <<< <<<< <  =7= <<<<<< %<<  ==7 < <<<<<< < ====7==  <<% <<<<<< =7==== < <<<<<< < 777 7 777",
"77 7 7777= < << << << < =7==  <<<<<<<<  ==7= < << << << < =7=  %< << <<<%  =7==  <<<<<<<<  ==7=  %<<< << <%  =7= < <<<<<< < ===7 <<<<<<<< < ====7=== < <<<<<< < =7==== < <<<<<<<< 777 7 777",
"77 7 7777==  <<<<<<<<  ==7==   <<  <<   ==7==  <<<<<<<<  ==7==  <<  <<<<  ==7= %  <<<<<<  % =7==  <<<<  <<  ==7= <<<<<<<< < ===7=  <<<%  < =====7=== < <<<<<<<< =7===== <  %<<<  =777 7 777",
"77 7 7777= %% <<  << %% =7= %%   <<   %% =7= %% <<  << %% =7= %  <<<<<<  % =7= %%        %% =7= %  <<<<<<  % =7==  <<<%  < ====7= <<<% %    ====7==== <  %<<<  ==7====    % %<<< =777 7 777",
"77 7 7777= %%   <<   %% =7= %%        %% =7= %%   <<   %% =7= %        %%% =7= % << %% << % =7= %%%        % =7== <<<% %   ====7==     %% << ===7====   % %<<< ==7=== << %%     ==777 7 777",
"77 7 7777==            ==7==  %<%%%%<%  ==7==            ==7=  << %% << %% =7==  << << <<  ==7= %% << %% <<  =7===    %% << ===7===  %% % << ===7=== << %%    ===7=== << % %%  ===777 7 777",
"77 7 7777=== %%<<<<%% ===7=== %%<<<<%% ===7=== %%<<<<%% ===7== << << << % ==7===   <%%<   ===7== % << << << ==7=== <<<   << ===7=== <<<%     ===7=== <<   <<< ===7===     %<<< ===777 7 777",
"77 7 7777=== %%<<<<  ====7=== %%<<<<%% ===7====  <<<<%% ===7==   <%%<    ===7===  %%%%%%  ===7===    <%%<   ==7=== <<%%%%  ====7==== <<%%%%% ===7====  %%%%<< ===7=== %%%%%<< ====777 7 777",
"77 7 7777====      ======7====        ====7======      ====7===        =====7=====      =====7=====        ===7====       =====7=====       ====7=====       ====7====       =====777 7 777",
"77 7 77777777777777777777777777777777777777777777777777777777777777777777777777777777777777777777777777777777777777777777777777777777777777777777777777777777777777777777777777777777 7 777",
"77 7 7777================7====        ====7================7================7====        ====7================7====        ====7================7====        ====7================777 7 777",
"77 7 7777====        ====7=== %%%%%%%% ===7====        ====7====        ====7=== %%%%%%%% ===7====        ====7=== %%%%%%%% ===7====        ====7=== %%%%%%%% ===7====        ====777 7 777",
"77 7 7777=== %%%%%%%% ===7=== %%%%%%%% ===7=== %%%%%%%% ===7=== %%%%%%%% ===7=== %%%%%%%% ===7=== %%%%%%%% ===7=== %%%%%%%% ===7=== %%%%%%%% ===7=== %%%%%%%% ===7=== %%%%%%%% ===777 7 777",
"77 7 7777=== %%%%%%%% ===7=== %%%<<%%% ===7=== %%%%%%%% ===7=== %%%%%%%% ===7=== %%%%%%%% ===7=== %%%%%%%% ===7=== <%%%%%%% ===7=== %%%%%%%% ===7=== %%%%%%%< ===7=== %%%%%%%% ===777 7 777",
"77 7 7777=== %%%<<%%% ===7===          ===7=== %%%<<%%% ===7=== %%%%%%%% ===7==            ==7=== %%%%%%%% ===7==            ==7=== <%%%%%%% ===7==            ==7=== %%%%%%%< ===777 7 777",
"77 7 7777==            ==7==  <      <  ==7==            ==7==            ==7==            ==7==            ==7=== <<<       ==7==            ==7==       <<< ===7==            ==777 7 777",
"77 7 7777==  <      <  ==7= < <<<<<<<< < =7==  <      <  ==7==            ==7= <          < =7==            ==7=== < <<      ==7=== <<<       ==7==      << < ===7==       <<< ===777 7 777",
"77 7 7777= < <<<<<<<< < =7= <<<< << <<<< =7= < <<<<<<<< < =7= <          < =7= <<        << =7= <          < =7=== < << <<  ===7=== < <<      ==7===  << << < ===7==      << < ===777 7 777",
"77 7 7777= <<<< << <<<< =7==  << << <<  ==7= <<<< << <<<< =7= <<        << =7==  <<    <<  ==7= <<        << =7=== <<<<<<< ====7=== < << <<  ===7==== <<<<<<< ===7===  << << < ===777 7 777",
"77 7 7777=   << << <<  ==7===  <<%%<<  ===7==  << << <<   =7=   <<    <<  ==7==    <<<<    ==7==  <<    <<   =7==== %<<<   ====7=== <<<<<<< ====7====   <<<% ====7==== <<<<<<< ===777 7 777",
"77 7 7777= <  <<%%<<   ==7==            ==7==   <<%%<<  < =7= <   <<<<    ==7= < %%    %% < =7==    <<<<   < =7=====     % ====7==== %<<<   ====7==== %     =====7====   <<<% ====777 7 777",
"77 7 7777==          < ==7= <<  %<<%  << =7== <          ==7==   %    % << =7= < %%%%%%%% < =7= << %    %   ==7======  <<  ====7=====       ====7====  <<  ======7====       =====777 7 777",
"77 7 7777===  %    <<  ==7= << <    < << =7==  <<    %  ===7===  %%%%%% << =7==    %%%%    ==7= << %%%%%%  ===7======  <<  ====7===      <<  ===7====  <<  ======7===  <<      ===777 7 777",
"77 7 7777====  %<< << ===7==   %%%%%%   ==7=== << <<%  ====7====  %%%%    ==7===          ===7==    %%%%  ====7===== %%    ====7== %% %% << % ==7====    %% =====7== % << %% %% ==777 7 777",
"77 7 7777==== <   =  ====7=== <      < ===7====  =   < ====7==== <    ======7=== <      < ===7======    < ====7===== %%%% =====7=== %%     %% ==7===== %%%% =====7== %%     %% ===777 7 777",
"77 7 7777=====   ========7====   ==   ====7========   =====7=====   ========7====   ==   ====7========   =====7======    ======7====   ====  ===7======    ======7===  ====   ====777 7 777",
"77 7 77777777777777777777777777777777777777777777777777777777777777777777777777777777777777777777777777777777777777777777777777777777777777777777777777777777777777777777777777777777 7 777",
"77 7 7777================7======    ======7================7================7======    ======7================7=====      =====7================7=====      =====7================777 7 777",
"77 7 7777======    ======7====  <<<<  ====7======    ======7======    ======7====  <<<<  ====7======    ======7==== <<<<<< ====7=====      =====7==== <<<<<< ====7=====      =====777 7 777",
"77 7 7777====  <<<<  ====7=== <<<<<<<< ===7====  <<<<  ====7====  <<<<  ====7=== <<<<<<<< ===7====  <<<<  ====7=== <<<<<<<< ===7==== <<<<<< ====7=== <<<<<<<< ===7==== <<<<<< ====777 7 777",
"77 7 7777=== <<<<<<<< ===7=   <<<<<<<<   =7=== <<<<<<<< ===7=== <<<<<<<< ===7=   <<<<<<<<   =7=== <<<<<<<< ===7==  <<<<<<<<  ==7=== <<<<<<<< ===7==  <<<<<<<<  ==7=== <<<<<<<< ===777 7 777",
"77 7 7777=   <<<<<<<<   =7 <<<%%%%%%%%<<< 7=   <<<<<<<<   =7=   <<<<<<<<   =7 <<<%%%%%%%%<<< 7=   <<<<<<<<   =7= <<%%%%%%%%<< =7==  <<<<<<<<  ==7= <<%%%%%%%%<< =7==  <<<<<<<<  ==777 7 777",
"77 7 7777 <<<%%%%%%%%<<< 7=   <<<<<<<<   =7 <<<%%%%%%%%<<< 7 <<<%%%%%%%%<<< 7=   <<<<<<<<   =7 <<<%%%%%%%%<<< 7==  <<<<<<<<  ==7= <<%%%%%%%%<< =7==  <<<<<<<<  ==7= <<%%%%%%%%<< =777 7 777",
"77 7 7777=   <<<<<<<<   =7= <<        << =7=   <<<<<<<<   =7=   <<<<<<<<   =7= <<        << =7=   <<<<<<<<   =7===           ==7==  <<<<<<<<  ==7==           ===7==  <<<<<<<<  ==777 7 777",
"77 7 7777= <<        << =7= <%<< << <<%< =7= <<        << =7= <<        << =7= <%<      <%< =7= <<        << =7=== < <<<<%<  ==7===           ==7==  <%<<<< < ===7==           ===777 7 777",
"77 7 7777= <%<< << <<%< =7==  <<<<<<<<  ==7= <%<< << <<%< =7= <%<      <%< =7==  <<    <<  ==7= <%<      <%< =7=== <<<<<<<< ===7=== < <<<<%<  ==7=== <<<<<<<< ===7==  <%<<<< < ===777 7 777",
"77 7 7777==  <<<<<<<<  ==7==   <<%%<<   ==7==  <<<<<<<<  ==7=   <<    <<  ==7==   <<<<<<   ==7==  <<    <<   =7==== %<<<   ====7=== <<<<<<<< ===7====   <<<% ====7=== <<<<<<<< ===777 7 777",
"77 7 7777==   <<%%<<   ==7= <<%      %<< =7==   <<%%<<   ==7=    <<<<<<   ==7= < <      < < =7==   <<<<<<    =7=====     % ====7==== %<<<   ====7==== %     =====7====   <<<% ====777 7 777",
"77 7 7777===         < ==7= << <<%%<< << =7== <         ===7==  %      %<< =7= < %<<<<<<% < =7= <<%      %  ==7===== <<  % ====7=====     % ====7==== %  << =====7==== %     =====777 7 777",
"77 7 7777==== <<  %<< ===7==  %  %%  %  ==7=== <<%  << ====7===   %%%%  << =7==  %%%%%%%%  ==7= <<  %%%%   ===7======  <<  ====7===      <<  ===7====  <<  ======7===  <<      ===777 7 777",
"77 7 7777====   %% << ===7===  %%%%%%  ===7=== << %%   ====7====          ==7===  %%%%%%  ===7==          ====7=====   << =====7== %  %% <<   ==7===== <<   =====7==   << %%  % ==777 7 777",
"77 7 7777==== %   =  ====7===          ===7====  =   % ====7==== %    ======7===          ===7======    % ====7====       =====7===        %  ==7=====       ====7==  %        ===777 7 777",
"77 7 7777=====   ========7====   ==   ====7========   =====7=====   ========7====   ==   ====7========   =====7=====     ======7====   ====  ===7======     =====7===  ====   ====777 7 777",
"77 7 77777777777777777777777777777777777777777777777777777777777777777777777777777777777777777777777777777777777777777777777777777777777777777777777777777777777777777777777777777777 7 777",
"77 7 7777================7================7================7================7================7================7================7================7================7================777 7 777",
"77 7 7777=<<=============7=============<<=7=============<<=7=============<<=7================7=<<=============7================7================7================7================777 7 777",
"77 7 7777=<<===========<=7=<===========<<=7=<===========<<=7=<===========<<=7===========<<===7=<<===========<=7================7================7================7================777 7 777",
"77 7 7777================7================7================7================7===========<<===7================7================7======      ====7================7====      ======777 7 777",
"77 7 7777=====      =====7================7=====      =====7=====      =====7===<============7=====      =====7<<====      ====7=<<== %%%%%% ===7====      ====<<7=== %%%%%% ==<<=777 7 777",
"77 7 7777==== %%%%%% ====7=====      =====7==== %%%%%% ====7==== %%%%%% ====7=====      =====7==== %%%%%% ====7<<=== %%%%%% ===7=<<= %%%%%%%% ==7=== %%%%%% ===<<7== %%%%%%%% =<<=777 7 777",
"77 7 7777=<= %%%%%%%% ===7==== %%%%%% ==<=7=== %%%%%%%% =<=7=== %%%%%%%% =<=7==== %%%%%% =<==7=<= %%%%%%%% ===7==== %%%%%%%% ==7====  %%%%%%% ==7== %%%%%%%% ====7== %%%%%%%  ====777 7 777",
"77 7 7777=== %% %% %% ===7=== %%%%%%%% ===7=== %% %% %% ===7=== %%%%%%%% ===7=== %%%%%%%% ===7=== %%%%%%%% ===7====  %%%%%%% ==7==== <   %%%%% =7== %%%%%%%  ====7= %%%%%   < ====777 7 777",
"77 7 7777== %% <  < %% ==7=== %% %% %% ===7== %% <  < %% ==7== %%%%%%%%%% ==7== %%%%%%%%%% ==7== %%%%%%%%%% ==7=== <   %%%%% ==7==== <<<< %%%% =7== %%%%%   < ===7= %%%% <<<< ====777 7 777",
"77 7 7777== % <<<<<< % ==7== %% <  < %% ==7== % <<<<<< % ==7== %%%%%%%%%% ==7== %%%%%%%%%% ==7== %%%%%%%%%% ==7=<= <<<< %%%% ==7==<= < <<   %% =7== %%%% <<<< =<=7= %%   << < =<==777 7 777",
"77 7 7777= < << << << < =7== % <<<<<< % ==7= < << << << < =7= < %%%%%%%% < =7= < %%%%%%%% < =7= < %%%%%%%% < =7=== < <<   %% ==7==== < << <<  ==7== %%   << < ===7==  << << < ====777 7 777",
"77 7 7777= <<<< << <<<< =7= < << << << < =7= <<<< << <<<< =7= << %%%%%% << =7= << %%%%%% << =7= << %%%%%% << =7=== < << <<  ===7==== <<<<<<< ===7===  << << < ===7=== <<<<<<< ====777 7 777",
"77 7 7777==  <<<%%<<<  ==7=   << << <<   =7==  <<<%%<<<  ==7==  <      <  ==7==  <      <  ==7==  <      <  ==7===  <<<<<< ====7===== %%<   ====7==== <<<<<<  ===7====   <%% =====777 7 777",
"77 7 7777==== <<%%<< << =7= << <<%%<< << =7= << <<%%<< ====7= <  <<<<<< ====7= <  <<<<<<  < =7==== <<<<<<  < =7== << <<<< =====7======   << ====7===== <<<< << ==7==== <<   ======777 7 777",
"77 7 7777=====       << =7= <<        << =7= <<       =====7= <<       =====7= <<        << =7=====       << =7== <<     ======7======== << ====7======     << ==7==== << ========777 7 777",
"77 7 7777============  ==7==  ========  ==7==  ============7==  ============7==  ========  ==7============  ==7===  ===========7=========  =====7===========  ===7=====  =========777 7 777",
"77 7 77777777777777777777777777777777777777777777777777777777777777777777777777777777777777777777777777777777777777777777777777777777777777777777777777777777777777777777777777777777 7 777",
"77 7 7777=========   ====7=======   ======7====   =========7====   =========7======   =======7=========   ====7================7===========  ===7================7===  ===========777 7 777",
"77 7 7777========     ===7======     ==<<=7===     ========7===     ========7=<<==     ======7========     ===7<<=========  ===7==========     =7===  =========<<7=     ==========777 7 777",
"77 7 7777=======   =  ===7=<====      =<<=7===  =   =======7===  =   =======7=<<=      ====<=7=======   =  ===7<<========    ==7=<==      %    =7==    ========<<7=    %      ==<=777 7 777",
"77 7 7777=====  %%  == ==7=======   =  ===7== ==  %%  =====7== ==  %%  =====7===  =   =======7=====  %%  == ==7====      %   ==7===        %    7==   %      ====7    %        ===777 7 777",
"77 7 7777====        ==<=7=====  %%  =====7=<==        ====7=<==        ====7=====  %%  =====7====        ==<=7===        %   =7==          ==  7=   %        ===7  ==          ==777 7 777",
"77 7 7777===          ===7====        ==<=7===          ===7===          ===7=<==        ====7===          ===7==             =7==          ==  7=             ==7  ==          ==777 7 777",
"77 7 7777==     <<     ==7===          ===7==     <<     ==7==            ==7===          ===7==            ==7==          =  =7== <         == 7=  =          ==7 ==         < ==777 7 777",
"77 7 7777==   <<<<<<   ==7==     <<     ==7==   <<<<<<   ==7==            ==7==            ==7==            ==7== <         = =7== <<<       == 7= =         < ==7 ==       <<< ==777 7 777",
"77 7 7777= < << << << < =7==   <<<<<<   ==7= < << << << < =7= <          < =7==            ==7= <          < =7== <<<       = =7== < <<      == 7= =       <<< ==7 ==      << < ==777 7 777",
"77 7 7777= <%<< << <<%< =7= < << << << < =7= <%<< << <<%< =7= <%        %< =7= <          < =7= <%        %< =7== < <<      = =7== < << <<  ====7= =      << < ==7====  << << < ==777 7 777",
"77 7 7777=   <<<%%<<<  ==7= <%<< << <<%< =7==  <<<%%<<<   =7==  <      <   =7= <%        %< =7=   <      <  ==7== < << <<  ====7== <<<<%<< =====7====  << << < ==7===== <<%<<<< ==777 7 777",
"77 7 7777= <  <<%%<<  ===7==  <<<<<<<<  ==7===  <<%%<<  < =7===  <<<<<<  < =7==  <      <  ==7= <  <<<<<<  ===7== <<<<%<< =====7=   %<<   ======7===== <<%<<<< ==7======   <<%   =777 7 777",
"77 7 7777==  =       < ==7===  <<%%<<  ===7== <       =  ==7== <       =  ==7==   <<<<<<   ==7==  =       < ==7=== %<<   ==<===7 <<      ====<<=7===<==   <<% ===7=<<====      << 777 7 777",
"77 7 7777========= <<  ==7== <<      << ==7==  << =========7==  << =========7== <<      << ==7========= <<  ==7====   << ======7 <<<<<  =====<<=7====== <<   ====7=<<=====  <<<<< 777 7 777",
"77 7 7777===<===== << ===7== << ==== << ==7=== << =====<===7=== << =====<===7===   ====   ===7===<===== << ===7=====  << ======7=     ==========7====== <<  =====7==========     =777 7 777",
"77 7 7777==========  ====7===  ======  ===7====  ==========7====  ==========7================7==========  ====7===<===  =======7================7=======  ===<===7================777 7 777",
"77 7 77777777777777777777777777777777777777777777777777777777777777777777777777777777777777777777777777777777777777777777777777777777777777777777777777777777777777777777777777777777 7 777",
"77 7 7777================7======    ======7================7======    ======7======    ======7======    ======7======    ======7================7======    ======7================777 7 777",
"77 7 7777======    ======7====  %%%%  ====7======    ======7====  %%%%  ====7====  %%%%  ====7====  %%%%  ====7====  %%%%  ====7======    ======7====  %%%%  ====7======    ======777 7 777",
"77 7 7777====  %%%%  ====7=== %%%%%%%% ===7====  %%%%  ====7=== %%%%%%%% ===7=== %%%%%%%% ===7=== %%%%%%%% ===7=== %%%%%%%< ===7====  %%%%  ====7=== <%%%%%%% ===7====  %%%%  ====777 7 777",
"77 7 7777=== %%%%%%%% ===7== %<%%%%%%<% ==7=== %%%%%%%% ===7== %%%%%%%%%% ==7== %%%%%%%%%% ==7== %%%%%%%%%% ==7== %%   %<%%% ==7=== %%%%%%%< ===7== %%%<%   %% ==7=== <%%%%%%% ===777 7 777",
"77 7 7777== %<%%%%%%<% ==7== %   %%   % ==7== %<%%%%%%<% ==7== %<%%%%%%<% ==7== %<%%%%%%<% ==7== %<%%%%%%<% ==7== % < %%%%%% ==7== %%   %<%%% ==7== %%%%%% < % ==7== %%%<%   %% ==777 7 777",
"77 7 7777== %   %%   % ==7=   % <  < %   =7== %   %%   % ==7=   %%<%%<%%   =7=   %%<%%<%%   =7=   %%<%%<%%   =7== % << %%%%% ==7== % < %%%%%% ==7== %%%%% << % ==7== %%%%%% < % ==777 7 777",
"77 7 7777=   % <  < %   =7 %%% <<<<<< %%% 7=   % <  < %   =7 %%% %%%%%% %%% 7 %%% %%%%%% %%% 7 %%% %%%%%% %%% 7=== < < %%%   ==7== % << %%%%% ==7==   %%% < < ===7== %%%%% << % ==777 7 777",
"77 7 7777 %%% <<<<<< %%% 7 %%  < << <  %% 7 %%% <<<<<< %%% 7 %%  %%%%%%  %% 7 %%  %%%%%%  %% 7 %%  %%%%%%  %% 7=== < < %% %%% =7=== < < %%%   ==7= %%% %% < < ===7==   %%% < < ===777 7 777",
"77 7 7777 %%  < << <  %% 7= %%<< << <<%% =7 %%  < << <  %% 7= %%%%%%%%%%%% =7= %%%%%%%%%%%% =7= %%%%%%%%%%%% =7=== <<<<%%  %% =7=== < < %% %%% =7= %%  %%<<<< ===7= %%% %% < < ===777 7 777",
"77 7 7777= %%<< << <<%% =7==   <<<<<<   ==7= %%<< << <<%% =7== %%% %% %%% ==7== %%% %% %%% ==7== %%% %% %%% ==7==== %<  %%%% ==7=== <<<<%%  %% =7== %%%%  <% ====7= %%  %%<<<< ===777 7 777",
"77 7 7777==   <<<<<<   ==7=== <      < ===7==   <<<<<<   ==7===   %%%%   ===7===   %%%%   ===7===   %%%%   ===7=====        ===7==== %<  %%%% ==7===        =====7== %%%%  <% ====777 7 777",
"77 7 7777=== <      < ===7== <<  %%  << ==7=== <      < ===7== <<      << ==7== <<      << ==7== <<      << ==7===== % <<  ====7=====        ===7====  << % =====7===        =====777 7 777",
"77 7 7777== <<  %%  << ==7=== %%    %% ===7== <<  %%  << ==7===  %    %  ===7===  %    % ====7===  %    %  ===7=====   << =====7===== % <<  ====7===== <<   =====7====  << % =====777 7 777",
"77 7 7777===  %    %  ===7==== %%%%%% ====7===  %    %  ===7=== %%%%%%% ====7==== %%%%%% ====7==== %%%%%%% ===7===== %%  % ====7=====   << =====7==== %  %% =====7===== <<   =====777 7 777",
"77 7 7777==== %%%%  =====7====  %%%%  ====7=====  %%%% ====7==== %%%%  =====7====  %%%%  ====7=====  %%%% ====7===== %%%%% ====7==== %%%  % ====7==== %%%%% =====7==== %  %%% ====777 7 777",
"77 7 7777=====     ======7=====      =====7======     =====7=====    =======7=====      =====7=======    =====7======     =====7=====      =====7=====     ======7=====      =====777 7 777",
"77 7 77777777777777777777777777777777777777777777777777777777777777777777777777777777777777777777777777777777777777777777777777777777777777777777777777777777777777777777777777777777 7 777",
"77 7 7777================7=====      =====7================7================7=====      =====7================7=====      =====7================7=====      =====7================777 7 777",
"77 7 7777=====      =====7==== %%%%%% ====7=====      =====7=====      =====7==== %%%%%% ====7=====      =====7==== %%%%%% ====7=====      =====7==== %%%%%% ====7=====      =====777 7 777",
"77 7 7777==== %%%%%% ====7=== %%%%%%%% ===7==== %%%%%% ====7==== %%%%%% ====7=== %%%%%%%% ===7==== %%%%%% ====7=== %%%%%%%% ===7==== %%%%%% ====7=== %%%%%%%% ===7==== %%%%%% ====777 7 777",
"77 7 7777=== %%%%%%%% ===7=== %%%%%%%% ===7=== %%%%%%%% ===7=== %%%%%%%% ===7=== %%%%%%%% ===7=== %%%%%%%% ===7== %%%%%%%%% ===7=== %%%%%%%% ===7=== %%%%%%%%% ==7=== %%%%%%%% ===777 7 777",
"77 7 7777=== %%%%%%%% ===7==   %%%%%%   ==7=== %%%%%%%% ===7=== %%%%%%%% ===7==  %%%  %%%  ==7=== %%%%%%%% ===7== %%%%%%%% % ==7== %%%%%%%%% ===7== % %%%%%%%% ==7=== %%%%%%%%% ==777 7 777",
"77 7 7777==   %%%%%%   ==7==  <<<<<<<<  ==7==   %%%%%%   ==7==  %%%  %%%  ==7==     %%     ==7==  %%%  %%%  ==7== <<<<      % =7== %%%%%%%% % ==7= %      <<<< ==7== % %%%%%%%% ==777 7 777",
"77 7 7777==  <<<<<<<<  ==7= < < <<<< < < =7==  <<<<<<<<  ==7==     %%     ==7= <   %  %   < =7==     %%     ==7=== < <<      ==7== <<<<      % =7==      << < ===7= %      <<<< ==777 7 777",
"77 7 7777= < < <<<< < < =7= <<<< << <<<< =7= < < <<<< < < =7= <   %  %   < =7= <<  %  %  << =7= <   %  %   < =7===  <<< <<  ===7=== < <<      ==7===  << <<<  ===7==      << < ===777 7 777",
"77 7 7777= <<<< << <<<< =7== %<<<<<<<<% ==7= <<<< << <<<< =7= <<  %  %  << =7==  <      <  ==7= <<  %  %  << =7=== <<<<<<< ====7===  <<< <<  ===7==== <<<<<<< ===7===  << <<<  ===777 7 777",
"77 7 7777=   <<<<<<<<  ==7=  < <<%%<< <  =7==  <<<<<<<<   =7=   <<    <<  ==7= %  <<<<<<  % =7==  <<    <<   =7==== %<<<  =====7=== <<<<<<< ====7=====  <<<% ====7==== <<<<<<< ===777 7 777",
"77 7 7777= <  <<%%<<   ==7 << <%    %< << 7==   <<%%<<  < =7= <   <<<<    ==7 < %<      <% < 7==    <<<<   < =7=====     % ====7==== %<<<   ====7==== %     =====7====   <<<% ====777 7 777",
"77 7 7777==  %      %  ==7 << %<%<<%<% << 7==  %      %  ==7==  <     < << =7 < %<<<<<<<<% < 7= << <     <  ==7===== < <<  ====7=====       ====7====  << < =====7====       =====777 7 777",
"77 7 7777===  <%%%%%<< ==7=   %%<  <%%   =7== <<%%%%%<  ===7=== %<<<<<< << =7=   %%%%%%%%   =7= << <<<<<<% ===7===== % <<  ====7===   <% <<  ===7====  << % =====7===  << %<   ===777 7 777",
"77 7 7777==== %<<<  << ==7===    %%    ===7== <<  <<<% ====7==== %%%%%%   ==7===          ===7==   %%%%%% ====7==== %      ====7== %   % <<   ==7====      % ====7==   << %   % ==777 7 777",
"77 7 7777==== %%   =  ===7=== %      % ===7===  =   %% ====7====       =====7=== %      % ===7=====       ====7====       =====7===         % ==7=====       ====7== %         ===777 7 777",
"77 7 7777=====   ========7====   ==   ====7========   =====7=====   ========7====   ==   ====7========   =====7=====     ======7====   ====  ===7======     =====7===  ====   ====777 7 777",
"77 7 77777777777777777777777777777777777777777777777777777777777777777777777777777777777777777777777777777777777777777777777777777777777777777777777777777777777777777777777777777777 7 777",
"77 7 7777================7======    ======7================7================7======    ======7================7======    ======7================7======    ======7================777 7 777",
"77 7 7777======    ======7====  %%%%  ====7======    ======7======    ======7====  %%%%  ====7======    ======7====  %%%%  ====7======    ======7====  %%%%  ====7======    ======777 7 777",
"77 7 7777====  %%%%  ====7=== %%%%%%%% ===7====  %%%%  ====7====  %%%%  ====7=== %%%%%%%% ===7====  %%%%  ====7=== %%%%%%%% ===7====  %%%%  ====7=== %%%%%%%% ===7====  %%%%  ====777 7 777",
"77 7 7777=== %%%%%%%% ===7== %% %%%% %% ==7=== %%%%%%%% ===7=== %%%%%%%% ===7=== %%%%%%%% ===7=== %%%%%%%% ===7== %% %%%%%% ===7=== %%%%%%%% ===7=== %%%%%% %% ==7=== %%%%%%%% ===777 7 777",
"77 7 7777== %% %%%% %% ==7== % <    < % ==7== %% %%%% %% ==7=== %%%%%%%% ===7== %%%%%%%%%% ==7=== %%%%%%%% ===7== % <  %%%%% ==7== %% %%%%%% ===7== %%%%%  < % ==7=== %%%%%% %% ==777 7 777",
"77 7 7777== % <    < % ==7= < <<<<<<<< < =7== % <    < % ==7== %%%%%%%%%% ==7= < %%%%%%%% < =7== %%%%%%%%%% ==7=== <<<<  %%% ==7== % <  %%%%% ==7== %%%  <<<< ===7== %%%%%  < % ==777 7 777",
"77 7 7777= < <<<<<<<< < =7= < <  <<  < < =7= < <<<<<<<< < =7= < %%%%%%%% < =7= << %%%%%% << =7= < %%%%%%%% < =7===   << < %% ==7=== <<<<  %%% ==7== %% < <<   ===7== %%%  <<<< ===777 7 777",
"77 7 7777= < <  <<  < < =7= <          < =7= < <  <<  < < =7= << %%%%%% << =7= <%<  %%  <%< =7= << %%%%%% << =7===      < %% ==7===   << < %% ==7== %% <      ===7== %% < <<   ===777 7 777",
"77 7 7777= <          < =7==  <  <<  <  ==7= <          < =7= <%<  %%  <%< =7==  <<<  <<<  ==7= <%<  %%  <%< =7===   <<< %% ===7===      < %% ==7=== %% <<<   ===7== %% <      ===777 7 777",
"77 7 7777==  <  <<  <  ==7===  <<%%<<  ===7==  <  <<  <  ==7==  <<<  <<<  ==7==    <<<<    ==7==  <<<  <<<  ==7==== <<<<   ====7===   <<< %% ===7====   <<<< ====7=== %% <<<   ===777 7 777",
"77 7 7777= <  <<%%<<    =7==            ==7=    <<%%<<  < =7= <   <<<<    ==7= < <<    << < =7==    <<<<   < =7====      < ====7==== <<<<   ====7==== <      ====7====   <<<< ====777 7 777",
"77 7 7777= < %       << =7= << <<%%<< << =7= <<       % < =7= < <<    << < =7= << <<<<<< << =7= < <<    << < =7==== < << < ====7====       %====7==== < << < ====7====%       ====777 7 777",
"77 7 7777==   %<<<<< << =7= << %<<<<% << =7= << <<<<<%   ==7==   <<<<<< << =7==   <<<<<<   ==7= << <<<<<<   ==7==== < << < ====7===   << <<  ===7==== < << < ====7===  << <<   ===777 7 777",
"77 7 7777====   %<<    ==7==            ==7==    <<%   ====7====    <<    ==7=== %      % ===7==    <<    ====7=====      =====7== <% %< << % ==7=====      =====7== % << <% %< ==777 7 777",
"77 7 7777==== <%   ======7=== <%%  %%< ===7======   %< ====7==== <%%  ======7=== <%%  %%< ===7======  %%< ====7===== <%%% =====7=== %%  %  <% ==7===== %%%< =====7== %<  %  %% ===777 7 777",
"77 7 7777=====   ========7====   ==   ====7========   =====7=====   ========7====   ==   ====7========   =====7======    ======7====  =====  ===7======    ======7===  =====  ====777 7 777",
"77 7 77777777777777777777777777777777777777777777777777777777777777777777777777777777777777777777777777777777777777777777777777777777777777777777777777777777777777777777777777777777 7 777",
"77 7 7777====        ====7::::        ::::7=====       ====7====       =====777777777777777777777777777777777777777777777777777777777777777777777777777777777777777777777777777777777 7 777",
"77 7 7777===    <3    ===7:::          :::7====<        ===7===        <====777777777777777777777777777777777777777777777777777777777777777777777777777777777777777777777777777777777 7 777",
"77 7 7777===    33    ===7:::          :::7====3        ===7===        3====777777777777777777777777777777777777777777777777777777777777777777777777777777777777777777777777777777777 7 777",
"77 7 7777===  333333  ===7:::          :::7=== 33333333 ===7=== 33333333 ===777777777777777777777777777777777777777777777777777777777777777777777777777777777777777777777777777777777 7 777",
"77 7 7777==  3      3  ==7::  33333333  ::7==           ===7===           ==777777777777777777777777777777777777777777777777777777777777777777777777777777777777777777777777777777777 7 777",
"77 7 7777==            ==7::            ::7==           ===7===           ==777777777777777777777777777777777777777777777777777777777777777777777777777777777777777777777777777777777 7 777",
"77 7 7777= < 3<<<<<<3 < =7: < 33333333 < :7=== 3<<33333 ===7=== 33333<<3 ===777777777777777777777777777777777777777777777777777777777777777777777777777777777777777777777777777777777 7 777",
"77 7 7777= <<<  <<  <<< =7: <<33333333<< :7=== <  <3333 ===7=== 3333<  < ===777777777777777777777777777777777777777777777777777777777777777777777777777777777777777777777777777777777 7 777",
"77 7 7777==  <<<33<<<  ==7::  <333333<  ::7=== <<<<3<<3 ===7=== 3<<3<<<< ===777777777777777777777777777777777777777777777777777777777777777777777777777777777777777777777777777777777 7 777",
"77 7 7777==   <3<<3<   ==7::   <<<<<<   ::7==== 33<<<< ====7==== <<<<33 ====777777777777777777777777777777777777777777777777777777777777777777777777777777777777777777777777777777777 7 777",
"77 7 7777= <<  <<<<  << =7: <          < :7====3<<3<  =====7=====  <3<<3====777777777777777777777777777777777777777777777777777777777777777777777777777777777777777777777777777777777 7 777",
"77 7 7777= <<  <<<<  << =7: <          < :7====3<<     ====7====     <<3====777777777777777777777777777777777777777777777777777777777777777777777777777777777777777777777777777777777 7 777",
"77 7 7777==   < << <   ==7::            ::7=====3  <<  ====7====  <<  3=====777777777777777777777777777777777777777777777777777777777777777777777777777777777777777777777777777777777 7 777",
"77 7 7777=== <<    << ===7::: <<<  <<< :::7===== < <<  ====7====  << < =====777777777777777777777777777777777777777777777777777777777777777777777777777777777777777777777777777777777 7 777",
"77 7 7777===          ===7:::          :::7====        ====7====        ====777777777777777777777777777777777777777777777777777777777777777777777777777777777777777777777777777777777 7 777",
"77 7 7777====   ==   ====7::::   ::   ::::7====       =====7=====       ====777777777777777777777777777777777777777777777777777777777777777777777777777777777777777777777777777777777 7 777",
"77 7 77777777777777777777777777777777777777777777777777777777777777777777777777777777777777777777777777777777777777777777777777777777777777777777777777777777777777777777777777777777 7 777",
"77 7 7777================7======    ======7================7================7======    ======7================7=====     ======7================7======     =====7================777 7 777",
"77 7 7777======    ======7====  %%%%  ====7======    ======7======    ======7====  %%%%  ====7======    ======7==== %%%%%  ====7=====     ======7====  %%%%% ====7======     =====777 7 777",
"77 7 7777====  %%%%  ====7=== %%%%%%%% ===7====  %%%%  ====7====  %%%%  ====7=== %%%%%%%% ===7====  %%%%  ====7=== %%%%%%%% ===7==== %%%%%  ====7=== %%%%%%%% ===7====  %%%%% ====777 7 777",
"77 7 7777=== %%%%%%%% ===7== %% %%%% %% ==7=== %%%%%%%% ===7=== %%%%%%%% ===7== %%%%%%%%%% ==7=== %%%%%%%% ===7== % %%%%% %% ==7=== %%%%%%%% ===7== %% %%%%% % ==7=== %%%%%%%% ===777 7 777",
"77 7 7777== %% %%%% %% ==7== % %%  %% % ==7== %% %%%% %% ==7== %%%%%%%%%% ==7== %%%%%%%%%% ==7== %%%%%%%%%% ==7==  % %% %% % ==7== % %%%%% %% ==7== % %% %% %  ==7== %% %%%%% % ==777 7 777",
"77 7 7777== % %%  %% % ==7= %  % << %  % =7== % %%  %% % ==7== %%%%%%%%%% ==7= % %%%%%%%% % =7== %%%%%%%%%% ==7== %<% %  % %% =7==  % %% %% % ==7= %% %  % %<% ==7== % %% %% %  ==777 7 777",
"77 7 7777= %  % << %  % =7= < < <<<< < < =7= %  % << %  % =7= % %%%%%%%% % =7= < %%%%%%%% < =7= % %%%%%%%% % =7=== < < << < % =7== %<% %  % %% =7= % < << < < ===7= %% %  % %<% ==777 7 777",
"77 7 7777= < < <<<< < < =7= <%<< << <<%< =7= < < <<<< < < =7= < %%%%%%%% < =7= <%% %%%% %%< =7= < %%%%%%%% < =7=== < <<<<%< % =7=== < < << < % =7= % <%<<<< < ===7= % < << < < ===777 7 777",
"77 7 7777= <%<< << <<%< =7==  << << <<  ==7= <%<< << <<%< =7= <%% %%%% %%< =7==  <% %% %<  ==7= <%% %%%% %%< =7=== <<<<<<<<  ==7=== < <<<<%< % =7==  <<<<<<<< ===7= % <%<<<< < ===777 7 777",
"77 7 7777==  << << <<  ==7==   <<%%<<   ==7==  << << <<  ==7=   <% %% %<  ==7==    <<<<    ==7==  <% %% %<   =7==== %<<<<   ===7=== <<<<<<<<  ==7===   <<<<% ====7==  <<<<<<<< ===777 7 777",
"77 7 7777== < <<%%<<   ==7= <<        << =7==   <<%%<< < ==7= <   <<<<    ==7= < %      % < =7==    <<<<   < =7=====       ====7==== %<<<<   ===7====       =====7===   <<<<% ====777 7 777",
"77 7 7777===         < ==7= << <<%%<< << =7== <         ===7==  %      %<< =7= <  <<%%<<  < =7= <<%      %  ==7======  <<  ====7=====       ====7====  <<  ======7====       =====777 7 777",
"77 7 7777==== <<  %<< ===7==   %%  %%   ==7=== <<%  << ====7===   %%%%  << =7==   %%  %%   ==7= <<  %%%%   ===7======  <<  ====7===      <<  ===7====  <<  ======7===  <<      ===777 7 777",
"77 7 7777====   %% << ===7===    %%    ===7=== << %%   ====7====          ==7===    %%    ===7==          ====7===== %     ====7== <% %% << % ==7====     % =====7== % << %% %< ==777 7 777",
"77 7 7777==== %   =  ====7=== %      % ===7====  =   % ====7==== %    ======7=== %      % ===7======    % ====7=====      =====7=== %%     <% ==7=====      =====7== %<     %% ===777 7 777",
"77 7 7777=====   ========7====   ==   ====7========   =====7=====   ========7====   ==   ====7========   =====7======    ======7====   ====  ===7======    ======7===  ====   ====777 7 777",
"77 7 77777777777777777777777777777777777777777777777777777777777777777777777777777777777777777777777777777777777777777777777777777777777777777777777777777777777777777777777777777777 7 777",
"77 7 7777======    ======7=====      =====7=====     ======7======     =====777777777777777777777777777777777777777777777777777777777777777777777777777777777777777777777777777777777 7 777",
"77 7 7777====        ====7====        ====7====        ====7====        ====777777777777777777777777777777777777777777777777777777777777777777777777777777777777777777777777777777777 7 777",
"77 7 7777===          ===7===          ===7===          ===7===          ===777777777777777777777777777777777777777777777777777777777777777777777777777777777777777777777777777777777 7 777",
"77 7 7777===          ===7==            ==7==           ===7===           ==777777777777777777777777777777777777777777777777777777777777777777777777777777777777777777777777777777777 7 777",
"77 7 7777==  <      <  ==7==            ==7==   <<       ==7==       <<   ==777777777777777777777777777777777777777777777777777777777777777777777777777777777777777777777777777777777 7 777",
"77 7 7777= < <<    << < =7= <          < =7=== <<<<      ==7==      <<<< ===777777777777777777777777777777777777777777777777777777777777777777777777777777777777777777777777777777777 7 777",
"77 7 7777= <<<<<<<<<<<< =7= <<        << =7=== < << <<   ==7==   << << < ===777777777777777777777777777777777777777777777777777777777777777777777777777777777777777777777777777777777 7 777",
"77 7 7777= <%<< << <<%< =7= <%        %< =7=== < <<%<<   ==7==   <<%<< < ===777777777777777777777777777777777777777777777777777777777777777777777777777777777777777777777777777777777 7 777",
"77 7 7777==  <<    <<  ==7==  <%    %<  ==7=== <<    << ===7=== <<    << ===777777777777777777777777777777777777777777777777777777777777777777777777777777777777777777777777777777777 7 777",
"77 7 7777====  <%%<  ====7== <  %%%%  < ==7====  <%%<  ====7====  <%%<  ====777777777777777777777777777777777777777777777777777777777777777777777777777777777777777777777777777777777 7 777",
"77 7 7777=== < <  < < ===7== < <    < < ==7=== < <  < < ===7=== < <  < < ===777777777777777777777777777777777777777777777777777777777777777777777777777777777777777777777777777777777 7 777",
"77 7 7777=== < <<<< < ===7===  <<<<<<  ===7=== < <<<< < ===7=== < <<<< < ===777777777777777777777777777777777777777777777777777777777777777777777777777777777777777777777777777777777 7 777",
"77 7 7777====  %<<<  ====7====        ====7====  %<<<  ====7====  <<<%  ====777777777777777777777777777777777777777777777777777777777777777777777777777777777777777777777777777777777 7 777",
"77 7 7777=== %%    %% ===7=== %      % ===7=== %%    %% ===7=== %%    %% ===777777777777777777777777777777777777777777777777777777777777777777777777777777777777777777777777777777777 7 777",
"77 7 7777=== %%%  %%% ===7=== %%%  %%% ===7=== %%%  %%% ===7=== %%%  %%% ===777777777777777777777777777777777777777777777777777777777777777777777777777777777777777777777777777777777 7 777",
"77 7 7777====   ==   ====7====   ==   ====7====   ==   ====7====   ==   ====777777777777777777777777777777777777777777777777777777777777777777777777777777777777777777777777777777777 7 777",
"77 7 77777777777777777777777777777777777777777777777777777777777777777777777777777777777777777777777777777777777777777777777777777777777777777777777777777777777777777777777777777777 7 777",
"77 7 7777================7======    ======7================7================7======    ======7================7======    ======7::::::::::::::::7======    ======7::::::::::::::::777 7 777",
"77 7 7777======    ======7====        ====7======    ======7======    ======7====  <<<<  ====7======    ======7====   <<<    ==7::::::    ::::::7==    <<<   ====7::::::    ::::::777 7 777",
"77 7 7777====        ====7===   <<<<   ===7====        ====7====  <<<<  ====7===          ===7====  <<<<  ====7===      <<    =7::::   <<<    ::7=    <<      ===7::    <<<   ::::777 7 777",
"77 7 7777===   <<<<   ===7== %%      %% ==7===   <<<<   ===7===          ===7== %        % ==7===          ===7===       <    =7:::      <<    :7=    <       ===7:    <<      :::777 7 777",
"77 7 7777== %%      %% ==7== %%      %% ==7== %%      %% ==7== %        % ==7== %        % ==7== %        % ==7==== <  %%     =7:::       <    :7=     %%  < ====7:    <       :::777 7 777",
"77 7 7777== %%      %% ==7=     <  <     =7== %%      %% ==7== %        % ==7=              =7== %        % ==7=== <<< %%     =7:::: <  %%     :7=     %% <<< ===7:     %%  < ::::777 7 777",
"77 7 7777=     <  <     =7=    <<<<<<    =7=     <  <     =7=              =7=              =7=              =7=== < <<      ==7::: <<< %%     :7==      << < ===7:     %% <<< :::777 7 777",
"77 7 7777=    <<<<<<    =7==  << << <<  ==7=    <<<<<<    =7=              =7==  <      <  ==7=              =7=== < << <<   ==7::: < <<      ::7==   << << < ===7::      << < :::777 7 777",
"77 7 7777==  << << <<  ==7=== << << << ===7==  << << <<  ==7==  <      <  ==7=== <<    << ===7==  <      <  ==7=== <<<<<<<  ===7::: < << <<   ::7===  <<<<<<< ===7::   << << < :::777 7 777",
"77 7 7777= < << << << < =7==   <<%%<<   ==7= < << << << < =7= < <<    << < =7==   <<<<<<   ==7= < <<    << < =7==== %<<    ====7::: <<<<<<<  :::7====    <<% ====7:::  <<<<<<< :::777 7 777",
"77 7 7777== % <<%%<< % ==7= <%%      %%< =7== % <<%%<< % ==7== % <<<<<< % ==7= <%%      %%< =7== % <<<<<< % ==7=== <   %%   ===7::::  <<    ::::7===   %%   < ===7::::    <<  ::::777 7 777",
"77 7 7777== <%      %< ==7== %< %<<% <% ==7== <%      %< ==7== <%      %< ==7== %< %  % <% ==7== <%      %< ==7=== <%%%%%    ==7:::: <   %   :::7==    %%%%%< ===7:::   %   < ::::777 7 777",
"77 7 7777== %< %<<% <% ==7== <%%    %%< ==7== %< %<<% <% ==7== %<%%  %%<% ==7== <%%    %%< ==7== %<%%  %%<% ==7==== %<%<%  % ==7:::: <%%%%    ::7== %  %<%<% ====7::    %%%%< ::::777 7 777",
"77 7 7777===  %    %  ===7== %< %<<% <% ==7===  %    %  ===7===          ===7== %< %  % <% ==7===          ===7==== <%<% %%% ==7::::: %<%< %% ::7== %%% %<%< ====7:: %% <%<% :::::777 7 777",
"77 7 7777==== %%<<%% ====7===  %%<<%%  ===7==== %%<<%% ====7==== %%  %% ====7===  %%%%%%  ===7==== %%  %% ====7===== <%< %% ===7::::: <%<%%% :::7=== %% <%< =====7::: %%%<%< :::::777 7 777",
"77 7 7777=====      =====7=====      =====7=====      =====7=====      =====7=====      =====7=====      =====7======      ====7::::::      ::::7====      ======7::::      ::::::777 7 777",
"77 7 77777777777777777777777777777777777777777777777777777777777777777777777777777777777777777777777777777777777777777777777777777777777777777777777777777777777777777777777777777777 7 777",
"77 7 7777================7=====      =====7================7================7=====      =====7================7====       =====7================7=====       ====7================777 7 777",
"77 7 7777=====      =====7==== %%%%%% ====7=====      =====7=====      =====7==== %%%%%% ====7=====      =====7=== %%%%%%% ====7====       =====7==== %%%%%%% ===7=====       ====777 7 777",
"77 7 7777==== %%%%%% ====7===          ===7==== %%%%%% ====7==== %%%%%% ====7===          ===7==== %%%%%% ====7==           ===7=== %%%%%%% ====7===           ==7==== %%%%%%% ===777 7 777",
"77 7 7777===          ===7===          ===7===          ===7===          ===7===          ===7===          ===7==           ===7==           ===7===           ==7===           ==777 7 777",
"77 7 7777===          ===7=   %%%%%%%%   =7===          ===7===          ===7=   %%%%%%%%   =7===          ===7   %%%%%%%%%   =7==           ===7=   %%%%%%%%%   7===           ==777 7 777",
"77 7 7777=   %%%%%%%%   =7===   <<<<   ===7=   %%%%%%%%   =7=   %%%%%%%%   =7===          ===7=   %%%%%%%%   =7=== <<<      ===7   %%%%%%%%%   =7===      <<< ===7=   %%%%%%%%%   777 7 777",
"77 7 7777===   <<<<   ===7==  << << <<  ==7===   <<<<   ===7===          ===7==            ==7===          ===7=== < <<      ==7=== <<<      ===7==      << < ===7===      <<< ===777 7 777",
"77 7 7777==  << << <<  ==7==  << << <<  ==7==  << << <<  ==7==            ==7==            ==7==            ==7=== < <<      ==7=== < <<      ==7==      << < ===7==      << < ===777 7 777",
"77 7 7777==  << << <<  ==7==   <<%%<<   ==7==  << << <<  ==7==            ==7==            ==7==            ==7=== <<<<      ==7=== < <<      ==7==      <<<< ===7==      << < ===777 7 777",
"77 7 7777==   <<%%<<   ==7==            ==7==   <<%%<<   ==7==            ==7==            ==7==            ==7==== %<       ==7=== <<<<      ==7==       <% ====7==      <<<< ===777 7 777",
"77 7 7777== <<      < ===7==== < %% < ====7=== <      << ==7===          ===7==== < %% < ====7===          ===7=====     ======7==== %<       ==7======     =====7==       <% ====777 7 777",
"77 7 7777===   %%%% << ==7=== <<    << ===7== << %%%%   ===7== <  %%%% << ==7=== <<    << ===7== << %%%%  < ==7===== % < ======7=====       ====7====== < % =====7====       =====777 7 777",
"77 7 7777=====     << ===7====  %%%%  ====7=== <<     =====7===        < ===7====  %%%%  ====7=== <        ===7=====  <<  =====7===== < %% =====7=====  <<  =====7===== %% < =====777 7 777",
"77 7 7777===== %%%%  ====7===== %%%% =====7====  %%%% =====7===== %%%%  ====7===== %%%% =====7====  %%%% =====7===== %%%% =====7==== <<   %  ===7===== %%%% =====7===  %   << ====777 7 777",
"77 7 7777=====     ======7=====      =====7======     =====7=====     ======7=====      =====7======     =====7=====      =====7====         ===7=====      =====7===         ====777 7 777",
"77 7 7777======  ========7======    ======7========  ======7======  ========7======    ======7========  ======7======    ======7===    ===  ====7======    ======7====  ===    ===777 7 777",
"77 7 77777777777777777777777777777777777777777777777777777777777777777777777777777777777777777777777777777777777777777777777777777777777777777777777777777777777777777777777777777777 7 777",
"77 7 7777================7======    ======7================7================7======    ======7================7=====     ======7================7======     =====7================777 7 777",
"77 7 7777======    ======7====  %%%%  ====7======    ======7======    ======7====  %%%%  ====7======    ======7==== %%%%%  ====7=====     ======7====  %%%%% ====7======     =====777 7 777",
"77 7 7777====  %%%%  ====7=== %% %% %% ===7====  %%%%  ====7====  %%%%  ====7=== %%%%%%%% ===7====  %%%%  ====7=== %%%%%%%% ===7==== %%%%%  ====7=== %%%%%%%% ===7====  %%%%% ====777 7 777",
"77 7 7777=== %% %% %% ===7== %% %  % %% ==7=== %% %% %% ===7=== %%%%%%%% ===7== %%%%%%%%%% ==7=== %%%%%%%% ===7== % %%% %%%% ==7=== %%%%%%%% ===7== %%%% %%% % ==7=== %%%%%%%% ===777 7 777",
"77 7 7777== %% %  % %% ==7==  %% << %%  ==7== %% %  % %% ==7== %%%%%%%%%% ==7== % %%%%%% % ==7== %%%%%%%%%% ==7==  % % %%%%% ==7== % %%% %%%% ==7== %%%%% % %  ==7== %%%% %%% % ==777 7 777",
"77 7 7777==  %% << %%  ==7= %%  <<<<  %% =7==  %% << %%  ==7== % %%%%%% % ==7= % %%%%%%%% % =7== % %%%%%% % ==7== %<% %%%%%%% =7==  % % %%%%% ==7= %%%%%%% %<% ==7== %%%%% % %  ==777 7 777",
"77 7 7777= %%  <<<<  %% =7=   <<<<<<<<   =7= %%  <<<<  %% =7= % %%%%%%%% % =7=  %%%%%%%%%%  =7= % %%%%%%%% % =7=== <<<  %%%%% =7== %<% %%%%%%% =7= %%%%%  <<< ===7= %%%%%%% %<% ==777 7 777",
"77 7 7777=   <<<<<<<<   =7= < <  <<  < < =7=   <<<<<<<<   =7=  %%%%%%%%%%  =7= < %%%%%%%% < =7=  %%%%%%%%%%  =7=== <  << % % ==7=== <<<  %%%%% =7== % % <<  < ===7= %%%%%  <<< ===777 7 777",
"77 7 7777= < <  <<  < < =7==  <<<<<<<<  ==7= < <  <<  < < =7= < %%%%%%%% < =7= << % %% % << =7= < %%%%%%%% < =7=== <<<<< %% ===7=== <  << % % ==7=== %% <<<<< ===7== % % <<  < ===777 7 777",
"77 7 7777==  <<<<<<<<  ==7===  <<%%<<  ===7==  <<<<<<<<  ==7= << % %% % << =7==    %%%%    ==7= << % %% % << =7==== %<<<<  ====7=== <<<<< %% ===7====  <<<<% ====7=== %% <<<<< ===777 7 777",
"77 7 7777= <  <<%%<<   ==7==  %      %  ==7==   <<%%<<  < =7==    %%%%    ==7=   %      %   =7==    %%%%    ==7=====       ====7==== %<<<<  ====7====       =====7====  <<<<% ====777 7 777",
"77 7 7777==  %      %  ==7= << %    % << =7==  %      %  ==7==          << =7= < %%    %% < =7= <<          ==7======  <<  ====7=====       ====7====  <<  ======7====       =====777 7 777",
"77 7 7777==== %%   << ===7= << %%%%%% << =7=== <<   %% ====7===  %%%%%% << =7==   %%%%%%   ==7= << %%%%%%  ===7======  <<  ====7===      <<  ===7====  <<  ======7===  <<      ===777 7 777",
"77 7 7777====   %% << ===7==            ==7=== << %%   ====7====          ==7===    %%    ===7==          ====7===== %     ====7== <% %% << % ==7====     % =====7== % << %% %< ==777 7 777",
"77 7 7777==== %   =  ====7=== <%    %< ===7====  =   % ====7==== %    ======7=== %      % ===7======    % ====7=====      =====7=== %%     <% ==7=====      =====7== %<     %% ===777 7 777",
"77 7 7777=====   ========7====   ==   ====7========   =====7=====   ========7====   ==   ====7========   =====7======    ======7====   ====  ===7======    ======7===  ====   ====777 7 777",
"77 7 77777777777777777777777777777777777777777777777777777777777777777777777777777777777777777777777777777777777777777777777777777777777777777777777777777777777777777777777777777777 7 777",
"77 7 7777======    ======7======    ======7======    ======7======    ======7======    ======7======    ======7======      ====7=====      =====7====      ======7=====      =====777 7 777",
"77 7 7777====        ====7====        ====7====        ====7====        ====7====        ====7====        ====7=====        ===7====        ====7===        =====7====        ====777 7 777",
"77 7 7777===          ===7===          ===7===          ===7===          ===7===          ===7===          ===7====          ==7===          ===7==          ====7===          ===777 7 777",
"77 7 7777==            ==7==            ==7==            ==7==            ==7==            ==7==            ==7===           ==7==           ===7==           ===7===           ==777 7 777",
"77 7 7777==   < << <   ==7==   < << <   ==7==   < << <   ==7==            ==7==            ==7==            ==7===  <         =7==  <         ==7=         <  ===7==         <  ==777 7 777",
"77 7 7777==  <<<<<<<<  ==7==  <<<<<<<<  ==7==  <<<<<<<<  ==7==            ==7==            ==7==            ==7===  < <<      =7==  < <<      ==7=      << <  ===7==      << <  ==777 7 777",
"77 7 7777= < < <<<< < < =7= < < <<<< < < =7= < < <<<< < < =7= <          < =7= <          < =7= <          < =7==== << <<    ==7=== << <<    ===7==    << << ====7===    << << ===777 7 777",
"77 7 7777= <%<< << <<%< =7= <%<< << <<%< =7= <%<< << <<%< =7= <%        %< =7= <%        %< =7= <%        %< =7==== < <<<%<< ==7=== < <<<%<< ===7== <<%<<< < ====7=== <<%<<< < ===777 7 777",
"77 7 7777==  <<<<<<<<  ==7==  <<<<<<<<  ==7==  <<<<<<<<  ==7==  <<<<<<<<  ==7==  <<<<<<<<  ==7==  <<<<<<<<  ==7==== <<<<<<< ===7=== <<<<<<< ====7=== <<<<<<< ====7==== <<<<<<< ===777 7 777",
"77 7 7777===  <<%%<<  ===7===  <<%%<<  ===7===  <<%%<<  ===7===  <<<<<<  ===7===  <<<<<<  ===7===  <<<<<<  ===7=== % %<<<  ====7== % %<<<  =====7====  <<<% % ===7=====  <<<% % ==777 7 777",
"77 7 7777== <<      << ==7== <<      << ==7== <<      << ==7== <        < ==7== <        < ==7== <        < ==7=== %<<       ==7== %<<       ===7==       <<% ===7===       <<% ==777 7 777",
"77 7 7777== << %%%% << ==7== << %%%% << ==7== << %%%% << ==7== <  %%%%  < ==7== <  %%%%  < ==7== <  %%%%  < ==7==   <<        =7=   <<        ==7=        <<   ==7==        <<   =777 7 777",
"77 7 7777===  % <<    ===7===  % << %  ===7===    << %  ===7===  %    %  ===7===  %    %  ===7===  %    %  ===7=  %%      %%%  7  %%      %%%  =7  %%%      %%  =7=  %%%      %%  777 7 777",
"77 7 7777=== %%      ====7=== %%    %% ===7====      %% ===7===          ===7===          ===7===          ===7=  %%%  %  %%%  7  %%%     %%%  =7  %%%  %  %%%  =7=  %%%     %%%  777 7 777",
"77 7 7777===       ======7====        ====7======       ===7===         ====7====        ====7====         ===7==             =7=      %%     ==7=             ==7==     %%      =777 7 777",
"77 7 7777====  =  =======7=======  =======7=======  =  ====7====  =  =======7=======  =======7=======  =  ====7===   =====   ==7==   ==  =   ===7==   =====   ===7===   =  ==   ==777 7 777",
"77 7 77777777777777777777777777777777777777777777777777777777777777777777777777777777777777777777777777777777777777777777777777777777777777777777777777777777777777777777777777777777 7 777",
"77 7 7777================7=====      =====7================7================7=====      =====7================7=====      =====7================7=====      =====7================777 7 777",
"77 7 7777=====      =====7====        ====7=====      =====7=====      =====7====        ====7=====      =====7====        ====7=====      =====7====        ====7=====      =====777 7 777",
"77 7 7777====        ====7===          ===7====        ====7====        ====7===          ===7====        ====7===          ===7====        ====7===          ===7====        ====777 7 777",
"77 7 7777===          ===7=== <<<<<<<< ===7===          ===7===          ===7=== <<<<<<<< ===7===          ===7== <<<<<<<<< ===7===          ===7=== <<<<<<<<< ==7===          ===777 7 777",
"77 7 7777=== <<<<<<<< ===7==  <<<<<<<<  ==7=== <<<<<<<< ===7=== <<<<<<<< ===7==  <<<<<<<<  ==7=== <<<<<<<< ===7== <<<<<<<<<  ==7== <<<<<<<<< ===7==  <<<<<<<<< ==7=== <<<<<<<<< ==777 7 777",
"77 7 7777==  <<<<<<<<  ==7==            ==7==  <<<<<<<<  ==7==  <<<<<<<<  ==7==            ==7==  <<<<<<<<  ==7==            ==7== <<<<<<<<<  ==7==            ==7==  <<<<<<<<< ==777 7 777",
"77 7 7777==            ==7= < <  <<  < < =7==            ==7==            ==7= <          < =7==            ==7=== <  <      ==7==            ==7==      <  < ===7==            ==777 7 777",
"77 7 7777= < <  <<  < < =7= <<<< << <<<< =7= < <  <<  < < =7= <          < =7= <<        << =7= <          < =7=== < << <<  ===7=== <  <      ==7===  << << < ===7==      <  < ===777 7 777",
"77 7 7777= <<<< << <<<< =7==  <<<<<<<<  ==7= <<<< << <<<< =7= <<        << =7==  <<    <<  ==7= <<        << =7=== <<<<<<< ====7=== < << <<  ===7==== <<<<<<< ===7===  << << < ===777 7 777",
"77 7 7777=   <<<<<<<<  ==7==   <<%%<<   ==7==  <<<<<<<<   =7=   <<    <<  ==7==    %%%%    ==7==  <<    <<   =7==== %<<<  % ===7=== <<<<<<< ====7=== %  <<<% ====7==== <<<<<<< ===777 7 777",
"77 7 7777= <  <<%%<<  ===7= <<        << =7===  <<%%<<  < =7= <   %%%%    ==7= <  %    %  < =7==    %%%%   < =7=====     %% ===7==== %<<<  % ===7=== %%     =====7=== %  <<<% ====777 7 777",
"77 7 7777==          %===7= << % << % << =7===%          ==7==   %    % << =7= <  %%<<%%  < =7= << %    %   ==7======  << % ===7=====     %% ===7=== % <<  ======7=== %%     =====777 7 777",
"77 7 7777==== % << << ===7==     <<     ==7=== << << % ====7===  %%<<%% << =7==    %%%%    ==7= << %%<<%%  ===7======  << % ===7===     << % ===7=== % <<  ======7=== % <<     ===777 7 777",
"77 7 7777====   << << ===7=== <<<  <<< ===7=== << <<   ====7=== < %%%% %  ==7=== <      < ===7==  % %%%% < ===7===== <<    ====7== << < << %  ==7====    << =====7==  % << < << ==777 7 777",
"77 7 7777==== <<  =  ====7== <<< == <<< ==7====  =  << ====7=== <<    ======7== <<<<  <<<< ==7======    << ===7===== <<<< =====7=== <<      < ==7===== <<<< =====7== <      << ===777 7 777",
"77 7 7777=====  =========7==    ====    ==7=========  =====7====   =========7==     ==     ==7=========   ====7======    ======7====   ====  ===7======    ======7===  ====   ====777 7 777",
"77 7 77777777777777777777777777777777777777777777777777777777777777777777777777777777777777777777777777777777777777777777777777777777777777777777777777777777777777777777777777777777 7 777",
"77 7 7777::::::    ::::::7::::::    ::::::7::::::   :::::::7:::::::   ::::::777777777777777777777777777777777777777777777777777777777777777777777777777777777777777777777777777777777 7 777",
"77 7 7777::::  %%%%  ::::7::::  <%%<  ::::7::::  %%%  :::::7:::::  %%%  ::::777777777777777777777777777777777777777777777777777777777777777777777777777777777777777777777777777777777 7 777",
"77 7 7777::: %<<<<<<% :::7::: %<<<<<<% :::7::: <<<<<<% ::::7:::: %<<<<<< :::777777777777777777777777777777777777777777777777777777777777777777777777777777777777777777777777777777777 7 777",
"77 7 7777:: %%<<<<<<%% ::7:: %%%<<<<%%% ::7:: <<<<<<%% ::::7:::: %%<<<<<< ::777777777777777777777777777777777777777777777777777777777777777777777777777777777777777777777777777777777 7 777",
"77 7 7777:: %<<<<<<<<% ::7:: %%%%%%%%%% ::7:: <<<<<%%%% :::7::: %%%%<<<<< ::777777777777777777777777777777777777777777777777777777777777777777777777777777777777777777777777777777777 7 777",
"77 7 7777::  <<%<<%<<  ::7::  %%%%%%%%  ::7::%<%<<<%%%% :::7::: %%%%<<<%<%::777777777777777777777777777777777777777777777777777777777777777777777777777777777777777777777777777777777 7 777",
"77 7 7777: <%<% << %<%< :7: <%<%%%%%%<%< :7:: < %<<  % ::::7:::: %  <<% < ::777777777777777777777777777777777777777777777777777777777777777777777777777777777777777777777777777777777 7 777",
"77 7 7777: < <<<<<<<< < :7: < <<<<<<<< < :7:: %<<<<<<  ::::7::::  <<<<<<% ::777777777777777777777777777777777777777777777777777777777777777777777777777777777777777777777777777777777 7 777",
"77 7 7777::  <<<%%<<<  ::7::  <<<<<<<<  ::7:: <%<<<<<  ::::7::::  <<<<<%< ::777777777777777777777777777777777777777777777777777777777777777777777777777777777777777777777777777777777 7 777",
"77 7 7777::   <%<<%<   ::7::   <<<<<<   ::7::: %<<<   :::::7:::::   <<<% :::777777777777777777777777777777777777777777777777777777777777777777777777777777777777777777777777777777777 7 777",
"77 7 7777: <<        << :7: <%<      <%< :7::::     << ::::7:::: <<     ::::777777777777777777777777777777777777777777777777777777777777777777777777777777777777777777777777777777777 7 777",
"77 7 7777: << <<<<<< << :7: < <<<<<<<< < :7::::: << <<< :::7::: <<< << :::::777777777777777777777777777777777777777777777777777777777777777777777777777777777777777777777777777777777 7 777",
"77 7 7777::  %%%%%%%%  ::7::  %%<<<<%%  ::7::::: %%% << :::7::: << %%% :::::777777777777777777777777777777777777777777777777777777777777777777777777777777777777777777777777777777777 7 777",
"77 7 7777:::    %%    :::7:::   %%%%   :::7::::::  %%   :::7:::   %%  ::::::777777777777777777777777777777777777777777777777777777777777777777777777777777777777777777777777777777777 7 777",
"77 7 7777::: %%    %% :::7::: %%    %% :::7:::::: <<<< ::::7:::: <<<< ::::::777777777777777777777777777777777777777777777777777777777777777777777777777777777777777777777777777777777 7 777",
"77 7 7777::::   ::   ::::7::::   ::   ::::7:::::::    :::::7:::::    :::::::777777777777777777777777777777777777777777777777777777777777777777777777777777777777777777777777777777777 7 777",
"77 7 77777777777777777777777777777777777777777777777777777777777777777777777777777777777777777777777777777777777777777777777777777777777777777777777777777777777777777777777777777777 7 777",
"77 7 7777::::::::::::::::7======    ======7::::::::::::::::7::::::::::::::::7======    ======7::::::::::::::::7======    ======7::::::::::::::::7======    ======7::::::::::::::::777 7 777",
"77 7 7777::::::    ::::::7====        ====7::::::    ::::::7::::::    ::::::7====        ====7::::::    ::::::7====        ====7::::::    ::::::7====        ====7::::::    ::::::777 7 777",
"77 7 7777::::        ::::7===          ===7::::        ::::7::::        ::::7===          ===7::::        ::::7===          ===7::::        ::::7===          ===7::::        ::::777 7 777",
"77 7 7777:::          :::7==            ==7:::          :::7:::          :::7==            ==7:::          :::7===           ==7:::          :::7==           ===7:::          :::777 7 777",
"77 7 7777::            ::7==            ==7::            ::7::            ::7==  <      <  ==7::            ::7==            ==7:::           ::7==            ==7::           :::777 7 777",
"77 7 7777::            ::7==     <<     ==7::            ::7::  <      <  ::7==    <  <    ==7::  <      <  ::7==  <       < ==7::            ::7== <       <  ==7::            ::777 7 777",
"77 7 7777:      <<     ::7=    <<<<<<    =7::     <<      :7:     <  <    ::7=              =7::    <  <     :7==  <<    <    =7::  <       <  :7=    <    <<  ==7:  <       <  ::777 7 777",
"77 7 7777:    <<<<<<    :7=  <<< << <<<  =7:    <<<<<<    :7:              :7=              =7:              :7=== < <<       =7::  <<    <    :7=       << < ===7:    <    <<  ::777 7 777",
"77 7 7777   <<< << <<<  :7=   << << <<   =7:  <<< << <<<   7               :7=              =7:               7=== < <<       =7::: < <<       :7=       << < ===7:       << < :::777 7 777",
"77 7 7777    << << <<   :7==   <<%%<<   ==7:   << << <<    7               :7==            ==7:               7==== <<<<     ==7::: < <<        7==     <<<< ====7        << < :::777 7 777",
"77 7 7777     <<%%<<   ::7==  <      <  ==7::   <<%%<<     7              ::7==            ==7::              7===== %       ==7:::: <<<<       7==       % =====7       <<<< ::::777 7 777",
"77 7 7777    <      < :::7== < %%  %% < ==7::: <      <    7              ::7== <        < ==7::              7=====  <<%   ===7:::::           7===   %<<  =====7           :::::777 7 777",
"77 7 7777:  < %%   << :::7==  %  %%  % ===7::: <<   %% <  :7:           < ::7=== %%    %% ===7:: <           :7=====  <<  %% ==7::::: <<       :7== %%  <<  =====7:       << :::::777 7 777",
"77 7 7777::  %  % << ::::7=== %%%%%%%% ===7:::: << %  %  ::7:: %      %% :::7=== %%%%%%%% ===7::: %%      % ::7===== %<< %%% ==7:::: << %%    ::7== %%% <<% =====7::    %% << ::::777 7 777",
"77 7 7777::: %%%%%   ::::7==== %%%%%% ====7::::   %%%%% :::7::: %%%%%%% ::::7==== %%%%%% ====7:::: %%%%%%% :::7===== %  %%  ===7:::: < %%%%% :::7===  %%  % =====7::: %%%%% < ::::777 7 777",
"77 7 7777::::       :::::7=====      =====7:::::       ::::7::::       :::::7=====      =====7:::::       ::::7======     =====7:::::       ::::7=====     ======7::::       :::::777 7 777",
"77 7 77777777777777777777777777777777777777777777777777777777777777777777777777777777777777777777777777777777777777777777777777777777777777777777777777777777777777777777777777777777 7 777",
"77 7 7777::::::::::::::::7======    ======7::::::::::::::::7::::::::::::::::7======    ======7::::::::::::::::7======    ======7::::::::::::::::7======    ======7::::::::::::::::777 7 777",
"77 7 7777::::::    ::::::7====  3333  ====7::::::    ::::::7::::::    ::::::7====  3333  ====7::::::    ::::::7====  3333  ====7::::::    ::::::7====  3333  ====7::::::    ::::::777 7 777",
"77 7 7777::::  3333  ::::7=== 33    33 ===7::::  3333  ::::7::::  3333  ::::7=== 33333333 ===7::::  3333  ::::7===    33333 ===7::::  3333  ::::7=== 33333    ===7::::  3333  ::::777 7 777",
"77 7 7777::: 33    33 :::7=== 3      3 ===7::: 33    33 :::7::: 33333333 :::7=== 33333333 ===7::: 33333333 :::7== 33   33333 ==7:::    33333 :::7== 33333   33 ==7::: 33333    :::777 7 777",
"77 7 7777::: 3      3 :::7== 3  3333  3 ==7::: 3      3 :::7::: 33333333 :::7== 3333333333 ==7::: 33333333 :::7== 3<3  33333 ==7:: 33   33333 ::7== 33333  3<3 ==7:: 33333   33 ::777 7 777",
"77 7 7777:: 3  3333  3 ::7== 3 3<3<3< 3 ==7:: 3  3333  3 ::7:: 3333333333 ::7== 3333333333 ==7:: 3333333333 ::7=== <<<  3333 ==7:: 3<3  33333 ::7== 3333  <<< ===7:: 33333  3<3 ::777 7 777",
"77 7 7777:: 3 3<3<3< 3 ::7==  <<<<<<<<  ==7:: 3 <3<3<3 3 ::7:: 3333333333 ::7== 3333333333 ==7:: 3333333333 ::7=== < << 3333 ==7::: <<<  3333 ::7== 3333 << < ===7:: 3333  <<< :::777 7 777",
"77 7 7777::  <<<<<<<<  ::7== <<< << <<< ==7::  <<<<<<<<  ::7:: 3333333333 ::7== 3333333333 ==7:: 3333333333 ::7=== < <<< 333 ==7::: < << 3333 ::7== 333 <<< < ===7:: 3333 << < :::777 7 777",
"77 7 7777:: <<< << <<< ::7==  << << <<  ==7:: <<< << <<< ::7:: 3333333333 ::7== 3333333333 ==7:: 3333333333 ::7=== <<<<33333 ==7::: < <<< 333 ::7== 33333<<<< ===7:: 333 <<< < :::777 7 777",
"77 7 7777::  << << <<  ::7== 3 <<33<< 3 ==7::  << << <<  ::7:: 3333333333 ::7== 3333333333 ==7:: 3333333333 ::7==== 3<< 3333 ==7::: <<<<3 3333 :7== 3333 <<3 ====7: 3333 3<<<< :::777 7 777",
"77 7 7777: 33 <<33<< 3 ::7== 3        3 ==7:: 3 <<33<< 33 :7: 3333333333 :::7== 3333333333 ==7::: 3333333333 :7=====    3333 ==7:::: 3<< 33333 :7== 3333    =====7: 33333 <<3 ::::777 7 777",
"77 7 7777: 33<      33 ::7==  <  33  <  ==7:: 33      <33 :7: 333333333  :::7==  33333333  ==7:::  333333333 :7======  < 333 ==7:::::    33333 :7== 333 <  ======7: 33333    :::::777 7 777",
"77 7 7777: 3 << 33  < :::7== <  3  3  < ==7::: <  33 << 3 :7:: 3333333 < :::7== <  3333  < ==7::: < 3333333 ::7=====   <  33 ==7::::::  < 3333 :7== 33  <   =====7: 3333 <  ::::::777 7 777",
"77 7 7777::   <<  3   :::7==            ==7:::   3  <<   ::7:::  333  < ::::7===          ===7:::: <  333  :::7====     <   ===7::::: <<   333 :7===   <     ====7: 333   << :::::777 7 777",
"77 7 7777:::         ::::7===          ===7::::         :::7:::        :::::7====        ====7:::::        :::7=====       ====7::::          ::7====       =====7::          ::::777 7 777",
"77 7 7777::::       :::::7=====      =====7:::::       ::::7::::      ::::::7=====      =====7::::::      ::::7======     =====7:::::       ::::7=====     ======7::::       :::::777 7 777",
"77 7 77777777777777777777777777777777777777777777777777777777777777777777777777777777777777777777777777777777777777777777777777777777777777777777777777777777777777777777777777777777 7 777",
"77 7 7777::::::::::::::::7======    ======7::::::::::::::::7::::::::::::::::7::::::    ::::::7::::::::::::::::7======    ======7::::::::::::::::7======    ======7::::::::::::::::777 7 777",
"77 7 7777::::::    ::::::7====  3333  ====7::::::    ::::::7::::::    ::::::7::::  3333  ::::7::::::    ::::::7====  3333  ====7::::::    ::::::7====  3333  ====7::::::    ::::::777 7 777",
"77 7 7777::::  3333  ::::7=== 333 3333 ===7::::  3333  ::::7::::  3333  ::::7::: 33333333 :::7::::  3333  ::::7=== 33333333 ===7::::  3333  ::::7=== 33333333 ===7::::  3333  ::::777 7 777",
"77 7 7777::: 3333 333 :::7== <33 333333 ==7::: 333 3333 :::7::: 33333333 :::7:: 3333333333 ::7::: 33333333 :::7== 333 33<<3< ==7::: 33333333 :::7== <3<<33 333 ==7::: 33333333 :::777 7 777",
"77 7 7777:: 333333 33< ::7== 33 3333 33 ==7:: <33 333333 ::7:: 3333333333 ::7:: <33333333< ::7:: 3333333333 ::7== 33 < 33333 ==7:: 333 333<3< ::7== 33333 < 33 ==7:: <3<333 333 ::777 7 777",
"77 7 7777:: 33 3333 33 ::7= 33 3<3  < 3 ==7:: 33 3333 33 ::7:: <33333333< ::7:: 33<3333<333 :7:: <33333333< ::7= 33 << 3 3333 =7:: 33 < 33333 ::7= 3333 3 << 33 =7:: 33333 < 33 ::777 7 777",
"77 7 7777:: 3 <  3<3 33 :7= 33 33 <<<< < =7: 33 3<3  < 3 ::7:: 33<3333<333 :7: < 3333333333 :7: 333<3333<33 ::7= 33< <<   333 =7: 33 << 3 3333 :7= 333   << <33 =7: 3333 3 << 33 :777 7 777",
"77 7 7777: < <<<< 33 33 :7==  33 << << < =7: 33 33 <<<< < :7: < 3333333333 :7: < 333333333 ::7: 3333333333 < :7==  < << << 33 =7: 33< <<   333 :7= 33 << << <  ==7: 333   << <33 :777 7 777",
"77 7 7777: < << << 33  ::7===  3 << <<  ==7::  33 << << < :7: < 333333333 ::7::  33333333 :::7:: 333333333 < :7=== <<<<<<< 3 ==7::  < << << 33 :7== 3 <<<<<<< ===7: 33 << << <  ::777 7 777",
"77 7 7777:   << << 3  :::7==    <<<<<   ==7:::  3 << <<   :7::  33333333 3::7::    3333    ::7::3 33333333  ::7==== 3<<3  33 ==7::: <<<<<<< 3 ::7== 33  3<<3 ====7:: 3 <<<<<<< :::777 7 777",
"77 7 7777: << <<<<<  ::::7= <<        << =7::::  <<<<< << :7:: < 33  33   ::7: << 3    3 << :7::   33  33 < ::7=====     3  ===7:::: 3<<3  33 ::7===  3     =====7:: 33  3<<3 ::::777 7 777",
"77 7 7777::  3     << :::7= << 33  33 << =7::: <<     3  ::7:::        << ::7: <   3333   < :7:: <<        :::7=====  3<< =====7:::::     3  :::7===== <<3  =====7:::  3     :::::777 7 777",
"77 7 7777::: 333   << :::7==  33    33  ==7::: <<   333 :::7::: 3 3333 << ::7::  33    33  ::7:: << 3333 3 :::7===== 3 << =====7::::   3 <<  :::7===== << 3 =====7:::  << 3   ::::777 7 777",
"77 7 7777::: 3    3  ::::7===   3333   ===7::::  3    3 :::7::::    333  :::7:::   3333   :::7:::  333    ::::7====== 3  ======7::: << 3 << < ::7======  3 ======7:: < << 3 << :::777 7 777",
"77 7 7777:::: <<<   :::::7=== <<    << ===7:::::   <<< ::::7:::: <<<    ::::7::: <<    << :::7::::    <<< ::::7===== <<<< =====7:::: <<    << ::7===== <<<< =====7:: <<    << ::::777 7 777",
"77 7 7777:::::   ::::::::7====   ==   ====7::::::::   :::::7:::::   ::::::::7::::   ::   ::::7::::::::   :::::7======    ======7:::::  ::::  :::7======    ======7:::  ::::  :::::777 7 777",
"77 7 77777777777777777777777777777777777777777777777777777777777777777777777777777777777777777777777777777777777777777777777777777777777777777777777777777777777777777777777777777777 7 777",
"77 7 7777::::::::::::::::7================7::::::::::::::::7::::::::::::::::7================7::::::::::::::::7================7::::::::::::::::7================7::::::::::::::::777 7 777",
"77 7 7777::::::::::::::::7======    ======7::::::::::::::::7::::::::::::::::7======    ======7::::::::::::::::7======    ======7::::::::::::::::7======    ======7::::::::::::::::777 7 777",
"77 7 7777::::::    ::::::7====  ----  ====7::::::    ::::::7::::::    ::::::7====  ----  ====7::::::    ::::::7====  ----  ====7::::::    ::::::7====  ----  ====7::::::    ::::::777 7 777",
"77 7 7777::::  ----  ::::7=== <------< ===7::::  ----  ::::7::::  ----  ::::7=== -------- ===7::::  ----  ::::7=== -------- ===7::::  ----  ::::7=== -------- ===7::::  ----  ::::777 7 777",
"77 7 7777::: <------< :::7== ---<--<--- ==7::: <------< :::7::: -------- :::7== ---------- ==7::: -------- :::7===  ------<- ==7::: -------- :::7== -<------  ===7::: -------- :::777 7 777",
"77 7 7777:: ---<--<--- ::7== --- -- --- ==7:: ---<--<--- ::7:: ---------- ::7== <--------< ==7:: ---------- ::7== - -<--<--- ==7:::  ------<- ::7== ---<--<- - ==7:: -<------  :::777 7 777",
"77 7 7777:: --- -- --- ::7= - - <  < - - =7:: --- -- --- ::7:: <--------< ::7= ---<----<--- =7:: <--------< ::7== -<--------- =7:: - -<--<--- ::7= ---------<- ==7:: ---<--<- - ::777 7 777",
"77 7 7777: - - <  < - - :7== - < << < - ==7: - - <  < - - :7: ---<----<--- :7== ---------- ==7: ---<----<--- :7=== <    --- - =7:: -<--------- :7= - ---    < ===7: ---------<- ::777 7 777",
"77 7 7777:: - < << < - ::7== - < << < - ==7:: - < << < - ::7:: ---------- ::7== -- ---- -- ==7:: ---------- ::7=== < < ---- - =7::: <    --- - :7= - ---- < < ===7: - ---    < :::777 7 777",
"77 7 7777:: - < << < - ::7===  <<<<<<  ===7:: - < << < - ::7:: -- ---- -- ::7===   ----   ===7:: -- ---- -- ::7=== <<< ----  ==7::: < < ---- - :7==  ---- <<< ===7: - ---- < < :::777 7 777",
"77 7 7777:::  <<<<<<  :::7== <<      << ==7:::  <<<<<<  :::7:::   ----   :::7== <<      << ==7:::   ----   :::7==== -<<     ===7::: <<< ----  ::7===     <<- ====7::  ---- <<< :::777 7 777",
"77 7 7777::: <       ::::7== << -<<- << ==7::::       < :::7::: <     << :::7== < ------ < ==7::: <<     < :::7=====   << =====7:::: -<<     :::7===== <<   =====7:::     <<- ::::777 7 777",
"77 7 7777:::: --<< << :::7===  -    -  ===7::: << <<-- ::::7:::: ---- << :::7===  ------  ===7::: << ---- ::::7===== - << =====7::::     <<  :::7===== << - =====7:::  <<     ::::777 7 777",
"77 7 7777::::    - << :::7====   --   ====7::: << -    ::::7:::: -  --  ::::7====   --   ====7::::  --  - ::::7======    -=====7::: -- - << - ::7=====-    ======7:: - << - -- :::777 7 777",
"77 7 7777::::: --    ::::7==== --  -- ====7::::    -- :::::7::::: --   :::::7==== --  -- ====7:::::   -- :::::7===== ---  =====7:::: --    -- ::7=====  --- =====7:: --    -- ::::777 7 777",
"77 7 7777::::::  ::::::::7=====  ==  =====7::::::::  ::::::7::::::  ::::::::7=====  ==  =====7::::::::  ::::::7======    ======7:::::  ::::  :::7======    ======7:::  ::::  :::::777 7 777",
"77 7 77777777777777777777777777777777777777777777777777777777777777777777777777777777777777777777777777777777777777777777777777777777777777777777777777777777777777777777777777777777 7 777",
"77 7 7777::::::::::::::::7======    ======7::::::::::::::::7::::::::::::::::7::::::    ::::::7::::::::::::::::7=====     ======7::::::::::::::::7======     =====7::::::::::::::::777 7 777",
"77 7 7777::::::    ::::::7====  %%%%  ====7::::::    ::::::7::::::    ::::::7::::  %%%%  ::::7::::::    ::::::7==== %%%%%  ====7:::::     ::::::7====  %%%%% ====7::::::     :::::777 7 777",
"77 7 7777::::  %%%%  ::::7=== %%%%%%%% ===7::::  %%%%  ::::7::::  %%%%  ::::7::: %%%%%%%% :::7::::  %%%%  ::::7=== %%%%%%%< ===7:::: %%%%%  ::::7=== <%%%%%%% ===7::::  %%%%% ::::777 7 777",
"77 7 7777::: %%%%%%%% :::7=== <%%%%%%< ===7::: %%%%%%%% :::7::: %%%%%%%% :::7::: %%%%%%%% :::7::: %%%%%%%% :::7== % %<%%<%%% ==7::: %%%%%%%< :::7== %%%<%%<% % ==7::: <%%%%%%% :::777 7 777",
"77 7 7777::: <%%%%%%< :::7== %%%<%%<%%% ==7::: <%%%%%%< :::7::: %%%%%%%% :::7:: %<%%%%%%<% ::7::: %%%%%%%% :::7== % %%%%%%%% ==7:: % %<%%<%%% ::7== %%%%%%%% % ==7:: %%%<%%<% % ::777 7 777",
"77 7 7777:: %%%<%%<%%% ::7== %% %  % %% ==7:: %%%<%%<%%% ::7:: %<%%%%%%<% ::7:: %%%<%%<%%% ::7:: %<%%%%%%<% ::7==  < %%%%%%% ==7:: % %%%%%%%% ::7== %%%%%%% <  ==7:: %%%%%%%% % ::777 7 777",
"77 7 7777:: %% %  % %% ::7=   % <<<< %   =7:: %% %  % %% ::7:: %%%<%%<%%% ::7:    %%%%%%    :7:: %%%<%%<%%% ::7=== <  %  %%%   7::  < %%%%%%% ::7   %%%  %  < ===7:: %%%%%%% <  ::777 7 777",
"77 7 7777:   % <<<< %   :7 %%  < << <  %% 7:   % <<<< %   :7:    %%%%%%    :7 %%%% %%%% %%%% 7:    %%%%%%    :7=== < < <<   %% 7::: <  %  %%%   7 %%   << < < ===7   %%%  %  < :::777 7 777",
"77 7 7777 %%  < << <  %% 7= % << << << % =7 %%  < << <  %% 7 %%%% %%%% %%%% 7: %%%%%%%%%%%% :7 %%%% %%%% %%%% 7=== <<<<<< %%% =7::: < < <<   %% 7= %%% <<<<<< ===7 %%   << < < :::777 7 777",
"77 7 7777: % << << << % :7==   <<<<<<   ==7: % << << << % :7: %%%%%%%%%%%% :7::   %%%%%%   ::7: %%%%%%%%%%%% :7==== %<<  %%  ==7::: <<<<<< %%% :7==  %%  <<% ====7: %%% <<<<<< :::777 7 777",
"77 7 7777:: < <<<<<    ::7=== <      < ===7::    <<<<< < ::7::   %%%%%%   ::7::: <      < :::7::   %%%%%%   ::7=====   <   ====7:::: %<<  %%  ::7====   <   =====7::  %%  <<% ::::777 7 777",
"77 7 7777:: <<     << :::7== << <%%< << ==7::: <<     << ::7::: <       ::::7:: << <<<< << ::7::::       < :::7===== < << =====7:::::   <   ::::7===== << < =====7::::   <   :::::777 7 777",
"77 7 7777:::   <%% << :::7=== %<    <% ===7::: << %%<   :::7::::  <<< << :::7::: %<    <% :::7::: << <<<  ::::7===== << < =====7:::  %< <<  ::::7===== < << =====7::::  << <%  :::777 7 777",
"77 7 7777:::: <      ::::7==== <<<<<< ====7::::      < ::::7:::: <    << :::7:::: <<<<<< ::::7::: <<    < ::::7======    ======7:: %% <% < % :::7======    ======7::: % < %< %% ::777 7 777",
"77 7 7777::::: %%   :::::7==== %%  %% ====7:::::   %% :::::7::::: %%    ::::7:::: %%  %% ::::7::::    %% :::::7===== %%% ======7::: %%    %% :::7====== %%% =====7::: %%    %% :::777 7 777",
"77 7 7777::::::  ::::::::7=====  ==  =====7::::::::  ::::::7::::::  ::::::::7:::::  ::  :::::7::::::::  ::::::7======    ======7::::   :::  ::::7======    ======7::::  :::   ::::777 7 777",
"77 7 77777777777777777777777777777777777777777777777777777777777777777777777777777777777777777777777777777777777777777777777777777777777777777777777777777777777777777777777777777777 7 777",
"77 7 7777================7======    ======7================7================7======    ======7================7======    ======7================7======    ======7================777 7 777",
"77 7 7777======    ======7====  ++++  ====7======    ======7======    ======7====  ++++  ====7======    ======7===   ++++  ====7======    ======7====  ++++   ===7======    ======777 7 777",
"77 7 7777====  ++++  ====7=== ++++++++ ===7====  ++++  ====7====  ++++  ====7=== ++++++++ ===7====  ++++  ====7== +++++++++ ===7===   ++++  ====7=== +++++++++ ==7====  ++++   ===777 7 777",
"77 7 7777=== ++++++++ ===7==  + ++++++  ==7=== ++++++++ ===7=== ++++++++ ===7==  ++++++++  ==7=== ++++++++ ===7=== ++++++++  ==7== +++++++++ ===7==  ++++++++ ===7=== +++++++++ ==777 7 777",
"77 7 7777==  ++++++ +  ==7==    ++++    ==7==  + ++++++  ==7==  ++++++++  ==7==    ++++    ==7==  ++++++++  ==7==    ++++    ==7=== ++++++++  ==7==    ++++    ==7==  ++++++++ ===777 7 777",
"77 7 7777==    ++++    ==7==     +      ==7==    ++++    ==7==    ++++    ==7==            ==7==    ++++    ==7==           + =7==    ++++    ==7= +           ==7==    ++++    ==777 7 777",
"77 7 7777==      +     ==7= <+<      <+< =7==     +      ==7==            ==7= <++      ++< =7==            ==7=== <      +++ =7==           + =7= +++      < ===7= +           ==777 7 777",
"77 7 7777= <+<      <+< =7= <+<< << <<+< =7= <+<      <+< =7= <++      ++< =7= <++++++++++< =7= <++      ++< =7=== < <+<< +++ =7=== <      +++ =7= +++ <<+< < ===7= +++      < ===777 7 777",
"77 7 7777= <+<< << <<+< =7= + <<<<<<<< + =7= <+<< << <<+< =7= <++++++++++< =7= + ++++++++ + =7= <++++++++++< =7=== <<<<<<+++ ==7=== < <+<< +++ =7== +++<<<<<< ===7= +++ <<+< < ===777 7 777",
"77 7 7777=   <<<<<<<< + =7==   <<++<<   ==7= + <<<<<<<<   =7==  ++++++++ + =7==   ++  ++   ==7= + ++++++++  ==7==== +<<  ++ ===7=== <<<<<<+++ ==7=== ++  <<+ ====7== +++<<<<<< ===777 7 777",
"77 7 7777= << <<++<<   ==7= <<        << =7==   <<++<< << =7== < ++  ++   ==7= <          < =7==   ++  ++ < ==7=====       ====7==== +<<  ++ ===7====       =====7=== ++  <<+ ====777 7 777",
"77 7 7777==         << ==7= <<        << =7== <<         ==7===        << ==7= <          < =7== <<        ===7=====   << =====7=====    <  ====7===== <<   =====7====  <    =====777 7 777",
"77 7 7777===        << ==7==  +      +  ==7== <<        ===7=== +      << ==7==  ++    ++  ==7== <<      + ===7===== + << =====7====     <<  ===7===== << + =====7===  <<     ====777 7 777",
"77 7 7777===     +++  ===7===   ++++   ===7===  +++     ===7====         ===7===   ++++   ===7===         ====7======     =====7=== ++   << + ==7=====     ======7== + <<   ++ ===777 7 777",
"77 7 7777==== ++    =====7=== ++    ++ ===7=====    ++ ====7==== +++    ====7=== ++    ++ ===7====    +++ ====7===== ++++ =====7==== ++    ++ ==7===== ++++ =====7== ++    ++ ====777 7 777",
"77 7 7777=====   ========7====   ==   ====7========   =====7=====   ========7====   ==   ====7========   =====7======    ======7=====  ====  ===7======    ======7===  ====  =====777 7 777",
"77 7 77777777777777777777777777777777777777777777777777777777777777777777777777777777777777777777777777777777777777777777777777777777777777777777777777777777777777777777777777777777 7 777",
"77 7 7777::::::::::::::::7======    ======7::::::::::::::::7::::::::::::::::7::::::    ::::::7::::::::::::::::7======    ======7::::::::::::::::7======    ======7::::::::::::::::777 7 777",
"77 7 7777::::::    ::::::7====        ====7::::::    ::::::7::::::    ::::::7::::        ::::7::::::    ::::::7====        ====7::::::    ::::::7====        ====7::::::    ::::::777 7 777",
"77 7 7777::::        ::::7===  <<  <<  ===7::::        ::::7::::        ::::7:::          :::7::::        ::::7===   <<     ===7::::        ::::7===     <<   ===7::::        ::::777 7 777",
"77 7 7777:::  <<  <<  :::7==   <<<<<<   ==7:::  <<  <<  :::7:::          :::7::            ::7:::          :::7===  <<<<    ===7:::   <<     :::7===    <<<<  ===7:::     <<   :::777 7 777",
"77 7 7777::   <<<<<<   ::7==  <<<<<<<<  ==7::   <<<<<<   ::7::            ::7::            ::7::            ::7=== <<<++     ==7:::  <<<<    :::7==     ++<<< ===7:::    <<<<  :::777 7 777",
"77 7 7777::  <<<<<<<<  ::7==  <+<<<<+<  ==7::  <<<<<<<<  ::7::            ::7::            ::7::            ::7=== +++<      ==7::: <<<++     ::7==      <+++ ===7::     ++<<< :::777 7 777",
"77 7 7777::  <+<<<<+<  ::7= <+<< ++ <<+< =7::  <+<<<<+<  ::7::            ::7: <          < :7::            ::7===<< <<      ==7::: +++<      ::7==      << <<===7::      <+++ :::777 7 777",
"77 7 7777: <+<< ++ <<+< :7= < <<<<<<<< < =7: <+<< ++ <<+< :7: <          < :7: <          < :7: <          < :7=== <<<< <<  ===7:::<< <<      ::7===  << <<<< ===7::      << <<:::777 7 777",
"77 7 7777: < <<<<<<<< < :7==  <  <<  <  ==7: < <<<<<<<< < :7: <          < :7::            ::7: <          < :7=== <  <<<<   ==7::: <<<< <<  :::7==   <<<<  < ===7:::  << <<<< :::777 7 777",
"77 7 7777:   <  <<  <  ::7==    <<<<    ==7::  <  <<  <   :7::            ::7::            ::7::            ::7==== <  <   ====7::: <  <<<<   ::7====   <  < ====7::   <<<<  < :::777 7 777",
"77 7 7777: <<  <<<<    ::7= <<        << =7::    <<<<  << :7::            ::7: <<  <  <  << :7::            ::7====<    +< ====7:::: <  <   ::::7==== <+    <====7::::   <  < ::::777 7 777",
"77 7 7777::  <        :::7= << <<<<<< << =7:::        <  ::7::: < <  < << ::7: << <<<<<< << :7:: << <  < < :::7=== <<< <<< ====7::::  << +< ::::7==== <<< <<< ===7:::: <+ <<  ::::777 7 777",
"77 7 7777::: <<<<<< << ::7==  ++<<<<++  ==7:: << <<<<<< :::7::: ++<<<< << ::7::  ++<<<<++  ::7:: << <<<<++ :::7=== +++ <<  ====7::: +++ <<  ::::7====  << +++ ===7::::  << +++ :::777 7 777",
"77 7 7777::: +++<++ << ::7===   ++++   ===7:: << ++<+++ :::7:::: ++++++  :::7:::   ++++   :::7:::  ++++++ ::::7====  ++  + ====7:: << + << < :::7==== +  ++  ====7::: < << + << ::777 7 777",
"77 7 7777:::: <<      :::7=== <<    << ===7:::      << ::::7:::: <<<    ::::7::: <<    << :::7::::    <<< ::::7===== <<<< =====7::: <<    << :::7===== <<<< =====7::: <<    << :::777 7 777",
"77 7 7777:::::   ::::::::7====   ==   ====7::::::::   :::::7:::::   ::::::::7::::   ::   ::::7::::::::   :::::7======    ======7::::  ::::  ::::7======    ======7::::  ::::  ::::777 7 777",
"77 7 77777777777777777777777777777777777777777777777777777777777777777777777777777777777777777777777777777777777777777777777777777777777777777777777777777777777777777777777777777777 7 777",
"77 7 7777================7=   ========   =7================7================7=   ========   =7================7==========  ====7================7====  ==========7================777 7 777",
"77 7 7777==   ======   ==7 %%% =    = %%% 7==   ======   ==7==   ======   ==7 %%% =    = %%% 7==   ======   ==7======    %% ===7==========  ====7=== %%    ======7====  ==========777 7 777",
"77 7 7777= %%%      %%% =7 %%%  %%%%  %%% 7= %%%      %%% =7= %%%      %%% =7 %%%  %%%%  %%% 7= %%%      %%% =7====  %% %%% ===7======    %% ===7=== %%% %%  ====7=== %%    ======777 7 777",
"77 7 7777= %%  %%%%  %% =7= % %%%%%%%% % =7= %%  %%%%  %% =7= %%% %%%% %%% =7= % %%%%%%%% % =7= %%% %%%% %%% =7=== %%%% %%% ===7====  %% %%% ===7=== %%% %%%% ===7=== %%% %%  ====777 7 777",
"77 7 7777==  %%%%%%%%  ==7== <<      << ==7==  %%%%%%%%  ==7= % %%%%%%%% % =7== %%%%%%%%%% ==7= % %%%%%%%% % =7=== <%%<< % % ==7=== %%%% %%% ===7== % % <<%%< ===7=== %%% %%%% ===777 7 777",
"77 7 7777== <<      << ==7== << <<<< << ==7== <<      << ==7== %%%%%%%%%% ==7== %<%%%%%%<% ==7== %%%%%%%%%% ==7== <<  <<%%%% ==7=== <%%<< % % ==7== %%%%<<  << ==7== % % <<%%< ===777 7 777",
"77 7 7777== << <<<< << ==7= %% <<<<<< %% =7== << <<<< << ==7== %<%%%%%%<% ==7= %%%%<%%<%%%% =7== %<%%%%%%<% ==7== <<< %%%%%%% =7== <<  <<%%%% ==7= %%%%%%% <<< ==7== %%%%<<  << ==777 7 777",
"77 7 7777= %% <<<<<< %% =7= %%<< << <<%% =7= %% <<<<<< %% =7= %%%%<%%<%%%% =7= %%%%%%%%%%%% =7= %%%%<%%<%%%% =7== < <<%  %%%% =7== <<< %%%%%%% =7= %%%%  %<< < ==7= %%%%%%% <<< ==777 7 777",
"77 7 7777= %%<< << <<%% =7= %%<< << <<%% =7= %%<< << <<%% =7= %%%%%%%%%%%% =7= %%%%%%%%%%%% =7= %%%%%%%%%%%% =7== < << << %%% =7== < <<%  %%%% =7= %%% << << < ==7= %%%%  %<< < ==777 7 777",
"77 7 7777= %%<< << <<%% =7= %% <<<<<< %% =7= %%<< << <<%% =7= %%%%%%%%%%%% =7= % %%%%%%%% % =7= %%%%%%%%%%%% =7== <<<<<<< %%% =7== < << << %%%% 7= %%% <<<<<<< ==7 %%%% << << < ==777 7 777",
"77 7 7777= %% <<<<<< %% =7= % <      < % =7= %% <<<<<< %% =7= % %%%%%%%% % =7= % %%%%%%%% % =7= % %%%%%%%% % =7=== <<<%  %%%% =7== <<<<<<< %%%% 7= %%%%  %<<< ===7 %%%% <<<<<<< ==777 7 777",
"77 7 7777= % <      < % =7== <<%<%%<%<< ==7= % <      < % =7= % %%%%%%%% % =7== < %%%%%% < ==7= % %%%%%%%% % =7====  % < %%% ==7=== <<<%  %%%%% 7== %%% < %  ====7 %%%%%  %<<< ===777 7 777",
"77 7 7777== <<%<%%<%<< ==7===  <<<<<<  ===7== <<%<%%<%<< ==7==   %%%%%% < ==7=== < %  % < ===7== < %%%%%%   ==7==== << << %% ==7====  % <  %%% =7== %% << << ====7= %%%  < %  ====777 7 777",
"77 7 7777===  <<<<<<  ===7=== <<<<<<<< ===7===  <<<<<<  ===7=== < %  % < ===7=== <<<<<<<< ===7=== < %  % < ===7=== <<<<  <  ===7==== << << %%% =7===  <  <<<< ===7= %%% << << ====777 7 777",
"77 7 7777===== <<<   ====7==== <<<<<< ====7====   <<< =====7====  <<<   ====7==== <<<<<< ====7====   <<<  ====7==== <<<<<< ====7=== <<<<  <   ==7==== <<<<<< ====7==   <  <<<< ===777 7 777",
"77 7 7777======   =======7=====      =====7=======   ======7======   =======7=====      =====7=======   ======7=====      =====7====       =====7=====      =====7=====       ====777 7 777",
"77 7 77777777777777777777777777777777777777777777777777777777777777777777777777777777777777777777777777777777777777777777777777777777777777777777777777777777777777777777777777777777 7 777",
"77 7 7777::::::::::::::::7======    ======7::::::::::::::::7::::::::::::::::7::::::    ::::::7::::::::::::::::7:::::::   ::::::7::::::::::::::::7::::::   :::::::7::::::::::::::::777 7 777",
"77 7 7777::::::    ::::::7====   ++   ====7::::::    ::::::7::::::    ::::::7::::   ++   ::::7::::::    ::::::7:::::  +++  ::::7:::::::   ::::::7::::  +++  :::::7::::::   :::::::777 7 777",
"77 7 7777::::   ++   ::::7==  + <  < +  ==7::::   ++   ::::7::::   ++   ::::7::  ++++++++  ::7::::   ++   ::::7:::: <<< +++ :::7:::::  +++  ::::7::: +++ <<< ::::7::::  +++  :::::777 7 777",
"77 7 7777::  + <  < +  ::7= ++ <<<<<< ++ =7::  + <  < +  ::7::  ++++++++  ::7: ++++++++++++ :7::  ++++++++  ::7::: <<<<< ++  ::7:::: <<< +++ :::7::  ++ <<<<< :::7::: +++ <<< ::::777 7 777",
"77 7 7777: ++ <<<<<< ++ :7== + <<<<<< + ==7: ++ <<<<<< ++ :7: ++++++++++++ :7:: ++++++++++ ::7: ++++++++++++ :7::: <<<<< ++++ :7::: <<<<< ++  ::7: ++++ <<<<< :::7::  ++ <<<<< :::777 7 777",
"77 7 7777:: + <<<<<< + ::7==  <<<<<<<<  ==7:: + <<<<<< + ::7:: ++++++++++ ::7::  ++++++++  ::7:: ++++++++++ ::7:::+<+<<+++++ ::7::: <<<<< ++++ :7:: +++++<<+<+:::7: ++++ <<<<< :::777 7 777",
"77 7 7777::  <<<<<<<<  ::7= <+<<+<<+<<+< =7::  <<<<<<<<  ::7::  ++++++++  ::7: <+<++++++<+< :7::  ++++++++  ::7::: <  <++ + :::7:::+<+<<+++++ ::7::: + ++<  < :::7:: +++++<<+<+:::777 7 777",
"77 7 7777: <+<<+<<+<<+< :7= < <  <<  < < =7: <+<<+<<+<<+< :7: <+<++++++<+< :7: < <<<<<<<< < :7: <+<++++++<+< :7::: +<<< <<  :::7::: <  <++ + :::7:::  << <<<+ :::7::: + ++<  < :::777 7 777",
"77 7 7777: < <  <<  < < :7==  <<<++<<<  ==7: < <  <<  < < :7: < <<<<<<<< < :7::  <<<<<<<<  ::7: < <<<<<<<< < :7::: <+<<<<<  :::7::: +<<< <<  :::7:::  <<<<<+< :::7:::  << <<<+ :::777 7 777",
"77 7 7777::  <<<++<<<  ::7===  <+<<+<  ===7::  <<<++<<<  ::7::  <<<<<<<<  ::7:::  <<<<<<  :::7::  <<<<<<<<  ::7:::: +<<<   ::::7::: <+<<<<<  :::7::::   <<<+ ::::7:::  <<<<<+< :::777 7 777",
"77 7 7777:::  <+<<+<  :::7== <        < ==7:::  <+<<+<  :::7:::  <<<<<<  :::7:: <<      << ::7:::  <<<<<<  :::7:::::    < :::::7:::: +<<<   ::::7::::: <    :::::7::::   <<<+ ::::777 7 777",
"77 7 7777:: <        < ::7== < ++ +++ < ==7:: <        < ::7:: <<      << ::7:: <<<< <<<<< ::7:: <<      << ::7:::: ++ <<< ::::7:::::    < :::::7:::: <<< ++ ::::7::::: <    :::::777 7 777",
"77 7 7777:: < +++ ++ < ::7=== +++ ++++ ===7:: < ++ +++ < ::7:: <<<< <<<<< ::7::: +<<< <<+ :::7:: <<<<< <<<< ::7:::: +++ << ::::7::::  + <<<  :::7:::: << +++ ::::7:::  <<< +  ::::777 7 777",
"77 7 7777:::   ++ +   :::7===   <<<<   ===7:::   + ++   :::7:::   +< <+  :::7:::   ++++   :::7:::  +< <+   :::7:::::  ++   ::::7::: << < << < ::7::::   ++  :::::7:: < << < << :::777 7 777",
"77 7 7777:::: <<   ::::::7=== <<    << ===7::::::   << ::::7:::: <<     ::::7::: <<    << :::7::::     << ::::7::::: <<<< :::::7:::: <<    << ::7::::: <<<< :::::7:: <<    << ::::777 7 777",
"77 7 7777:::::   ::::::::7====   ==   ====7::::::::   :::::7:::::   ::::::::7::::   ::   ::::7::::::::   :::::7::::::    ::::::7:::::  ::::  :::7::::::    ::::::7:::  ::::  :::::777 7 777",
"77 7 77777777777777777777777777777777777777777777777777777777777777777777777777777777777777777777777777777777777777777777777777777777777777777777777777777777777777777777777777777777 7 777",
"77 7 7777================7======    ======7================7================7======    ======7================7=====   ==  ====7================7====  ==   =====7================777 7 777",
"77 7 7777======    ======7====  33 3  ====7======    ======7======    ======7====   33   ====7======    ======7===  333  33 ===7=====   ==  ====7=== 33  333  ===7====  ==   =====777 7 777",
"77 7 7777====  3 33  ====7=== 3 333333 ===7====  33 3  ====7====   33   ====7=== 3 3333 3 ===7====   33   ====7== 3333333 33 ==7===  333  33 ===7== 33 3333333 ==7=== 33  333  ===777 7 777",
"77 7 7777=== 333333 3 ===7== 33 333  33 ==7=== 3 333333 ===7=== 3 3333 3 ===7== 33 <33< 33 ==7=== 3 3333 3 ===7= 3  3333<3 3 ==7== 3333333 33 ==7== 3 3<3333  3 =7== 33 3333333 ==777 7 777",
"77 7 7777== 33  333 33 ==7== 3 3 3 33 3 ==7== 33 333  33 ==7== 33 <33< 33 ==7== 33 3333 33 ==7== 33 <33< 33 ==7= 3 3 3<333 33 =7= 3  3333<3 33 =7= 33 333<3 3 3 =7= 33 3<3333  3 =777 7 777",
"77 7 7777== 3 33 3 3 3 ==7= 33 < 3 << 33 =7== 3 3 3 33 3 ==7== 3 33333 33 ==7= 333 3333 333 =7== 33 33333 3 ==7= 3<< 33333 33 =7= 3 3 3<333 33 =7= 33 33333 <<3 =7= 33 333<3 3 3 =777 7 777",
"77 7 7777= 33 << 3 < 33 =7= 3 <<< <<<< 3 =7= 33 < 3 << 33 =7= 33 3333 3333 =7= 3 3 3333 3 3 =7= 3333 3333 33 =7== < < 3333 33 =7= 3<< 33333 333 7= 33 3333 < < ==7 333 33333 <<3 =777 7 777",
"77 7 7777= 3 <<<< <<< 3 =7== 3<< << <<3 ==7= 3 <<< <<<< 3 =7= 3  3333 33 3 =7== 333 33 333 ==7= 3 33 3333  3 =7== < < 33333 3 =7== < < 3333  33 7= 3 33333 < < ==7 33  3333 < < ==777 7 777",
"77 7 7777== 3<< << <<3 ==7= 33<< << <<33 =7== 3<< << <<3 ==7== 3 333 3333 ==7= 3333 33 3333 =7== 3333 333 3 ==7== <<< 33333 3 =7== < < 33333  3 7= 3 33333 <<< ==7 3  33333 < < ==777 7 777",
"77 7 7777==  << << <<33 =7= 3  <<<<<<  3 =7= 33<< << <<  ==7= 333 33 33333 =7= 3  33  33  3 =7= 33333 33 333 =7=== 3<  3 3 = ==7== <<< 33333 = =7== = 3 3  <3 ===7= = 33333 <<< ==777 7 777",
"77 7 7777=  < <<<<<   3 =7==  <      <  ==7= 3   <<<<< <  =7= 3  3  333  3 =7==  3      3  ==7= 3  333  3  3 =7====  33 3 =====7=== 3<  3 3 ====7===== 3 33  ====7==== 3 3  <3 ===777 7 777",
"77 7 7777=  33     3<  ==7== 33      33 ==7==  <3     33  =7==  3      3  ==7== 333    333 ==7==  3      3  ==7====   3333 ====7====  33 3 =====7==== 3333   ====7===== 3 33  ====777 7 777",
"77 7 7777= 3       33  ==7= 3          3 =7==  33       3 =7== 333    333 ==7= 333333333333 =7== 333    333 ==7====   33333 ===7===    3333  ===7=== 33333   ====7===  3333    ===777 7 777",
"77 7 7777== 33 <     3 ==7= 33 <    < 33 =7== 3     < 33 ==7== 3333333333 ==7= 333333333333 =7== 3333333333 ==7===== < 3333 ===7== 33   33333 ==7=== 3333 < =====7== 33333   33 ==777 7 777",
"77 7 7777===  333      ==7==   33  33   ==7==      333  ===7=== 333333   ===7==   33  33   ==7===   333333 ===7==== 333 3  ====7=== 33    33 ===7====  3 333 ====7=== 33    33 ===777 7 777",
"77 7 7777=====   ========7=====  ==  =====7========   =====7====      ======7=====  ==  =====7======      ====7=====     ======7====  ====  ====7======     =====7====  ====  ====777 7 777",
"77 7 77777777777777777777777777777777777777777777777777777777777777777777777777777777777777777777777777777777777777777777777777777777777777777777777777777777777777777777777777777777 7 777",
"77 7 7777::::::::::::::::7====  =  =  ====7::::::::::::::::7::::::::::::::::7::::  :  :  ::::7::::::::::::::::7=====  =  = ====7::::::::::::::::7==== =  =  =====7::::::::::::::::777 7 777",
"77 7 7777::::  :  :  ::::7===          ===7::::  :  :  ::::7::::  :  :  ::::7:::          :::7::::  :  :  ::::7====         ===7:::::  :  : ::::7===         ====7:::: :  :  :::::777 7 777",
"77 7 7777:::          :::7===          ===7:::          :::7:::          :::7:::          :::7:::          :::7====         ===7::::         :::7===         ====7:::         ::::777 7 777",
"77 7 7777:::          :::7==   < << <   ==7:::          :::7:::          :::7::            ::7:::          :::7=== <         ==7::::         :::7==         < ===7:::         ::::777 7 777",
"77 7 7777::   < << <   ::7=== <<<<<<<< ===7::   < << <   ::7::            ::7:::          :::7::            ::7=== <<<       ==7::: <         ::7==       <<< ===7::         < :::777 7 777",
"77 7 7777::: <<<<<<<< :::7==  <+<<<<+<  ==7::: <<<<<<<< :::7:::          :::7::            ::7:::          :::7=== <+<<     ===7::: <<<       ::7===     <<+< ===7::       <<< :::777 7 777",
"77 7 7777::  <+<<<<+<  ::7= < <<+<<+<< < =7::  <+<<<<+<  ::7::            ::7: <          < :7::            ::7=== +<<<     ===7::: <+<<     :::7===     <<<+ ===7:::     <<+< :::777 7 777",
"77 7 7777: < <<+<<+<< < :7= <+<  <<  <+< =7: < <<+<<+<< < :7: <          < :7: <+        +< :7: <          < :7===   << <<  ===7::: +<<<     :::7===  << <<   ===7:::     <<<+ :::777 7 777",
"77 7 7777: <+<  <<  <+< :7==  <<<<<<<<  ==7: <+<  <<  <+< :7: <+        +< :7::  <  <<  <  ::7: <+        +< :7=== <<<< <<  ===7:::   << <<  :::7===  << <<<< ===7:::  << <<   :::777 7 777",
"77 7 7777:   <<<<<<<<  ::7==   <<++<<   ==7::  <<<<<<<<   :7::  <  <<  <  ::7::   <<<<<<   ::7::  <  <<  <  ::7==== +<<<<  ====7::: <<<< <<  :::7====  <<<<+ ====7:::  << <<<< :::777 7 777",
"77 7 7777: <  <<++<<   ::7= <<        << =7::   <<++<<  < :7::   <<<<<<   ::7: <<+      +<< :7::   <<<<<<   ::7====       =====7:::: +<<<<  ::::7=====       ====7::::  <<<<+ ::::777 7 777",
"77 7 7777::         << ::7= << ++++++ << =7:: <<         ::7::: +      << ::7: < ++++++++ < :7:: <<      + :::7==== + <<+ =====7::::       :::::7===== +<< + ====7:::::       ::::777 7 777",
"77 7 7777::::  ++++ << ::7==    ++++    ==7:: << ++++  ::::7:::  +++++ << ::7::    ++++    ::7:: << +++++  :::7====   <<  =====7:::  ++ <<  ::::7=====  <<   ====7::::  << ++  :::777 7 777",
"77 7 7777::::         :::7===          ===7:::         ::::7::::         :::7:::          :::7:::         ::::7=====     ======7:: ++    < + :::7======     =====7::: + <    ++ ::777 7 777",
"77 7 7777:::: ++  :::::::7=== ++    ++ ===7:::::::  ++ ::::7:::: +++    ::::7::: ++    ++ :::7::::    +++ ::::7===== ++++ =====7::: ++    ++ :::7===== ++++ =====7::: ++    ++ :::777 7 777",
"77 7 7777:::::  :::::::::7====   ==   ====7:::::::::  :::::7:::::   ::::::::7::::   ::   ::::7::::::::   :::::7======    ======7::::   :::  ::::7======    ======7::::  :::   ::::777 7 777",
"77 7 77777777777777777777777777777777777777777777777777777777777777777777777777777777777777777777777777777777777777777777777777777777777777777777777777777777777777777777777777777777 7 777",
"77 7 7777================7======    ======7================7================7======    ======7================7======    ======7================7======    ======7================777 7 777",
"77 7 7777======    ======7====  %%%%  ====7======    ======7======    ======7====  %%%%  ====7======    ======7====  %%%%  ====7======    ======7====  %%%%  ====7======    ======777 7 777",
"77 7 7777====  %%%%  ====7=== %%%%%%%% ===7====  %%%%  ====7====  %%%%  ====7=== %%%%%%%% ===7====  %%%%  ====7=== %%%%%%%< ===7====  %%%%  ====7=== <%%%%%%% ===7====  %%%%  ====777 7 777",
"77 7 7777=== %%%%%%%% ===7=== <%%%%%%< ===7=== %%%%%%%% ===7=== %%%%%%%% ===7=== %%%%%%%% ===7=== %%%%%%%% ===7== % %<%%<%%% ==7=== %%%%%%%< ===7== %%%<%%<% % ==7=== <%%%%%%% ===777 7 777",
"77 7 7777=== <%%%%%%< ===7== %%%<%%<%%% ==7=== <%%%%%%< ===7=== %%%%%%%% ===7== %<%%%%%%<% ==7=== %%%%%%%% ===7== % %%%%%%%% ==7== % %<%%<%%% ==7== %%%%%%%% % ==7== %%%<%%<% % ==777 7 777",
"77 7 7777== %%%<%%<%%% ==7== %% %  % %% ==7== %%%<%%<%%% ==7== %<%%%%%%<% ==7== %%%<%%<%%% ==7== %<%%%%%%<% ==7==  < %%%%%%% ==7== % %%%%%%%% ==7== %%%%%%% <  ==7== %%%%%%%% % ==777 7 777",
"77 7 7777== %% %  % %% ==7==  % <<<< %  ==7== %% %  % %% ==7== %%%<%%<%%% ==7==  %%%%%%%%  ==7== %%%<%%<%%% ==7=== <  %  %%% ==7==  < %%%%%%% ==7== %%%  %  < ===7== %%%%%%% <  ==777 7 777",
"77 7 7777==  % <<<< %  ==7== % < << < % ==7==  % <<<< %  ==7==  %%%%%%%%  ==7== %%%%%%%%%% ==7==  %%%%%%%%  ==7=== < < << %%  =7=== <  %  %%% ==7=  %% << < < ===7== %%%  %  < ===777 7 777",
"77 7 7777== % < << < % ==7= %%<< << <<%% =7== % < << < % ==7== %%%%%%%%%% ==7= %%%%%%%%%%%% =7== %%%%%%%%%% ==7=== <<<<<< %%% =7=== < < << %%  =7= %%% <<<<<< ===7=  %% << < < ===777 7 777",
"77 7 7777= %%<< << <<%% =7== % <<<<<< % ==7= %%<< << <<%% =7= %%%%%%%%%%%% =7== % %%%%%% % ==7= %%%%%%%%%%%% =7==== %< %%%%% ==7=== <<<<<< %%% =7== %%%%% <% ====7= %%% <<<<<< ===777 7 777",
"77 7 7777== % <<<<<< % ==7=== <      < ===7== % <<<<<< % ==7== % %%%%%% % ==7=== <      < ===7== % %%%%%% % ==7=====    %%% ===7==== %< %%%%% ==7=== %%%    =====7== %%%%% <% ====777 7 777",
"77 7 7777=== <      < ===7== << %%%% << ==7=== <      < ===7=== <      < ===7== << %%%% << ==7=== <      < ===7===== % <<  ====7=====    %%% ===7====  << % =====7=== %%%    =====777 7 777",
"77 7 7777=== %<%%% << ===7=== %<%%%%<% ===7=== << %%%<% ===7=== %<%%% << ===7=== %<%%%%<% ===7=== << %%%<% ===7===== %% < =====7===  %< <<  ====7===== < %% =====7====  << <%  ===777 7 777",
"77 7 7777==== <<%%<  ====7==== <<%%<< ====7====  <%%<< ====7==== <<%%<  ====7==== <<%%<< ====7====  <%%<< ====7====== << ======7== %% << < % ===7====== << ======7=== % < << %% ==777 7 777",
"77 7 7777===== %%   =====7==== %%  %% ====7=====   %% =====7===== %%   =====7==== %%  %% ====7=====   %% =====7===== %%% ======7=== %%    %% ===7====== %%% =====7=== %%    %% ===777 7 777",
"77 7 7777======  ========7=====  ==  =====7========  ======7======  ========7=====  ==  =====7========  ======7======    ======7====   ===  ====7======    ======7====  ===   ====777 7 777",
"77 7 77777777777777777777777777777777777777777777777777777777777777777777777777777777777777777777777777777777777777777777777777777777777777777777777777777777777777777777777777777777 7 777",
"77 7 7777::::::::::::::::7======    ======7::::::::::::::::7::::::::::::::::7======    ======7::::::::::::::::7======    ======7::::::::::::::::7======    ======7::::::::::::::::777 7 777",
"77 7 7777::::::    ::::::7====  <<<<  ====7::::::    ::::::7::::::    ::::::7====  <<<<  ====7::::::    ::::::7====  <<<<  ====7::::::    ::::::7====  <<<<  ====7::::::    ::::::777 7 777",
"77 7 7777::::  <<<<  ::::7=== <<<<<<<< ===7::::  <<<<  ::::7::::  <<<<  ::::7=== <<<<<<<< ===7::::  <<<<  ::::7=== <<<<<<<< ===7::::  <<<<  ::::7=== <<<<<<<< ===7::::  <<<<  ::::777 7 777",
"77 7 7777::: <<<<<<<< :::7== <<  <   << ==7::: <<<<<<<< :::7::: <<<<<<<< :::7== <<<<<<<<<< ==7::: <<<<<<<< :::7=== <  <<<<<+ ==7::: <<<<<<<< :::7== +<<<<<  < ===7::: <<<<<<<< :::777 7 777",
"77 7 7777:: <<  <   << ::7== + << <<< + ==7:: <<   <  << ::7:: <<<<<<<<<< ::7== <+<<<<<<+< ==7:: <<<<<<<<<< ::7==== <<+<<+<< ==7::: <  <<<<<+ ::7== <<+<<+<< ====7:: +<<<<<  < :::777 7 777",
"77 7 7777:: + << <<< + ::7== + <<<<<< + ==7:: + <<< << + ::7:: <+<<<<<<+< ::7== +<<+<<+<<+ ==7:: <+<<<<<<+< ::7=== <<<<+<<<<< =7:::: <<+<<+<< ::7= <<<<<+<<<< ===7:: <<+<<+<< ::::777 7 777",
"77 7 7777:: + <<<<<< + ::7= <+<+<<<<+<+< =7:: + <<<<<< + ::7:: +<<+<<+<<+ ::7= <+<<<<<<<<+< =7:: +<<+<<+<<+ ::7=== <<+<+  <<< =7::: <<<<+<<<<< :7= <<<  +<+<< ===7: <<<<<+<<<< :::777 7 777",
"77 7 7777: <+<+<<<<+<+< :7= <+<< << <<+< =7: <+<+<<<<+<+< :7: <+<<<<<<<<+< :7= <+<<<<<<<<+< =7: <+<<<<<<<<+< :7=== < << << << =7::: <<+<+  <<< :7= << << << < ===7: <<<  +<+<< :::777 7 777",
"77 7 7777: <+<< << <<+< :7= + <<<<<<<< + =7: <+<< << <<+< :7: <+<<<<<<<<+< :7= + <<<<<<<< + =7: <+<<<<<<<<+< :7=== <<<<<<< < ==7::: < << << << :7== < <<<<<<< ===7: << << << < :::777 7 777",
"77 7 7777: + <<<<<<<< + :7==   <<++<<   ==7: + <<<<<<<< + :7: + <<<<<<<< + :7==   <<<<<<   ==7: + <<<<<<<< + :7==== +<<+  + ===7::: <<<<<<< < ::7=== +  +<<+ ====7:: < <<<<<<< :::777 7 777",
"77 7 7777:: < <<++<<   ::7= <<        << =7::   <<++<< < ::7::   <<<<<<   ::7= <<        << =7::   <<<<<<   ::7=====     + ====7:::: +<<+  + :::7==== +     =====7::: +  +<<+ ::::777 7 777",
"77 7 7777::         << ::7= << ++++++ << =7:: <<         ::7::: +      << ::7= < ++++++++ < =7:: <<      + :::7=====  +<< =====7:::::     + ::::7===== <<+  =====7:::: +     :::::777 7 777",
"77 7 7777:::   ++++ << ::7==    ++++    ==7:: << ++++   :::7:::  +++++ << ::7==    ++++    ==7:: << +++++  :::7===== + << =====7::::  + <<<  :::7===== << + =====7:::  <<< +  ::::777 7 777",
"77 7 7777::::         :::7===          ===7:::         ::::7::::         :::7===          ===7:::         ::::7======    ======7::: ++   << + ::7======    ======7:: + <<   ++ :::777 7 777",
"77 7 7777:::: ++  :::::::7=== ++    ++ ===7:::::::  ++ ::::7:::: +++    ::::7=== ++    ++ ===7::::    +++ ::::7===== ++++ =====7:::: ++    ++ ::7===== ++++ =====7:: ++    ++ ::::777 7 777",
"77 7 7777:::::   ::::::::7====   ==   ====7::::::::   :::::7:::::   ::::::::7====   ==   ====7::::::::   :::::7======    ======7:::::  ::::  :::7======    ======7:::  ::::  :::::777 7 777",
"77 7 77777777777777777777777777777777777777777777777777777777777777777777777777777777777777777777777777777777777777777777777777777777777777777777777777777777777777777777777777777777 7 777",
"77 7 7777::::::::::::::::7======    ======7::::::::::::::::7::::::::::::::::7::::::    ::::::7::::::::::::::::7======    ======7::::::::::::::::7======    ======7::::::::::::::::777 7 777",
"77 7 7777::::::    ::::::7====        ====7::::::    ::::::7::::::    ::::::7::::        ::::7::::::    ::::::7====        ====7::::::    ::::::7====        ====7::::::    ::::::777 7 777",
"77 7 7777::::        ::::7===          ===7::::        ::::7::::        ::::7:::          :::7::::        ::::7=== --       ===7::::        ::::7===       -- ===7::::        ::::777 7 777",
"77 7 7777:::          :::7===   ----    ==7:::          :::7:::          :::7::: <      <  ::7:::          :::7==   --      ===7::: --       :::7===      --   ==7:::       -- :::777 7 777",
"77 7 7777:::   ----    ::7== < -    - < ==7::    ----   :::7::: <      <  ::7::    <  <    ::7::  <      < :::7==    --   <  ==7::   --      :::7==  <   --    ==7:::      --   ::777 7 777",
"77 7 7777:: < -    - < ::7==    <  <    ==7:: < -    - < ::7::    <  <    ::7::            ::7::    <  <    ::7==  << - <    ==7::    --   <  ::7==    < - <<  ==7::  <   --    ::777 7 777",
"77 7 7777::    <  <    ::7==   <<<<<<   ==7::    <  <    ::7::            ::7::            ::7::            ::7=== < <       ==7::  << - <    ::7==       < < ===7::    < - <<  ::777 7 777",
"77 7 7777::   <<<<<<   ::7==   < << <   ==7::   <<<<<<   ::7::            ::7::            ::7::            ::7=== < <      ===7::: < <       ::7===      < < ===7::       < < :::777 7 777",
"77 7 7777::   < << <   ::7=== << << << ===7::   < << <   ::7::            ::7::: <<    << :::7::            ::7=== <<<     ====7::: < <      :::7====     <<< ===7:::      < < :::777 7 777",
"77 7 7777::: << << << :::7==== <<<<<< ====7::: << << << :::7::: <<    << :::7:::: <<<<<< ::::7::: <<    << :::7==== -<   - ====7::: <<<     ::::7==== -   <- ====7::::     <<< :::777 7 777",
"77 7 7777:::: <<<<<< ::::7=== -      - ===7:::: <<<<<< ::::7:::: <<<<<< ::::7::: -      - :::7:::: <<<<<< ::::7=====  ---  ====7:::: -<   - ::::7====  ---  =====7:::: -   <- ::::777 7 777",
"77 7 7777::: -      - :::7== <- ---- -< ==7::: -      - :::7::: -      - :::7:: <- ---- -< ::7::: -      - :::7===== ---   ====7:::::  ---  ::::7====   --- =====7::::  ---  :::::777 7 777",
"77 7 7777:: <- ---- -< ::7=== --    -- ===7:: <- ---- -< ::7:: <- ---- -< ::7::: --    -- :::7:: <- ---- -< ::7===== ---  - ===7::::: ---   ::::7=== -  --- =====7::::   --- :::::777 7 777",
"77 7 7777::: --    -- :::7=== - ---- - ===7::: --    -- :::7::: --    -- :::7::: - ---- - :::7::: --    -- :::7==== - << -- ===7::::  << --- :::7=== -- << - ====7::: --- <<  ::::777 7 777",
"77 7 7777::::  ---   ::::7==== ------ ====7::::   ---  ::::7::::   ---  ::::7:::: ------ ::::7::::  ---   ::::7==== --  -- ====7:::: -  --  ::::7==== --  -- ====7::::  --  - ::::777 7 777",
"77 7 7777::::::   :::::::7=====      =====7:::::::   ::::::7:::::::   ::::::7:::::      :::::7::::::   :::::::7=====      =====7:::::     ::::::7=====      =====7::::::     :::::777 7 777",
"77 7 77777777777777777777777777777777777777777777777777777777777777777777777777777777777777777777777777777777777777777777777777777777777777777777777777777777777777777777777777777777 7 777",
"77 7 7777::::::::::::::::7======    ======7::::::::::::::::7::::::::::::::::7======    ======7::::::::::::::::7======    =  ===7::::::::::::::::7===  =    ======7::::::::::::::::777 7 777",
"77 7 7777::::::    ::::::7====        ====7::::::    ::::::7::::::    ::::::7====        ====7::::::    ::::::7=====   33    ==7::::::    :  :::7==    33   =====7:::  :    ::::::777 7 777",
"77 7 7777::::        ::::7===   3333   ===7::::        ::::7::::        ::::7===  333333  ===7::::        ::::7====     33   ==7:::::   33    ::7==   33     ====7::    33   :::::777 7 777",
"77 7 7777:::   3333   :::7==   3    3   ==7:::   3333   :::7:::  333333  :::7=== 33    33  ==7:::  333333  :::7===  <<   33   =7::::     33   ::7=   33   <<  ===7::   33     ::::777 7 777",
"77 7 7777::   3    3   ::7=== 3 <  < 3 ===7::   3    3   ::7::: 33    33  ::7==  3      3  ==7::  33    33 :::7=== <<<<  33   =7:::  <<   33   :7=   33  <<<< ===7:   33   <<  :::777 7 777",
"77 7 7777::: 3 <  < 3 :::7==   <<<<<<   ==7::: 3 <  < 3 :::7::  3      3  ::7==            ==7::  3      3  ::7=== <<<<   3  ==7::: <<<<  33   :7==  3   <<<< ===7:   33  <<<< :::777 7 777",
"77 7 7777::   <<<<<<   ::7= < <<<<<<<< < =7::   <<<<<<   ::7::            ::7= <          < =7::            ::7=== < <    3   =7::: <<<<   3  ::7=   3    < < ===7::  3   <<<< :::777 7 777",
"77 7 7777: < <<<<<<<< < :7= <3<< << <<3< =7: < <<<<<<<< < :7: <          < :7= <3        3< =7: <          < :7=== < < << 3  ==7::: < <    3   :7==  3 << < < ===7:   3    < < :::777 7 777",
"77 7 7777: <3<< << <<3< :7==  << << <<  ==7: <3<< << <<3< :7: <3        3< :7==   3    3   ==7: <3        3< :7=== <<<<<<  ====7::: < < << 3  ::7====  <<<<<< ===7::  3 << < < :::777 7 777",
"77 7 7777::  << << <<  ::7==== <<33<< ====7::  << << <<  ::7::   3    3   ::7====  3333  ====7::   3    3   ::7==== 3<<   =====7::: <<<<<<  ::::7=====   <<3 ====7::::  <<<<<< :::777 7 777",
"77 7 7777:::: <<33<< ::::7=== 3  <   3 ===7:::: <<33<< ::::7::::  3333  ::::7=== 3      3 ===7::::  3333  ::::7=== <      =====7:::: 3<<   :::::7=====      < ===7:::::   <<3 ::::777 7 777",
"77 7 7777::: 3  <   3 :::7=== 3  <<  3 ===7::: 3   <  3 :::7::: 3      3 :::7=== 33    33 ===7::: 3      3 :::7=== <  333 =====7::: <      :::::7===== 333  < ===7:::::      < :::777 7 777",
"77 7 7777::: 3  <<  3 :::7====   <<   ====7::: 3  <<  3 :::7::: 33    33 :::7====        ====7::: 33    33 :::7====   33  =====7::: <  33   ::::7=====  33   ====7::::   33  < :::777 7 777",
"77 7 7777::::   <<   ::::7====        ====7::::   <<   ::::7::::        ::::7====        ====7::::        ::::7=====     ======7:: 33      3 :::7======     =====7::: 3      33 ::777 7 777",
"77 7 7777::::: 33   :::::7==== 33  33 ====7:::::   33 :::::7::::: 33 :::::::7==== 33  33 ====7::::::: 33 :::::7===== 3333 =====7::: 33    33 :::7===== 3333 =====7::: 33    33 :::777 7 777",
"77 7 7777::::::   :::::::7=====  ==  =====7:::::::   ::::::7::::::  ::::::::7=====  ==  =====7::::::::  ::::::7======    ======7::::   :::  ::::7======    ======7::::  :::   ::::777 7 777",
"77 7 77777777777777777777777777777777777777777777777777777777777777777777777777777777777777777777777777777777777777777777777777777777777777777777777777777777777777777777777777777777 7 777",
"77 7 7777::::::::::::::::7======    ======7::::::::::::::::7::::::::::::::::7======    ======7::::::::::::::::7======    ======7::::::::::::::::7======    ======7::::::::::::::::777 7 777",
"77 7 7777::::::    ::::::7====  %%%%  ====7::::::    ::::::7::::::    ::::::7====  %%%%  ====7::::::    ::::::7====  %%%%  ====7::::::    ::::::7====  %%%%  ====7::::::    ::::::777 7 777",
"77 7 7777::::  %%%%  ::::7=== %%%%%%%% ===7::::  %%%%  ::::7::::  %%%%  ::::7=== %%%%%%%% ===7::::  %%%%  ::::7=== %%%%%%%< ===7::::  %%%%  ::::7=== <%%%%%%% ===7::::  %%%%  ::::777 7 777",
"77 7 7777::: %%%%%%%% :::7== %%%%%%%%%% ==7::: %%%%%%%% :::7::: %%%%%%%% :::7== %%%%%%%%%% ==7::: %%%%%%%% :::7== % %<%%<%%% ==7::: %%%%%%%< :::7== %%%<%%<% % ==7::: <%%%%%%% :::777 7 777",
"77 7 7777:: %%%%%%%%%% ::7== <%%%%%%%%< ==7:: %%%%%%%%%% ::7:: %%%%%%%%%% ::7== %%%%%%%%%% ==7:: %%%%%%%%%% ::7== % %%%%%%%% ==7:: % %<%%<%%% ::7== %%%%%%%% % ==7:: %%%<%%<% % ::777 7 777",
"77 7 7777:: <%%%%%%%%< ::7= %%%% %% %%%% =7:: <%%%%%%%%< ::7:: %%%%%%%%%% ::7= %<%%%%%%%%<% =7:: %%%%%%%%%% ::7==  < %%%%%%%% =7:: % %%%%%%%% ::7= %%%%%%%% <  ==7:: %%%%%%%% % ::777 7 777",
"77 7 7777: %%%% %% %%%% :7= %%  <  <  %% =7: %%%% %% %%%% :7: %<%%%%%%%%<% :7= %%%<%%%%<%%% =7: %<%%%%%%%%<% :7=== <  %%%%%%% =7::  < %%%%%%%% :7= %%%%%%%  < ===7: %%%%%%%% <  ::777 7 777",
"77 7 7777: %%  <  <  %% :7== %<< << <<%% =7: %%  <  <  %% :7: %%%<%%%%<%%% :7= %%%%%%%%%%% ==7: %%%<%%%%<%%% :7=== < < %%%%%% =7::: <  %%%%%%% :7= %%%%%% < < ===7: %%%%%%%  < :::777 7 777",
"77 7 7777:: %<< << <<%% :7=== << << << % =7: %%<< << <<% ::7: %%%%%%%%%%% ::7== %%%%%%%%% ===7:: %%%%%%%%%%% :7=== <<< % %%%% =7::: < < %%%%%% :7= %%%% % <<< ===7: %%%%%% < < :::777 7 777",
"77 7 7777::: << << << % :7==== <<%%<< %% =7: % << << << :::7:: %%%%%%%%% :::7== %%%%%%%% ====7::: %%%%%%%%% ::7==== %<   %%% ==7::: <<< % %%%% :7== %%%   <% ====7: %%%% % <<< :::777 7 777",
"77 7 7777:::: <<%%<< %% :7=== %      % % =7: %% <<%%<< ::::7:: %%%%%%%% ::::7=== %%%%%% % ===7:::: %%%%%%%% ::7=====  % %%%% ==7:::: %<   %%% ::7== %%%% %  =====7:: %%%   <% ::::777 7 777",
"77 7 7777::: %      % % :7== <% %%%% %< ==7: % %      % :::7::: %%%%%% % :::7=== %%%%%% %< ==7::: % %%%%%% :::7===== %%% %% ===7:::::  % %%%% ::7=== %% %%% =====7:: %%%% %  :::::777 7 777",
"77 7 7777:: <% %%%% %< ::7===  %<<<<%  ===7:: <% %%%% %< ::7:::  %%%% %< :::7====  %%% %  ===7::: <% %%%%  :::7===== % <   ====7::::: %%% %% :::7====   < % =====7::: %% %%% :::::777 7 777",
"77 7 7777:::  %<<<<%  :::7====   %%   ====7:::  %<<<<%  :::7::::    %   ::::7====        ====7::::   %    ::::7======    ======7::::    <   ::::7======    ======7::::   <    ::::777 7 777",
"77 7 7777::::: %%%   ::::7==== %%  %% ====7::::   %%% :::::7::::: %% :::::::7==== %%  %% ====7::::::: %% :::::7===== %%% ======7:::: %%  %% ::::7====== %%% =====7:::: %%  %% ::::777 7 777",
"77 7 7777::::::   :::::::7=====  ==  =====7:::::::   ::::::7::::::  ::::::::7=====  ==  =====7::::::::  ::::::7======    ======7:::::   :  :::::7======    ======7:::::  :   :::::777 7 777",
"77 7 77777777777777777777777777777777777777777777777777777777777777777777777777777777777777777777777777777777777777777777777777777777777777777777777777777777777777777777777777777777 7 777",
"77 7 7777::::::::::::::::7======    ======7::::::::::::::::7::::::::::::::::7::::::    ::::::7::::::::::::::::7=======   ======7::::::::::::::::7======   =======7::::::::::::::::777 7 777",
"77 7 7777::::::    ::::::7====  <<<<  ====7::::::    ::::::7::::::    ::::::7::::  <<<<  ::::7::::::    ::::::7=====  <<<  ====7:::::::   ::::::7====  <<<  =====7::::::   :::::::777 7 777",
"77 7 7777::::  <<<<  ::::7=== <<<<<<<< ===7::::  <<<<  ::::7::::  <<<<  ::::7::: <<<<<<<< :::7::::  <<<<  ::::7==== <<<<<<< ===7:::::  <<<  ::::7=== <<<<<<< ====7::::  <<<  :::::777 7 777",
"77 7 7777::: <<<<<<<< :::7=== <<<<<<<< ===7::: <<<<<<<< :::7::: <<<<<<<< :::7::: <<<<<<<< :::7::: <<<<<<<< :::7==== <<<<<<<< ==7:::: <<<<<<< :::7== <<<<<<<< ====7::: <<<<<<< ::::777 7 777",
"77 7 7777::: <<<<<<<< :::7== <<<<<<<<<< ==7::: <<<<<<<< :::7::: <<<<<<<< :::7:: <<<<<<<<<< ::7::: <<<<<<<< :::7=== <<<<<<<<< ==7:::: <<<<<<<< ::7== <<<<<<<<< ===7:: <<<<<<<< ::::777 7 777",
"77 7 7777:: <<<<<<<<<< ::7==  <  <<  << ==7:: <<<<<<<<<< ::7:: <<<<<<<<<< ::7:: <<<<<<<<<< ::7:: <<<<<<<<<< ::7=== <  <<<<<< ==7::: <<<<<<<<< ::7== <<<<<<  < ===7:: <<<<<<<<< :::777 7 777",
"77 7 7777:: <<  <<  <  ::7= <+ +   +  +< =7::  <  <<  << ::7:: <<<<<<<<<< ::7: < <<<<<<<< < :7:: <<<<<<<<<< ::7===  + ++  << ==7::: <  <<<<<< ::7== <<  ++ +  ===7:: <<<<<<  < :::777 7 777",
"77 7 7777: <+  +   + +< :7= < <  <<  < < =7: <+ +   +  +< :7: < <<<<<<<< < :7: <+<<<<<<<<+< :7: < <<<<<<<< < :7=== <  < << < ==7:::  + ++  << ::7== < << <  < ===7:: <<  ++ +  :::777 7 777",
"77 7 7777: < <  <<  < < :7==  <<<<<<<<  ==7: < <  <<  < < :7: <+<<<<<<<<+< :7:: +<<<<<<<<+ ::7: <+<<<<<<<<+< :7=== <<<<<<<  ===7::: <  < << < ::7===  <<<<<<< ===7:: < << <  < :::777 7 777",
"77 7 7777:   <<<<<<<<  ::7==   <<++<<   ==7::  <<<<<<<<   :7::  <<<<<<<<+ ::7::   <<<<<<   ::7:: +<<<<<<<<  ::7==== +<<+  + ===7::: <<<<<<<  :::7=== +  +<<+ ====7:::  <<<<<<< :::777 7 777",
"77 7 7777: <  <<++<<   ::7= <<        << =7::   <<++<<  < :7:: < <<<<<<  :::7: < <      < < :7:::  <<<<<< < ::7=====     + ====7:::: +<<+  + :::7==== +     =====7::: +  +<<+ ::::777 7 777",
"77 7 7777::  <      << ::7= << < << < << =7:: <<      <  ::7::: <      << ::7: < <<<<<<<< < :7:: <<      < :::7===== <+<< =====7:::::     + ::::7===== <<+< =====7:::: +     :::::777 7 777",
"77 7 7777:: << +++  << ::7==  <<    <<  ==7:: <<  +++ << ::7::: <<<<<< << ::7::  <<<<<<<<  ::7:: << <<<<<< :::7===== < <<+ ====7::::  <+<<<  :::7==== +<< < =====7:::  <<<+<  ::::777 7 777",
"77 7 7777:: <<     <  :::7== <<< ++ <<< ==7:::  <     << ::7::: <<<<<<<  :::7:::  <<<<<<  :::7:::  <<<<<<< :::7====== <  < ====7::: ++ < << < ::7==== <  < ======7:: < << < ++ :::777 7 777",
"77 7 7777:::   +   << :::7=== ++    ++ ===7::: <<   +   :::7:::: ++     ::::7::: ++    ++ :::7::::     ++ ::::7===== +<<<< ====7:::: ++    ++ ::7==== <<<<+ =====7:: ++    ++ ::::777 7 777",
"77 7 7777:::::  ::   ::::7====   ==   ====7::::   ::  :::::7:::::  :::::::::7::::   ::   ::::7:::::::::  :::::7======     =====7:::::  ::::  :::7=====     ======7:::  ::::  :::::777 7 777",
"77 7 77777777777777777777777777777777777777777777777777777777777777777777777777777777777777777777777777777777777777777777777777777777777777777777777777777777777777777777777777777777 7 777",
"77 7 7777::::::::::::::::7======    ======7::::::::::::::::7::::::::::::::::7======    ======7::::::::::::::::7======    ======7::::::::::::::::7======    ======7::::::::::::::::777 7 777",
"77 7 7777::::::    ::::::7=     %%%%  ====7::::::    ::::::7::::::    ::::::7====  %%%%     =7::::::    ::::::7=     %%%%  ====7::::::    ::::::7====  %%%%     =7::::::    ::::::777 7 777",
"77 7 7777:     %%%%  ::::7= %%%%%%%%%% ===7::::  %%%%     :7::::  %%%%     :7=== %%%%%%%%%% =7:     %%%%  ::::7= %%%%%%%%%% ===7:     %%%%  ::::7=== %%%%%%%%%% =7::::  %%%%     :777 7 777",
"77 7 7777: %%%%%%%%%% :::7== %%% %% %%% ==7::: %%%%%%%%%% :7::: %%%%%%%%%% :7== %%%%%%%%%% ==7: %%%%%%%%%% :::7== %%% %%%%%% ==7: %%%%%%%%%% :::7== %%%%%% %%% ==7::: %%%%%%%%%% :777 7 777",
"77 7 7777:: %%% %% %%% ::7==  % %%  %%% ==7:: %%% %% %%% ::7:: %%%%%%%%%% ::7== %%%%%%%%%  ==7:: %%%%%%%%%% ::7==  % %%%%%%% ==7:: %%% %%%%%% ::7== %%%%%%% %  ==7:: %%%%%% %%% ::777 7 777",
"77 7 7777::  % %%  %%% ::7= <   % <<   < =7:: %%%  %% %  ::7:: %%%%%%%%%  ::7= < % %%%%%% < =7::  %%%%%%%%% ::7===      %%%% ==7::  % %%%%%%% ::7== %%%%      ===7:: %%%%%%% %  ::777 7 777",
"77 7 7777: <   % <<   < :7= < <<<<<<<< < =7: <   << %   < :7: < % %%%%%  < :7= <  %%%%%%% < =7: <  %%%%% % < :7=== < <<<%   ===7:::      %%%% ::7===   %<<< < ===7:: %%%%      :::777 7 777",
"77 7 7777: < <<<<<<<< < :7= <%<< << <<%< =7: < <<<<<<<< < :7: <  %%%%%%  < :7= <% %%%%%% %< =7: <  %%%%%%  < :7=== < <<< << ===7::: < <<<%   :::7=== << <<< < ===7:::   %<<< < :::777 7 777",
"77 7 7777: <%<< << <<%< :7==  << << <<  ==7: <%<< << <<%< :7: <%  %%%%  %< :7=   <      <  ==7: <%  %%%%  %< :7=== <<<<<<< ====7::: < <<< << :::7==== <<<<<<< ===7::: << <<< < :::777 7 777",
"77 7 7777:   << << <<  ::7==   <<%%<<   ==7::  << << <<   :7:   <<    <<  ::7== %  <<<<  % ==7::  <<    <<   :7==== %<<<  =====7::: <<<<<<< ::::7=====  <<<% ====7:::: <<<<<<< :::777 7 777",
"77 7 7777: <  <<%%<< % ::7= <<        << =7:: % <<%%<<  < :7: <   <<<<    ::7= <          < =7::    <<<<   < :7=====       ====7:::: %<<<   ::::7====       =====7::::   <<<% ::::777 7 777",
"77 7 7777::          < ::7= << %<  <% << =7:: <          ::7::  %<    % << :7= < %<<<<<<% < =7: << %    <%  ::7===== < <<  ====7:::::       ::::7====  << < =====7::::       :::::777 7 777",
"77 7 7777:::: <<   << :::7==   <%  %<   ==7::: <<   << ::::7:::  <<<<<< << :7==  <<<<<<<<  ==7: << <<<<<<  :::7===== < <<  ====7:::   << <<  :::7====  << < =====7:::  << <<   :::777 7 777",
"77 7 7777::::   << << :::7=== <<<  <<< ===7::: << <<   ::::7::::  <<<<    ::7=== <<<%%<<< ===7::    <<<<  ::::7===== <   < ====7:: %  << <<   ::7==== <   < =====7::   << <<  % ::777 7 777",
"77 7 7777:::: %   :  ::::7=== %      % ===7::::  :   % ::::7:::: %    ::::::7=== %      % ===7::::::    % ::::7===== %    =====7:::         % ::7=====    % =====7:: %         :::777 7 777",
"77 7 7777:::::   ::::::::7====   ==   ====7::::::::   :::::7:::::   ::::::::7====   ==   ====7::::::::   :::::7======    ======7::::   ::::  :::7======    ======7:::  ::::   ::::777 7 777",
"77 7 77777777777777777777777777777777777777777777777777777777777777777777777777777777777777777777777777777777777777777777777777777777777777777777777777777777777777777777777777777777 7 777",
"77 7 7777======    ======7======    ======7=====     ======7======     =====777777777777777777777777777777777777777777777777777777777777777777777777777777777777777777777777777777777 7 777",
"77 7 7777====  %%%%  ====7====  %%%%  ====7===  %%%%%  ====7====  %%%%%  ===777777777777777777777777777777777777777777777777777777777777777777777777777777777777777777777777777777777 7 777",
"77 7 7777=== %%% %%%% ===7=== %%%%%%%% ===7== %%%%%%%%% ===7=== %%%%%%%%% ==777777777777777777777777777777777777777777777777777777777777777777777777777777777777777777777777777777777 7 777",
"77 7 7777== %%% %%%%%% ==7== %%%%%%%%%% ==7= %%% %%%%%% ===7=== %%%%%% %%% =777777777777777777777777777777777777777777777777777777777777777777777777777777777777777777777777777777777 7 777",
"77 7 7777== %%% %%% %% ==7== %%%%%%%%%% ==7= %% %% %%%%% ==7== %%%%% %% %% =777777777777777777777777777777777777777777777777777777777777777777777777777777777777777777777777777777777 7 777",
"77 7 7777== % % %%%  % ==7== %%%%%%%%%% ==7== %   %%%%%% ==7== %%%%%%   % ==777777777777777777777777777777777777777777777777777777777777777777777777777777777777777777777777777777777 7 777",
"77 7 7777= %%    %   %% =7= %%%%%%%%%%%% =7=== << %%%%%% ==7== %%%%%% << ===777777777777777777777777777777777777777777777777777777777777777777777777777777777777777777777777777777777 7 777",
"77 7 7777= %  <<  <<  % =7= %%% %%%% %%% =7===     %%%% ===7=== %%%%     ===777777777777777777777777777777777777777777777777777777777777777777777777777777777777777777777777777777777 7 777",
"77 7 7777== %        % ==7== %% %%%% %% ==7=== <<<< %% ====7==== %% <<<< ===777777777777777777777777777777777777777777777777777777777777777777777777777777777777777777777777777777777 7 777",
"77 7 7777===  <<<<<<  ===7===  % %% %  ===7==== %<    =====7=====    <% ====777777777777777777777777777777777777777777777777777777777777777777777777777777777777777777777777777777777 7 777",
"77 7 7777== <<      << ==7== <        < ==7====       =====7=====       ====777777777777777777777777777777777777777777777777777777777777777777777777777777777777777777777777777777777 7 777",
"77 7 7777== <<  %%  << ==7== <        < ==7==== % <<  =====7=====  << % ====777777777777777777777777777777777777777777777777777777777777777777777777777777777777777777777777777777777 7 777",
"77 7 7777=== %%    %% ===7===  %%  %%  ===7==== % <<  =====7=====  << % ====777777777777777777777777777777777777777777777777777777777777777777777777777777777777777777777777777777777 7 777",
"77 7 7777====   %%   ====7====   %%   ====7=====     ======7======     =====777777777777777777777777777777777777777777777777777777777777777777777777777777777777777777777777777777777 7 777",
"77 7 7777==== %%  %% ====7==== %%  %% ====7===== %%% ======7====== %%% =====777777777777777777777777777777777777777777777777777777777777777777777777777777777777777777777777777777777 7 777",
"77 7 7777=====  ==  =====7=====  ==  =====7======    ======7======    ======777777777777777777777777777777777777777777777777777777777777777777777777777777777777777777777777777777777 7 777",
"77 7 77777777777777777777777777777777777777777777777777777777777777777777777777777777777777777777777777777777777777777777777777777777777777777777777777777777777777777777777777777777 7 777",
"77 7 7777::::::::::::::::7====  =  =  ====7::::::::::::::::7::::::::::::::::7====  =  =  ====7::::::::::::::::7========  ======7::::::::::::::::7======  ========7::::::::::::::::777 7 777",
"77 7 7777::::  :  :  ::::7===          ===7::::  :  :  ::::7::::  :  :  ::::7===          ===7::::  :  :  ::::7=====       ====7::::::::  ::::::7====       =====7::::::  ::::::::777 7 777",
"77 7 7777:::          :::7===          ===7:::          :::7:::          :::7===          ===7:::          :::7====          ==7:::::       ::::7==          ====7::::       :::::777 7 777",
"77 7 7777:::          :::7==   <<  <<   ==7:::          :::7:::          :::7==            ==7:::          :::7=== <         ==7::::          ::7==         < ===7::          ::::777 7 777",
"77 7 7777::   <<  <<   ::7==  <<<<<<<<  ==7::   <<  <<   ::7::            ::7==            ==7::            ::7=== <<<      ===7:::  <        ::7===      <<< ===7::        <  :::777 7 777",
"77 7 7777::  <<<<<<<<  ::7==  <3<<<<3<  ==7::  <<<<<<<<  ::7::            ::7==            ==7::            ::7=== <3<<      ==7::: <<<      :::7==      <<3< ===7:::      <<< :::777 7 777",
"77 7 7777::  <3<<<<3<  ::7= < <<3<<3<< < =7::  <3<<<<3<  ::7::            ::7= <          < =7::            ::7=== 3<<<      ==7::: <3<<      ::7==      <<<3 ===7::      <<3< :::777 7 777",
"77 7 7777: < <<3<<3<< < :7= <3<  <<  <3< =7: < <<3<<3<< < :7: <          < :7= <3        3< =7: <          < :7===   << <<  ===7::: 3<<<      ::7===  << <<   ===7::      <<<3 :::777 7 777",
"77 7 7777: <3<  <<  <3< :7==   <<<<<<   ==7: <3<  <<  <3< :7: <3        3< :7==   <    <   ==7: <3        3< :7=== <<<<<<<  ===7:::   << <<  :::7===  <<<<<<< ===7:::  << <<   :::777 7 777",
"77 7 7777::   <<<<<<   ::7====  <33<  ====7::   <<<<<<   ::7::   <    <   ::7====  <<<<  ====7::   <    <   ::7==== 3<3    ====7::: <<<<<<<  :::7====    3<3 ====7:::  <<<<<<< :::777 7 777",
"77 7 7777::::  <33<  ::::7=== 3  <   3 ===7::::  <33<  ::::7::::  <<<<  ::::7=== 3      3 ===7::::  <<<<  ::::7=== <      =====7:::: 3<3    ::::7=====      < ===7::::    3<3 ::::777 7 777",
"77 7 7777::: 3  <   3 :::7=== 3  <<  3 ===7::: 3   <  3 :::7::: 3      3 :::7=== 33    33 ===7::: 3      3 :::7=== <  333 =====7::: <      :::::7===== 333  < ===7:::::      < :::777 7 777",
"77 7 7777::: 3  <<  3 :::7====   <<   ====7::: 3  <<  3 :::7::: 33    33 :::7====        ====7::: 33    33 :::7====   33  =====7::: <  33   ::::7=====  33   ====7::::   33  < :::777 7 777",
"77 7 7777::::   <<   ::::7====        ====7::::   <<   ::::7::::        ::::7====        ====7::::        ::::7=====     ======7:: 33      3 :::7======     =====7::: 3      33 ::777 7 777",
"77 7 7777::::: 33   :::::7==== 33  33 ====7:::::   33 :::::7::::: 33 :::::::7==== 33  33 ====7::::::: 33 :::::7===== 3333 =====7::: 33    33 :::7===== 3333 =====7::: 33    33 :::777 7 777",
"77 7 7777::::::   :::::::7=====  ==  =====7:::::::   ::::::7::::::  ::::::::7=====  ==  =====7::::::::  ::::::7======    ======7::::   :::  ::::7======    ======7::::  :::   ::::777 7 777",
"77 7 77777777777777777777777777777777777777777777777777777777777777777777777777777777777777777777777777777777777777777777777777777777777777777777777777777777777777777777777777777777 7 777",
"77 7 7777::::::::::::::::7=== ==    ======7::::::::::::::::7::::::::::::::::7=== ==    ======7::::::::::::::::7=== ==    ======7::::::::::::::::7======    == ===7::::::::::::::::777 7 777",
"77 7 7777::: ::    ::::::7== +  ++++  ====7::::::    :: :::7::: ::    ::::::7== +  ++++  ====7::::::    :: :::7== +  ++++  ====7::: ::    ::::::7====  ++++  + ==7::::::    :: :::777 7 777",
"77 7 7777:: +  ++++  ::::7== +++++++++ ===7::::  ++++  + ::7:: +  ++++  ::::7== +++++++++ ===7::::  ++++  + ::7== +++++++++ ===7:: +  ++++  ::::7=== +++++++++ ==7::::  ++++  + ::777 7 777",
"77 7 7777:: +++++++++ :::7==  +++ +++++ ==7::: +++++++++ ::7:: +++++++++ :::7==  +++++++++ ==7::: +++++++++ ::7==  +  ++++++ ==7:: +++++++++ :::7== ++++++  +  ==7::: +++++++++ ::777 7 777",
"77 7 7777::  +++ +++++ ::7= +++  < ++++ ==7:: +++++ +++  ::7::  +++++++++ ::7= +++++++++++ ==7:: +++++++++  ::7= ++ <<  ++++ ==7::  +  ++++++ ::7== ++++  << ++ =7:: ++++++  +  ::777 7 777",
"77 7 7777: +++  < ++++ ::7== + <<<<   + ==7:: ++++ <  +++ :7: +++++++++++ ::7== ++++++++++ ==7:: +++++++++++ :7==  <<<<<  ++ ==7: ++ <<  ++++ ::7== ++  <<<<<  ==7:: ++++  << ++ :777 7 777",
"77 7 7777:: + <<<<   + ::7= < <<<<<<<< < =7:: +   <<<< + ::7:: ++++++++++ ::7= < ++++++++ < =7:: ++++++++++ ::7=== <  <<<< + ==7::  <<<<<  ++ ::7== + <<<<  < ===7:: ++  <<<<<  ::777 7 777",
"77 7 7777: < <<<<<<<< < :7= <+<  <<  <+< =7: < <<<<<<<< < :7: < ++++++++ < :7= <++++++++++< =7: < ++++++++ < :7=== <<<<<<<  ===7::: <  <<<< + ::7===  <<<<<<< ===7:: + <<<<  < :::777 7 777",
"77 7 7777: <+<  <<  <+< :7==  <<<<<<<<  +=7: <+<  <<  <+< :7: <++++++++++< :7==  ++++++++  ==7: <++++++++++< :7=== <<<<<  +====7::: <<<<<<<  :::7====+  <<<<< ===7:::  <<<<<<< :::777 7 777",
"77 7 7777::  <<<<<<<<  ::7= << <<++<< << =7::  <<<<<<<<  ::7::  ++++++++  ::7= << + ++ + << =7::  ++++++++  ::7==== +<< << ====7::: <<<<<<+ ::::7==== << <<+ ====7:::: +<<<<<< :::777 7 777",
"77 7 7777: << <<++<<  :::7= <<<      <<< =7:::  <<++<< << :7:: < + ++ +  :::7= <+< <  < <+< =7:::  + ++ + < ::7=== <    << ====7:::: +<<<+<< :::7==== <<    < ===7::: <<+<<<+ ::::777 7 777",
"77 7 7777: < <      << ::7 << <<<<<<<< << 7:: <<      < < :7: < < <  < << ::7 << <<<<<<<< << 7:: << <  < < < :7=== <<< <<< ====7::: <     << :::7==== <<< <<< ===7::: <<     < :::777 7 777",
"77 7 7777::    << <<<< ::7 <<           < 7:: <<<< <<    ::7::   <<<<< << ::7 <<           < 7:: << <<<<<   ::7====    <<< ====7::    <<< <<< ::7==== <<<    ====7:: <<< <<<    ::777 7 777",
"77 7 7777:::       <<< ::7=              =7:: <<<       :::7:::       <<< ::7=              =7:: <<<       :::7=====  +   =====7:: <<      << ::7=====   +  =====7:: <<      << ::777 7 777",
"77 7 7777::: <<<<     :::7=== <<<  <<< ===7:::     <<<< :::7::: <<<<     :::7=== <<<  <<< ===7:::     <<<< :::7==== <<<< ======7::: <<        ::7====== <<<< ====7::        << :::777 7 777",
"77 7 7777::::    ::::::::7==     ==     ==7::::::::    ::::7::::    ::::::::7==     ==     ==7::::::::    ::::7====      ======7::::   ::::  :::7======      ====7:::  ::::   ::::777 7 777",
"77 7 77777777777777777777777777777777777777777777777777777777777777777777777777777777777777777777777777777777777777777777777777777777777777777777777777777777777777777777777777777777 7 777",
"77 7 7777======    ======7======    ======7======    ======7======    ======777777777777777777777777777777777777777777777777777777777777777777777777777777777777777777777777777777777 7 777",
"77 7 7777====  <<<<  ====7====  <<<<  ====7====  <<<<  ====7====  <<<<  ====777777777777777777777777777777777777777777777777777777777777777777777777777777777777777777777777777777777 7 777",
"77 7 7777=== <<<<<<<< ===7=== <<<<<<<< ===7=== <<<<<<<< ===7=== <<<<<<<< ===777777777777777777777777777777777777777777777777777777777777777777777777777777777777777777777777777777777 7 777",
"77 7 7777== <<< << <<< ==7== <<<<<<<<<< ==7=== %  <<<<<< ==7== <<<<<<  % ===777777777777777777777777777777777777777777777777777777777777777777777777777777777777777777777777777777777 7 777",
"77 7 7777== << %  % << ==7== <<<<<<<<<< ==7===  << <<<<< ==7== <<<<< <<  ===777777777777777777777777777777777777777777777777777777777777777777777777777777777777777777777777777777777 7 777",
"77 7 7777== < <<<<<< < ==7== <<<<<<<<<< ==7=== <<<< <<<< ==7== <<<< <<<< ===777777777777777777777777777777777777777777777777777777777777777777777777777777777777777777777777777777777 7 777",
"77 7 7777= << <<<<<< << =7= <<<<<<<<<<<< =7=== < << <<< ===7=== <<< << < ===777777777777777777777777777777777777777777777777777777777777777777777777777777777777777777777777777777777 7 777",
"77 7 7777= << < << < << =7= <<<<<<<<<<<< =7=== < < <<<<< ==7== <<<<< < < ===777777777777777777777777777777777777777777777777777777777777777777777777777777777777777777777777777777777 7 777",
"77 7 7777== < < << < < ==7== <<<<<<<<<< ==7=== <<< <<<<<< =7= <<<<<< <<< ===777777777777777777777777777777777777777777777777777777777777777777777777777777777777777777777777777777777 7 777",
"77 7 7777== << <<<< << ==7== <<<<  <<<< ==7==== %<< <<<<< =7= <<<<< <<% ====777777777777777777777777777777777777777777777777777777777777777777777777777777777777777777777777777777777 7 777",
"77 7 7777= <<<<    <<<< =7= <<<<    <<<< =7=====   <<<<< ==7== <<<<<   =====777777777777777777777777777777777777777777777777777777777777777777777777777777777777777777777777777777777 7 777",
"77 7 7777== << <  < << ==7== <<      << ==7==== < <<<<<<< =7= <<<<<<< < ====777777777777777777777777777777777777777777777777777777777777777777777777777777777777777777777777777777777 7 777",
"77 7 7777===   <  <   ===7===          ===7==== <  << <  ==7==  < <<  < ====777777777777777777777777777777777777777777777777777777777777777777777777777777777777777777777777777777777 7 777",
"77 7 7777==== <    < ====7==== <    < ====7=====       ====7====       =====777777777777777777777777777777777777777777777777777777777777777777777777777777777777777777777777777777777 7 777",
"77 7 7777==== %%  %% ====7==== %%  %% ====7===== %%% ======7====== %%% =====777777777777777777777777777777777777777777777777777777777777777777777777777777777777777777777777777777777 7 777",
"77 7 7777=====  ==  =====7=====  ==  =====7======    ======7======    ======777777777777777777777777777777777777777777777777777777777777777777777777777777777777777777777777777777777 7 777",
"77 7 77777777777777777777777777777777777777777777777777777777777777777777777777777777777777777777777777777777777777777777777777777777777777777777777777777777777777777777777777777777 7 777",
"77 7 7777================7======     =====7================7================7======     =====7================7======      ====7================7====      ======7================777 7 777",
"77 7 7777======     =====7====         ===7=====     ======7======     =====7====         ===7=====     ======7====          ==7======      ====7==          ====7====      ======777 7 777",
"77 7 7777====         ===7===            =7===         ====7====         ===7===            =7===         ====7===             7====          ==7             ===7==          ====777 7 777",
"77 7 7777===            =7===           ==7=            ===7===            =7==            ==7=            ===7==             =7===             7=             ==7             ===777 7 777",
"77 7 7777==            ==7==   <    <   ==7==            ==7==            ==7==            ==7==            ==7==  <         ==7==             =7==         <  ==7=             ==777 7 777",
"77 7 7777==   <    <   ==7= < <<<  <<< < =7==   <    <   ==7==            ==7==            ==7==            ==7=== <<<       ==7==  <         ==7==       <<< ===7==         <  ==777 7 777",
"77 7 7777==  <<<  <<<  ==7= <<< <<<< <<< =7==  <<<  <<<  ==7==            ==7=              =7==            ==7=== << <<    ===7=== <<<       ==7===    << << ===7==       <<< ===777 7 777",
"77 7 7777= < < <<<< < < =7= <%<< << <<%< =7= < < <<<< < < =7=              =7= <          < =7=              =7=== < <<<%<< ===7=== << <<    ===7=== <<%<<< < ===7===    << << ===777 7 777",
"77 7 7777= <%<< << <<%< =7==  <<<<<<<<  ==7= <%<< << <<%< =7= <          < =7==  <      <  ==7= <          < =7=== <<<<<<< ====7=== < <<<%<< ===7==== <<<<<<< ===7=== <<%<<< < ===777 7 777",
"77 7 7777=   <<<<<<<< < =7==   <<%%<<   ==7= < <<<<<<<<   =7==  <      <  ==7===  <<<<<<  ===7==  <      <  ==7==== %<<<   ====7=== <<<<<<< ====7====   <<<% ====7==== <<<<<<< ===777 7 777",
"77 7 7777= <  <<%%<<   ==7= <<        << =7==   <<%%<<  < =7     <<<<<<   ==7==            ==7==   <<<<<<     7=====     <  ===7==== %<<<       7===  <     =====7       <<<% ====777 7 777",
"77 7 7777            <   7= <<  <%%<  << =7   <            7             < =7=              =7= <             7======  <<    ==7=====     <    =7==    <<  ======7=    <     =====777 7 777",
"77 7 7777      <%% <<    7     <<%%<<     7    << %%<      7=            < =7                7= <            =7======  <<     =7===   %< <<    =7=     <<  ======7=    << <%   ===777 7 777",
"77 7 7777=    <<%% <<   =7     %%%%%%     7=   << %%<<    =7=             ==7                7==             =7=====  %  %   ==7==     < <<   ==7==   %  %  =====7==   << <     ==777 7 777",
"77 7 7777===      =   ===7=              =7===   =      ===7===       ======7=              =7======       ===7=====       ====7===           ==7====       =====7==           ===777 7 777",
"77 7 7777=====   ========7====   ==   ====7========   =====7====   =========7====   ==   ====7=========   ====7======    ======7====   ====  ===7======    ======7===  ====   ====777 7 777",
"77 7 77777777777777777777777777777777777777777777777777777777777777777777777777777777777777777777777777777777777777777777777777777777777777777777777777777777777777777777777777777777 7 777",
"77 7 7777::::::::::::::::7=====      =====7::::::::::::::::7::::::::::::::::7=====      =====7::::::::::::::::7=====      =====7::::::::::::::::7=====      =====7::::::::::::::::777 7 777",
"77 7 7777:::::      :::::7==== %%%%%% ====7:::::      :::::7:::::      :::::7==== %%%%%% ====7:::::      :::::7==== %%%%%% ====7:::::      :::::7==== %%%%%% ====7:::::      :::::777 7 777",
"77 7 7777:::: %%%%%% ::::7=== %%%%%%%% ===7:::: %%%%%% ::::7:::: %%%%%% ::::7=== %%%%%%%% ===7:::: %%%%%% ::::7=== %%%%%%%% ===7:::: %%%%%% ::::7=== %%%%%%%% ===7:::: %%%%%% ::::777 7 777",
"77 7 7777::: %%%%%%%% :::7=== %%%%%%%% ===7::: %%%%%%%% :::7::: %%%%%%%% :::7=== %%%%%%%% ===7::: %%%%%%%% :::7==  <%%%%%%% ===7::: %%%%%%%% :::7=== %%%%%%%<  ==7::: %%%%%%%% :::777 7 777",
"77 7 7777::: %%%%%%%% :::7==   %<<<<%   ==7::: %%%%%%%% :::7::: %%%%%%%% :::7==  %%%%%%%%  ==7::: %%%%%%%% :::7= <<<<%%%%%   ==7::  <%%%%%%% :::7==   %%%%%<<<< =7::: %%%%%%%<  ::777 7 777",
"77 7 7777::   %<<<<%   ::7==  <      <  ==7::   %<<<<%   ::7::  %%%%%%%%  ::7==   %%%%%%   ==7::  %%%%%%%%  ::7==  %%%       ==7: <<<<%%%%%   ::7==       %%%  ==7::   %%%%%<<<< :777 7 777",
"77 7 7777::            ::7= < <<<<<<<< < =7::            ::7::   %%%%%%   ::7= <          < =7::   %%%%%%   ::7=== < <<      ==7::  %%%       ::7==      << < ===7::       %%%  ::777 7 777",
"77 7 7777: < <<<<<<<< < :7= <<<< << <<<< =7: < <<<<<<<< < :7: <          < :7= <<        << =7: <          < :7=== < << <<  ===7::: < <<      ::7===  << << < ===7::      << < :::777 7 777",
"77 7 7777: <<<< << <<<< :7==  << << <<  ==7: <<<< << <<<< :7: <<        << :7==  <<    <<  ==7: <<        << :7=== <<<<<<< ====7::: < << <<  :::7==== <<<<<<< ===7:::  << << < :::777 7 777",
"77 7 7777:   << << <<  ::7==   <<%%<<   ==7::  << << <<   :7:   <<    <<  ::7==    %%%%    ==7::  <<    <<   :7==== %<<<  % ===7::: <<<<<<< ::::7=== %  <<<% ====7:::: <<<<<<< :::777 7 777",
"77 7 7777: <  <<%%<< % ::7= <<        << =7:: % <<%%<<  < :7: <   %%%%    ::7= <  %    %  < =7::    %%%%   < :7=====     %% ===7:::: %<<<  % :::7=== %%     =====7::: %  <<<% ::::777 7 777",
"77 7 7777::          < ::7= <<        << =7:: <          ::7::   %    % << :7= <  %%<<%%  < =7: << %    %   ::7======  << % ===7:::::      % :::7=== % <<  ======7::: %      :::::777 7 777",
"77 7 7777:::  %    <<  ::7==   %%  %%   ==7::  <<    %  :::7:::  %%<<%% << :7==    %%%%    ==7: << %%<<%%  :::7======  << % ===7:::      <<  :::7=== % <<  ======7:::  <<      :::777 7 777",
"77 7 7777::::   %% << :::7=== %  %%  % ===7::: << %%   ::::7::::  %%%%    ::7=== %      % ===7::    %%%%  ::::7===== %%    ====7:: %% %% << % ::7====    %% =====7:: % << %% %% ::777 7 777",
"77 7 7777:::: %%  :  ::::7=== %%%  %%% ===7::::  :  %% ::::7:::: %    ::::::7=== %%%  %%% ===7::::::    % ::::7===== %%%% =====7::: %%     %% ::7===== %%%% =====7:: %%     %% :::777 7 777",
"77 7 7777:::::   ::::::::7====   ==   ====7::::::::   :::::7:::::   ::::::::7====   ==   ====7::::::::   :::::7======    ======7::::   ::::  :::7======    ======7:::  ::::   ::::777 7 777",
"77 7 77777777777777777777777777777777777777777777777777777777777777777777777777777777777777777777777777777777777777777777777777777777777777777777777777777777777777777777777777777777 7 777",
"77 7 7777::::::::::::::::7:::::      :::::7::::::::::::::::7::::::::::::::::7:::::      :::::7::::::::::::::::7:::::      :::::7::::::::::::::::7:::::      :::::7::::::::::::::::777 7 777",
"77 7 7777:::::      :::::7:::: %%%%%% ::::7:::::      :::::7:::::      :::::7:::: %%%%%% ::::7:::::      :::::7:::: %%%%%% ::::7:::::      :::::7:::: %%%%%% ::::7:::::      :::::777 7 777",
"77 7 7777:::: %%%%%% ::::7::: %%%% %%% :::7:::: %%%%%% ::::7:::: %%%%%% ::::7::: %%%%%%%% :::7:::: %%%%%% ::::7::: %%%%%%%% :::7:::: %%%%%% ::::7::: %%%%%%%% :::7:::: %%%%%% ::::777 7 777",
"77 7 7777::: %%%% %%% :::7::: %%%  %%% :::7::: %%% %%%% :::7::: %%%%%%%% :::7::: %%%%%%%% :::7::: %%%%%%%% :::7:::  %%%%%%<  ::7::: %%%%%%%% :::7::  <%%%%%%  :::7::: %%%%%%%% :::777 7 777",
"77 7 7777::: %%%  %%% :::7::  %%    %%  ::7::: %%%  %%% :::7::: %%%%%%%% :::7::  %%%%%%%%  ::7::: %%%%%%%% :::7::   %%%%%<<<< :7:::  %%%%%%<  ::7: <<<<%%%%%   ::7::  <%%%%%%  :::777 7 777",
"77 7 7777::  %%    %%  ::7::    %%%%    ::7::  %%    %%  ::7::  %%%%%%%%  ::7::   %<<<<%   ::7::  %%%%%%%%  ::7::       %%%  ::7::   %%%%%<<<< :7::  %%%       ::7: <<<<%%%%%   ::777 7 777",
"77 7 7777::    %%%%    ::7: < <<<<<<<< < :7::    %%%%    ::7::   %<<<<%   ::7: <          < :7::   %<<<<%   ::7::: < <<      ::7::       %%%  ::7::      << < :::7::  %%%       ::777 7 777",
"77 7 7777: < <<<<<<<< < :7: <<<< << <<<< :7: < <<<<<<<< < :7: <          < :7: <<        << :7: <          < :7::: < << <<  :::7::: < <<      ::7:::  << << < :::7::      << < :::777 7 777",
"77 7 7777: <<<< << <<<< :7::  << << <<  ::7: <<<< << <<<< :7: <<        << :7::            ::7: <<        << :7::: <<<<<<< ::::7::: < << <<  :::7:::: <<<<<<< :::7:::  << << < :::777 7 777",
"77 7 7777:   << << <<  ::7:::  <<%%<<  :::7::  << << <<   :7:             ::7::: <<    << :::7::             :7:::: %<<<   ::::7::: <<<<<<< ::::7::::   <<<% ::::7:::: <<<<<<< :::777 7 777",
"77 7 7777: <  <<%%<<   ::7::  <%    %<  ::7::   <<%%<<  < :7: < <%    %<  ::7:: % <<<<<< % ::7::  <%    %< < :7:::::     < ::::7:::: %<<<  < :::7:::: <     :::::7::: <  <<<% ::::777 7 777",
"77 7 7777::          < ::7: << <<%%<< << :7:: <          ::7::   <<<<<< << :7: < %%%<<%%% < :7: << <<<<<<   ::7::::::  %% :::::7:::::   %    :::7::::: %%  ::::::7:::    %   :::::777 7 777",
"77 7 7777::::      << :::7: << %%<<%% << :7::: <<      ::::7:::  %%<<%% << :7: <  %%%%%%  < :7: << %%<<%%  :::7::::: << < :::::7:::  <%% <<  :::7::::: < << :::::7:::  << %%<  :::777 7 777",
"77 7 7777::::   %% << :::7::            ::7::: << %%   ::::7::::   %%%    ::7::            ::7::    %%%   ::::7::::: <<   :::::7:: <% << << % ::7:::::   << :::::7:: % << << %< ::777 7 777",
"77 7 7777:::: <%  :  ::::7::: <%    %< :::7::::  :  %< ::::7:::: <%   ::::::7::: <%    %< :::7::::::   %< ::::7:::: <  %  :::::7::: %%  %  <% ::7:::::  %  < ::::7:: %<  %  %% :::777 7 777",
"77 7 7777:::::   ::::::::7::::   ::   ::::7::::::::   :::::7:::::   ::::::::7::::   ::   ::::7::::::::   :::::7:::::     ::::::7::::   ::::  :::7::::::     :::::7:::  ::::   ::::777 7 777",
"77 7 77777777777777777777777777777777777777777777777777777777777777777777777777777777777777777777777777777777777777777777777777777777777777777777777777777777777777777777777777777777 7 777",
"77 7 77777777777777777777777777777777777777777777777777777777777777777777777777777777777777777777777777777777777777777777777777777777777777777777777777777777777777777777777777777777 7 777",
"77 7 77777777777777777777777777777777777777777777777777777777777777777777777777777777777777777777777777777777777777777777777777777777777777777777777777777777777777777777777777777777 7 777",
"77 7 77777777                                                                                                                                                                77777777 7 777",
"77 7 7777777 7777777777777777777777777777777777777777777777777777777777777777777777777777777777777777777777777777777777777777777777777777777777777777777777777777777777777777 7777777 7 777",
"77 7 777777 77                                                                                                                                                              77 777777 7 777",
"77 7 777777 7                                                                                                                                                                7 777777 7 777",
"77 7 777777 7  777777777777777777777777777777777777777777777777777777777777777777777777777777777777777777777777777777777777777777777777777777777777777777777777777777777777  7 777777 7 777",
"77 7 777777 7 77777777777777777777777777777777777777777777777777777777777777777777777777777777777777777777777777777777777777777777777777777777777777777777777777777777777777 7 777777 7 777",
"77 7 777777 7 777      77777777777 777777777  777777777777777777777777777777777777777777777777777777777777777777777777777777777777777777777777777777777777777777777777777777 7 777777 7 777",
"77 7 777777 7 777 77777 7777777777 7777777  77777777777777777777777777777777777777777777777777777777777777777777777777777777777777777777777777777777777777777777777777777777 7 777777 7 777",
"77 7 777777 7 777 77777 777    777 777  7777    777   7  7777    777    7777777777777777777777777777777777777777777777777777777777777777777777777777777777777777777777777777 7 777777 7 777",
"77 7 777777 7 777      777 7777 77 7  77777 7777 77 77 77 77 7777 77 777 777777777777777777777777777777777777777777777777777777777777777777777777777777777777777777777777777 7 777777 7 777",
"77 7 777777 7 777 77777777 7777 77  7777777      77 77 77 77 7777 77 777 777777777777777777777777777777777777777777777777777777777777777777777777777777777777777777777777777 7 777777 7 777",
"77 7 777777 7 777 77777777 7777 77 7  77777 7777777 77 77 77 7777 77 777 777777777777777777777777777777777777777777777777777777777777777777777777777777777777777777777777777 7 777777 7 777",
"77 7 777777 7 777 777777777    777 777  7777     77 77 77 777    777 777 777777777777777777777777777777777777777777777777777777777777777777777777777777777777777777777777777 7 777777 7 777",
"77 7 777777 7 77777777777777777777777777777777777777777777777777777777777777777777777777777777777777777777777777777777777777777777777777777777777777777777777777777777777777 7 777777 7 777",
"77 7 777777 7 77777777777777777777777777777777777777777777777777777777777777777777777777777777777777777777777777777777777777777777777777777777777777777777777777777777777777 7 777777 7 777",
"77 7 777777 7 77777777777777777777777777777777777777777777777777777777777777777777777777777777777777777777777777777777777777777777777777777777777777777777777777777777777777 7 777777 7 777",
"77 7 777777 77                                                                                                                                                              77 777777 7 777",
"77 7 777777  7777777777777777777777777777777777777777777777777777777777777777777777777777777777777777777777777777777777777777777777777777777777777777777777777777777777777777  777777 7 777",
"77 7 7777777                                                                                                                                                                  7777777 7 777",
"77 7 77777777                                                                                                                                                                77777777 7 777",
"77 7 77777777777777777777777777777777777777777777777777777777777777777777777777777777777777777777777777777777777777777777777777777777777777777777777777777777777777777777777777777777 7 777",
"77 7 77777777777777777777777777777777777777777777777777777777777777777777777777777777777777777777777777777777777777777777777777777777777777777777777777777777777777777777777777777777 7 777",
"77 7 77777777777777777777777777777777777777777777777777777777777777777777777777777777777777777777777777777777777777777777777777777777777777777777777777777777777777777777777777777777 7 777",
"77 7 7777=======  =======7================7=======  =======7=======  =======7================7=======  =======7====    %  %====7========%  %====7====%  %    ====7====%  %========777 7 777",
"77 7 7777======    ======7=======%  ======7======    ======7======    ======7=======%  ======7======    ======7=== %%%%     ===7====      ======7===     %%%% ===7======      ====777 7 777",
"77 7 7777===== %%%% =====7======    ======7===== %%%% =====7===== %  % =====7======    ======7===== %  % =====7== % <%%% %%% ==7=== %%%% =======7== %%% %%%< % ==7======= %%%% ===777 7 777",
"77 7 7777====%<%%%%<%====7===== %%%% =====7====%<%%%%<%====7====%%%%%%%%====7===== %  % =====7====%%%%%%%%====7== %  %% %%%%% =7== % <%%% ======7= %%%%% %%  % ==7====== %%%< % ==777 7 777",
"77 7 7777= ==  %%%%  == =7====%<%%%%<%====7= ==  %%%%  == =7= == %%%%%% == =7====%%%%%%%%====7= == %%%%%% == =7=  %%%% %%%%%% =7== %  %%% ======7= %%%%%% %%%%  =7====== %%%  % ==777 7 777",
"77 7 7777 % = %%  %% = % 7====  %%%%  ====7 % = %%  %% = % 7 % = %<  <% = % 7==== %%%%%% ====7 % = %<  <% = % 7 <% %% %%%%%%%%=7=  %%%%%% ======7=%%%%%%%% %% %< 7====== %%%%%%  =777 7 777",
"77 7 7777 %% %% << %% %% 7==== %%  %% ====7 %% %% << %% %% 7 %% %< << <% %% 7==== %%%%%% ====7 %% %< << <% %% 7=  %<% %%%%%% ==7 <% %%%%  === ==7== %%%%%% %<%  =7== ===  %%%% %< 777 7 777",
"77 7 7777 %%% <<  << %%% 7====%% <% %%====7 %%% <<  << %%% 7 %%%  <<<<  %%% 7====%%<  <%%====7 %%%  <<<<  %%% 7== <<<<%%%% < ==7=  %<%%%%%  %< =7== < %%%%<<<< ==7= <%  %%%%%<%  =777 7 777",
"77 7 7777 %%%<<<<<<<<%%% 7===% <<  << %===7 %%%<<<<<<<<%%% 7 %%%%<<<<<<%%%% 7===  < << <  ===7 %%%%<<<<<<%%%% 7== <<<<<%% < %==7== << %%%%%%  < 7==% < %%<<<<< ==7 <  %%%%%% << ==777 7 777",
"77 7 7777= %%<<<<<<<<%% =7=== <<<<<<<< ===7= %%<<<<<<<<%% =7= %%<<<<<<<<%% =7== %  <<<<  % ==7= %%<<<<<<<<%% =7=== <<<<<<< ====7== <<< %%%%%%% =7==== <<<<<<< ===7= %%%%%%% <<< ==777 7 777",
"77 7 7777==  <<<<<<<<  ==7== %<<<<<<<<% ==7==  <<<<<<<<  ==7==  %<<<<<<%  ==7== %%<<<<<<%% ==7==  %<<<<<<%  ==7==== %<<<% =====7==%<<< %%%%%% ==7===== %<<<% ====7== %%%%%% <<<%==777 7 777",
"77 7 7777==== <<<<<< ====7== %<<<<<<<<% ==7==== <<<<<< ====7==== <<<<<< ====7== %%<<<<<<%% ==7==== <<<<<< ====7======   =======7=== <<<  %%% ===7=======   ======7=== %%%  <<< ===777 7 777",
"77 7 7777===== %<<% =====7=== %<<<<<<% ===7===== %<<% =====7===== %<<% =====7=== %%<<<<%% ===7===== %<<% =====7======= %=======7==== %<<%   ====7=======% =======7====   %<<% ====777 7 777",
"77 7 7777======    ======7===== %<<% =====7======    ======7======    ======7====  <<<<  ====7======    ======7======== =======7======   =======7======= ========7=======   ======777 7 777",
"77 7 7777====== == ======7======    ======7====== == ======7====== == ======7======%  %======7====== == ======7================7====== %========7================7========% ======777 7 777",
"77 7 7777======%==%======7===== %==% =====7======%==%======7================7===== %==% =====7================7================7===== %=========7================7=========% =====777 7 777",
"77 7 77777777777777777777777777777777777777777777777777777777777777777777777777777777777777777777777777777777777777777777777777777777777777777777777777777777777777777777777777777777 7 777",
"77 7 7777================7================7================7================7================7================7================7================7================7================777 7 777",
"77 7 7777================7================7================7================7================7================7================7================7================7================777 7 777",
"77 7 7777================7======    ======7================7================7======    ======7================7===   ==     ===7================7===     ==   ===7================777 7 777",
"77 7 7777======    ======7=     <<<<     =7======    ======7======    ======7=     <<<<     =7======    ======7== <<%       ===7===   ==     ===7===       %<< ==7===     ==   ===777 7 777",
"77 7 7777=     <<<<     =7=  <  %<<%  <  =7=     <<<<     =7=     <<<<     =7=  <   <<   <  =7=     <<<<     =7= <<  < <<<  ===7== <<%       ===7===  <<< <  << =7===       %<< ==777 7 777",
"77 7 7777=  <  %<<%  <  =7==  << %% <<  ==7=  <  %<<%  <  =7=  <   <<   <  =7==  <<%  %<<  ==7=  <   <<   <  =7= % <<<<<<< ====7= <<  < <<<  ===7==== <<<<<<< % =7===  <<< <  << =777 7 777",
"77 7 7777==  << %% <<  ==7=== <<<  <<< ===7==  << %% <<  ==7==  <<%  %<<  ==7=== <<<<<<<< ===7==  <<%  %<<  ==7== <<<<<<<% ====7= % <<<<<<< ====7==== %<<<<<<< ==7==== <<<<<<< % =777 7 777",
"77 7 7777=== <<<  <<< ===7== << <<<< << ==7=== <<<  <<< ===7=== <<<<<<<< ===7== <<<%  %<<< ==7=== <<<<<<<< ===7== < <<<<<<< ===7== <<<<<<<% ====7=== <<<<<<< < ==7==== %<<<<<<< ==777 7 777",
"77 7 7777=  << <<<< <<  =7== <<<<<<<<<< ==7=  << <<<< <<  =7=  <<<%  %<<<  =7== << <<<< << ==7=  <<<%  %<<<  =7=%<<<<<<<<<<  ==7== < <<<<<<<  ==7==  <<<<<<<<<<%=7==  <<<<<<< < ==777 7 777",
"77 7 7777 <%<<<<<<<<<<%< 7= <<%<<  <<%<< =7 <%<<<<<<<<<<%< 7 <%<< <<<< <<%< 7= <<%<<%%<<%<< =7 <%<< <<<< <<%< 7=  <<% << << < =7=%<<<<<<<<<< < =7= < << << %<<  =7= < <<<<<<<<<<%=777 7 777",
"77 7 7777= <<%<<  <<%<< =7 <%<<<<<<<<<<%< 7= <<%<<  <<%<< =7= <<%<<%%<<%<< =7 <%< <%<<%< <%< 7= <<%<<%%<<%<< =7= <<<<< < << < =7=  <<% << << < =7= < << < <<<<< =7= < << << %<<  =777 7 777",
"77 7 7777= %<<<<<<<<<<% =7=  <<<<<<<<<<  =7= %<<<<<<<<<<% =7= %< <%<<%< <% =7=  < <%<<%< <  =7= %< <%<<%< <% =7= <<<<<<  << < =7= <<<<<  <<< < =7= < <<  <<<<<< =7= < <<<  <<<<< =777 7 777",
"77 7 7777== <<<<<<<<<< ==7== %<<<<<<<<% ==7== <<<<<<<<<< ==7== < <%<<%< < ==7== %< <%%< <% ==7== < <%<<%< < ==7= %<<<<<<<<% % =7= <<<<<<<<<< % =7= % %<<<<<<<<% =7= % <<<<<<<<<< =777 7 777",
"77 7 7777== %   <<<<< ===7=== %<<<<<<% ===7=== <<<<<   % ==7== %   %%< <<%==7=== %<    <% ===7==%<< <%%   % ==7== %<<<<<<% % ==7 % %<<<<<<<%  ==7== % %<<<<<<% ==7==  %<<<<<<<% % 777 7 777",
"77 7 7777=== %%% %  %====7==== %%  %% ====7====%  % %%% ===7=== %%%   %  ===7==== %%  %% ====7===  %   %%% ===7===  %%%%    ===7= %  %%%%%%  ===7===    %%%%  ===7===  %%%%%%  % =777 7 777",
"77 7 7777====   =========7=====  ==  =====7=========   ====7====   =========7=====  ==  =====7=========   ====7=====    =======7==         =====7=======    =====7=====         ==777 7 777",
"77 7 77777777777777777777777777777777777777777777777777777777777777777777777777777777777777777777777777777777777777777777777777777777777777777777777777777777777777777777777777777777 7 777",
"77 7 7777================7=======  =======7================7================7=======  =======7================7====  ==========7::::::::::::::::7==========  ====7::::::::::::::::777 7 777",
"77 7 7777=======  =======7=      <<      =7=======  =======7=======  =======7=      <<      =7=======  =======7=== <<   =======7::::  ::::::::::7=======   << ===7::::::::::  ::::777 7 777",
"77 7 7777=      <<      =7= << % << % << =7=      <<      =7=      <<      =7= << % << % << =7=      <<      =7=== <<%%%    ===7::: <<   :::::::7===    %%%<< ===7:::::::   << :::777 7 777",
"77 7 7777= << % << % << =7== <%%%%%%%%< ==7= << % << % << =7= << % << % << =7== <%%%%%%%%< ==7= << % << % << =7=== %%%%% <<< ==7::: <<%%%    :::7== <<< %%%%% ===7:::    %%%<< :::777 7 777",
"77 7 7777== <%%%%%%%%< ==7=== % %%%% % ===7== <%%%%%%%%< ==7== <%%%%%%%%< ==7=== %%%<<%%% ===7== <%%%%%%%%< ==7== %%%%%%<<<< ==7::: %%%%% <<< ::7== <<<<%%%%%% ==7:: <<< %%%%% :::777 7 777",
"77 7 7777=== % %%%% % ===7== %%  <<  %% ==7=== % %%%% % ===7=== %%%<<%%% ===7== %%%%%%%%%% ==7=== %%%<<%%% ===7=  %%% %%%<< ===7:: %%%%%%<<<< ::7=== <<%%% %%%  =7:: <<<<%%%%%% ::777 7 777",
"77 7 7777== %%  <<  %% ==7== %%%%%%%%%% ==7== %%  <<  %% ==7== %%%%%%%%%% ==7== %%%%<<%%%% ==7== %%%%%%%%%% ==7 <%%   %%%% ====7:  %%% %%%<  :::7==== %%%%   %%< 7:::  <%%% %%%  :777 7 777",
"77 7 7777   %%%%%%%%%%   7===   %<<%   ===7   %%%%%%%%%%   7   %%%%<<%%%%   7===   %%%%   ===7   %%%%<<%%%%   7 %%%%%%%%% =====7 <%%   %%% % :::7===== %%%%%%%%% 7::: % %%%   %%< 777 7 777",
"77 7 7777 %%   %<<%   %% 7== % <    < % ==7 %%   %<<%   %% 7 %%   %%%%   %% 7== % %    % % ==7 %%   %%%%   %% 7=   < %%%%  ====7 %%%%%%%% %% :::7====  %%%% <   =7::: %% %%%%%%%% 777 7 777",
"77 7 7777 %%% <    < %%% 7= % % <<<< % % =7 %%% <    < %%% 7 %%% %    % %%% 7= % %%%%%%%% % =7 %%% %    % %%% 7== < <<%% %% ===7:   < %%% %%% ::7=== %% %%<< < ==7:: %%% %%% <   :777 7 777",
"77 7 7777= % % <<<< % % =7 %% %%    %% %% 7= % % <<<< % % =7= % %%%  %%% % =7 %% %%%  %%% %% 7= % %%%  %%% % =7===      %%%%  =7:: < <<% %%%  ::7=  %%%%      ===7::  %%% %<< < ::777 7 777",
"77 7 7777==  %%    %%  ==7=   %<<<<<<%   =7==  %%    %%  ==7==  %% %% %%  ==7=   %% %% %%   =7==  %% %% %%  ==7====== << %%% % 7:::     <%%%%% :7 % %%% << ======7: %%%%%<     :::777 7 777",
"77 7 7777==  %<<<<<<% ===7===  <<<<<<  ===7=== %<<<<<<%  ==7==  %%%%%%%% ===7===  %%%%%%  ===7=== %%%%%%%%  ==7====== <<% % %% 7:::   <<<%%% %% 7 %% % %<< ======7 %% %%%<<<   :::777 7 777",
"77 7 7777== %  <<<<   ===7== %  <<<<  % ==7===   <<<<  % ==7== %  %%%%   ===7== %  %%%%  % ==7===   %%%%  % ==7=======  %% << =7:: <%% <%%% % % 7= << %%  =======7 % % %%%< %%< ::777 7 777",
"77 7 7777== <%<      ====7== <%<    <%< ==7====      <%< ==7== %%%      ====7== %%%    %%% ==7====      %%% ==7====== <%%%   ==7::: %%     <%  :7==   %%%< ======7:  %<     %% :::777 7 777",
"77 7 7777===   ==========7===   ====   ===7==========   ===7===   ==========7===   ====   ===7==========   ===7=======    =====7::::   ::::  :::7=====    =======7:::  ::::   ::::777 7 777",
"77 7 77777777777777777777777777777777777777777777777777777777777777777777777777777777777777777777777777777777777777777777777777777777777777777777777777777777777777777777777777777777 7 777",
"77 7 7777================7====        ====7================7================7=====      =====7================7==   ===========7================7===========   ==7================777 7 777",
"77 7 7777=====      =====7==== %%<%%% ====7=====      =====7=====      =====7==== %%%%%% ====7=====      =====7= <%%   ========7==   ===========7========   %%< =7===========   ==777 7 777",
"77 7 7777==== %%<%%% ====7===== %%%% =====7==== %%%<%% ====7==== %%%%%% ====7===== %%%% =====7==== %%%%%% ====7== %%%%% =======7= <%%   ========7======= %%%%% ==7========   %%< =777 7 777",
"77 7 7777===== %%%% =====7===  <<%%<<  ===7===== %%%% =====7===== %%%% =====7==== %%%%%% ====7===== %%%% =====7= <<<%%% =======7== %%%%% =======7======= %%%<<< =7======= %%%%% ==777 7 777",
"77 7 7777===  <<%%<<  ===7== < < << < < ==7===  <<%%<<  ===7==== %%%%%% ====7==== % %% % ====7==== %%%%%% ====7 %< <<% ========7= <<<%%% =======7======== %<< <% 7======= %%%<<< =777 7 777",
"77 7 7777<= < < << < < =<7== < <<%%<< < ==7<= < < << < < =<7==== % %% % ====7====  <  <  ====7==== % %% % ====7 %%<<%% ========7 %< <<% ========7======== %%<<%% 7======== %<< <% 777 7 777",
"77 7 7777== < <<%%<< < ==7= <<% %%%% %<< =7== < <<%%<< < ==7====  <  <  ====7=== <<%<<%<< ===7====  <  <  ====7 %%%%%  = ======7 %%<<%% ========7====== =  %%%%% 7======== %%<<%% 777 7 777",
"77 7 7777< <<% %%%% %<< <7= %%  %%%%  %% =7< <<% %%%% %<< <7=== <<%<<%<< ===7== <<<<<<<<<< ==7=== <<%<<%<< ===7=    %%  <  ====7 %%%%%  = ======7====  <  %%    =7====== =  %%%%% 777 7 777",
"77 7 7777= %%  %%%%  %% =7=   %% %% %%   =7= %%  %%%%  %% =7<= <<<<<<<<<< =<7== <<<<<<<<<< ==7<= <<<<<<<<<< =<7=== <%% <<<<  ==7=    %%  <  ====7==  <<<< %%< ===7====  <  %%    =777 7 777",
"77 7 7777<   %% %% %%   <7= %%%%<  <%%%% =7<   %% %% %%   <7== <<<<<<<<<< ==7= %<<<<<<<<<<% =7== <<<<<<<<<< ==7=== <%%% <<<<< =7=== <%% <<<<  ==7= <<<<< %%%< ===7==  <<<< %%< ===777 7 777",
"77 7 7777< %%%%<  <%%%% <7< %%%%<<<<%%%% <7< %%%%<  <%%%% <7= %<<<<<<<<<<% =7= %%<<<<<<<<%% =7= %<<<<<<<<<<% =7== <<%%% %<<<< =7=== <%%% <<<<< =7= <<<<% %%%<< ==7= <<<<< %%%< ===777 7 777",
"77 7 7777=< %%%<<<<%%% <<7<< %%<<<<<<%% <<7<< %%%<<<<%%% <=7< %%<<<<<<<<%% <7=<  %%<<<<%%  <=7< %%<<<<<<<<%% <7== <%%%% %%%%<< 7== <<%%% %<<<< =7 <<%%%% %%%%< ==7= <<<<% %%%<< ==777 7 777",
"77 7 7777=< %%<<<<<<%% <=7== %%<<<<<<%% ==7=< %%<<<<<<%% <=7<<  %%<<<<%%  <<7== %  %%%%  % ==7<<  %%<<<<%%  <<7= <<%%%%%  %%%  7== <%%%% %%%%<< 7  %%%  %%%%%<< =7 <<%%%% %%%%< ==777 7 777",
"77 7 7777===%<<<<<<<<%===7==<%<<<<<<<<%<==7===%<<<<<<<<%===7== %  %%%%  % ==7=<<%%%    %%%<<=7== %  %%%%  % ==7= <<%%%%%%%   % 7= <<%%%%%  %%%  7 %   %%%%%%%<< =7  %%%  %%%%%<< =777 7 777",
"77 7 7777====%%<<<<%%====7====%%<<<<%%====7====%%<<<<%%====7==<<%%    %%<<==7====%%%%%%%%====7==<<%%    %%<<==7= <<<%%%%%%%%%% 7= <<%%%%%%%   % 7 %%%%%%%%%%<<< =7 %   %%%%%%%<< =777 7 777",
"77 7 7777======%%%%======7======%%%%======7======%%%%======7<=====%%%%=====<7======%%%%======7<=====%%%%=====<7== <<<<%<%<%<< =7== <<%%<%<%<<% =7= <<%<%<%<<<< ==7= %<<%<%<%%<< ==777 7 777",
"77 7 77777777777777777777777777777777777777777777777777777777777777777777777777777777777777777777777777777777777777777777777777777777777777777777777777777777777777777777777777777777 7 777",
"77 7 7777::::::::::::::::7:   ::    ::   :7::::::::::::::::7::::::::::::::::7:   ::    ::   :7::::::::::::::::7=====   ========7================7========   =====7================777 7 777",
"77 7 7777:   ::    ::   :7: %<  %%%%  <% :7:   ::    ::   :7:   ::    ::   :7: <%  %%%%  %< :7:   ::    ::   :7==== %%% =   ===7=====   ========7===   = %%% ====7========   =====777 7 777",
"77 7 7777: %<  %%%%  <% :7:: %< %%%% <% ::7: %<  %%%%  <% :7: <%  %%%%  %< :7:: <% %%%% %< ::7: <%  %%%%  %< :7=== %%%%% %<< ==7==== %%% =   ===7== <<% %%%%% ===7===   = %%% ====777 7 777",
"77 7 7777:: %< %%%% <% ::7:::  %%%%%%  :::7:: %< %%%% <% ::7:: <% %%%% %< ::7:::  %%%%%%  :::7:: <% %%%% %< ::7== %%%  %<<% ===7=== %%%%% %<< ==7=== %<<%  %%% ==7== <<% %%%%% ===777 7 777",
"77 7 7777:::  %%%%%%  :::7::: < %%%% < :::7:::  %%%%%%  :::7:::  %%%%%%  :::7::: %%%%%%%% :::7:::  %%%%%%  :::7=  %% < %    ===7== %%%  %<<% ===7===    % < %%  =7=== %<<%  %%% ==777 7 777",
"77 7 7777::: < %%%% < :::7::  <  %%  <  ::7::: < %%%% < :::7::: %%%%%%%% :::7:: %%%%%%%%%% ::7::: %%%%%%%% :::7 %%%  < %%  < ==7=  %% < %    ===7== <  %% <  %%% 7===    % < %%  =777 7 777",
"77 7 7777::  <  %%  <  ::7:  %%%%%%%%%%  :7::  <  %%  <  ::7:: %%%%%%%%%% ::7:  %%%%%%%%%%  :7:: %%%%%%%%%% ::7 %%%%%%%%%  %% =7 %%%  < %%  < ==7= %%  %%%%%%%%% 7== <  %% <  %%% 777 7 777",
"77 7 7777:  %%%%%%%%%%  :7 <   % %% %   < 7:  %%%%%%%%%%  :7:  %%%%%%%%%%  :7 <%  %%  %%  %< 7:  %%%%%%%%%%  :7=   < %%%  %%%% 7 %%%%%%%%%  %% =7 %%%%  %%% <   =7= %%  %%%%%%%%% 777 7 777",
"77 7 7777 <   % %% %   < 7 %    %%%%    % 7 <   % %% %   < 7 <%  %%  %%  %< 7 %%%%  %%  %%%% 7 <%  %%  %%  %< 7== < <<%%  %%%% 7=   < %%%  %%%% 7 %%%%  %%<< < ==7 %%%%  %%% <   =777 7 777",
"77 7 7777 %    %%%%    % 7   %        %   7 %    %%%%    % 7 %%%%  %%  %%%% 7 %%%%% %% %%%%% 7 %%%%  %%  %%%% 7===      % %%%% 7== < <<%%  %%%% 7 %%%% %      ===7 %%%%  %%<< < ==777 7 777",
"77 7 7777   %        %   7: % %%<<<<%% % :7   %        %   7 %%%%% %% %%%%% 7: %%%% %% %%%% :7 %%%%% %% %%%%% 7==== <<< %% %%  7===      % %%%% 7  %% %% <<< ====7 %%%% %      ===777 7 777",
"77 7 7777: % %%<<<<%% % :7 <% %<<<<<<% %< 7: % %%<<<<%% % :7: %%%% %% %%%% :7  %%% %%%% %%%  7: %%%% %% %%%% :7==== <<<% %%  % 7==== << %% %%%  7 %  %% %<<< ====7  %%% %% << ====777 7 777",
"77 7 7777 <% %<<<<<   %< 7: %  <<<<<<  % :7 <%   <<<<<% %< 7: %%% %%%% %%% :7:: %  %%%%  %  :7: %%% %%%% %%% :7===== <<%    % =7==== << %% %% % 7= %    %<< =====7 % %% %% << ====777 7 777",
"77 7 7777: %    << <%<  :7:: %% <<<< %% ::7:  <%< <<    % :7:: %  %%%%  % ::7::  %  %%  %  ::7:: %  %%%%  % ::7=====  %%% %% ==7===   <<  %  % =7== %% %%%  =====7= %  %  <<   ===777 7 777",
"77 7 7777::  <%<      :::7:: <%<    <%< ::7:::      <%<  ::7:::  % %%    :::7:: %%%    %%% ::7:::    %% %  :::7==== <%%%%   ===7== <%%%%  %%  ==7===   %%%%< ====7==  %%  %%%%< ==777 7 777",
"77 7 7777::::   :::::::::7:::   ::::   :::7:::::::::   ::::7::::       :::::7:::   ::::   :::7:::::       ::::7=====     ======7===     ==  ====7======     =====7====  ==     ===777 7 777",
"77 7 77777777777777777777777777777777777777777777777777777777777777777777777777777777777777777777777777777777777777777777777777777777777777777777777777777777777777777777777777777777 7 777",
"77 7 7777================7==%=============7================7================7==%=============7================7================7================7================7================777 7 777",
"77 7 7777==============%=7==  =======% %==7=%==============7=%==============7==  =======% %==7==============%=7========% ======7================7====== %========7================777 7 777",
"77 7 7777===% %=======% =7==   ===== <  ==7= %=======% %===7= %=======% %===7==   ===== %  ==7===% %=======% =7======%  %=== ==7=======% =======7== ===%  %======7======= %=======777 7 777",
"77 7 7777===  < =====%  =7==%<<%   %<<%===7=  %===== <  ===7=  %===== %  ===7==%<<%   %<<%===7===  % =====%  =7===== <% === < =7=====%  %=== ===7= < === %< =====7=== ===%  %=====777 7 777",
"77 7 7777====%<<%   %<<%=7===%<<<<<<< ====7=%<<%   %<<%====7= <<%   %<<%====7===%<<<<<<< ====7====%<<%   %<< =7==== <<<% = <<< 7==== <% === < ==7 <<< = %<<< ====7== < === %< ====777 7 777",
"77 7 7777==== <<<<<<<<%==7=== < <<< << ===7==%<<<<<<<< ====7=%<<<<<<%   ====7=== <<<<<%  %===7====   %<<<<<<%=7=== <<<%<< %<< %7=== <<<% = <<< =7% <<% <<%<<< ===7= <<< = %<<< ===777 7 777",
"77 7 7777=== %<< <<< < ==7===%<<<<<<<<%===7== < <<< <<% ===7==%<<<<%<<<  ===7===%<<<<%<<<  ==7===  <<<%<<<<%==7==%< <<<<<< <%==7== <<<%<< %<< %=7==%< <<<<<< <%==7=% <<% <<%<<< ==777 7 777",
"77 7 7777== <<<<<<<<<<%==7== %%<  <<%%< ==7==%<<<<<<<<<< ==7== <<<< <<< < ==7== <<<<% <<< < =7== < <<< <<<< ==7== <<<<<<<%%% ==7=%< <<<<<< <%===7== %%%<<<<<<< ==7===%< <<<<<< <%=777 7 777",
"77 7 7777===%<%%<<  <%% =7= < %<<<<<%%<< =7= %%<  <<%%<%===7== <<<  << % ===7= <<<%%% << % ==7=== % <<  <<< ==7==%<%% <<<<<  ==7= <<<<<<<%%% ===7==  <<<<< %%<%==7=== %%%<<<<<<< =777 7 777",
"77 7 7777=== <%%<<<<<% < 7=%  <<<<<<<<%  %7 < %<<<<<%%< ===7=  <<%% % << ===7=%  <<<< % < % %7=== << % %%<<  =7=== % <<<<<% % =7=%<%% <<<<< ====7= % %<<<<< % ===7==== <<<<< %%<%=777 7 777",
"77 7 7777== %<<<<<<<<<  %7===%<<<<<<<<< % 7%  <<<<<<<<<% ==7 < <<<< % <<% ==7===%<%%% % << % 7== %<< % <<<< < 7===%<% %<<<< % =7== % <<<<<%  ===7= % <<<<% %<%===7===  %<<<<< % ==777 7 777",
"77 7 7777= %  %<<<<<<% ==7====%<<<<<<%  %%7== %<<<<<<%  % =7%  %<<%  <%  % =7====%<%   <%  %%7= %  %<  %<<%  %7====%<<<<<< % ==7==%< % %<<< % ==7== % <<<<<<%====7== % <<<% % <%==777 7 777",
"77 7 7777= %%%% %<<<%  ==7===  <<%   %%  =7==  %<<<% %%%% =7==  %<< % %%%% =7===  <<%   %%  =7= %%%% % <<%  ==7===  <<%   % ===7===%<<<<<< % ===7=== %   %<<  ===7=== % <<<<<<%===777 7 777",
"77 7 7777==% %%%%  %%%% =7== %%  %%%%  %==7= %%%%  %%%% %==7= %%%%  %%%% %==7== %%  %%%%  %==7==% %%%%  %%%% =7== %%  %%%% ====7==  <<%   % ====7==== %%%%  %% ==7==== %   %<<  ==777 7 777",
"77 7 7777====%  %%%%%%%%=7==%%%%%%%  %====7=%%%%%%%%  %====7=%%%%%%%%  %====7==%%%%%%%  %====7====%  %%%%%%%%=7==%%%%%%%  =====7= %%%%%%% %=====7=====  %%%%%%%==7=====% %%%%%%% =777 7 777",
"77 7 7777=======%     %==7===%    %=======7==%     %=======7==%     %=======7===%    %=======7=======%     %==7===%    %=======7==%     %=======7=======%    %===7=======%     %==777 7 777",
"77 7 77777777777777777777777777777777777777777777777777777777777777777777777777777777777777777777777777777777777777777777777777777777777777777777777777777777777777777777777777777777 7 777",
"77 7 7777================7================7================7================7================7================7================7================7================7================777 7 777",
"77 7 7777=======  =======7================7=====    =======7=====    =======7======    ======7================7================7================7================7====   ==   ====777 7 777",
"77 7 7777======  < ======7=======  =======7==== %%%% ======7==== %%%% ======7====  %%%%  ====7=======  =======7================7================7====   ==   ====7== = <<  << = ==777 7 777",
"77 7 7777====  < <   ====7=====   <  =====7==== %%%% ======7==== %%%% ======7=== %%%%%%%% ===7=====  %%  =====7== ======== ====7== ====== ======7==== <<  << ====7=  ==  <<  ==  =777 7 777",
"77 7 7777=== << <<< < ===7===  << < <  ===7=== % %% % =====7=== % %% % =====7== %% %%%% %% ==7==== %%%%%% ====7= %  =  =  % ===7= %      % =====7=====  <<  =====7 % = %%<<%% = % 777 7 777",
"77 7 7777== << <<<<< < ==7== <<  <<<  < ==7=== % %% % == ==7=== % %% % =====7== %% %%%% %% ==7=== %%%%%%%% ===7= %%< << <%% ===7=  %%% <<% =====7==== %%<<%% ====7 <%   %%%%   %< 777 7 777",
"77 7 7777== <  <<<<  < ==7=  <  <<<<    ==7=== %%%%%% = % =7=== %%%%%% === =7== %%%%%%%%%% ==7=== % %%%% % ===7== <<<%%<<< ====7= <<<<<<<   ====7====  %%%%  ====7  %% %%  %% %%  777 7 777",
"77 7 7777= % %%    %% % =7= % %%    %% % =7==  %%%%%%   % =7=== %%%%%% == % 7=== %%    %% ===7=== % %%%% % ===7== < <<<< < =  =7= <<<< <<<< =  =7==== %%  %% ====7<<<%%% <% %%%<<<777 7 777",
"77 7 7777= % %%%%%%%% % =7= % %%%%%%%% % =7= %% %%%% %% % =7==   %%%%   = % 7==   %%%%%%   ==7===  %%%%%%  ===7= <<  <<  << %% 7   <<  <<< < %% 7====%% <% %%====7  << <<  << <<  777 7 777",
"77 7 7777 % %  %%%%  % % 7 % %%%%%%%%%% % 7= %%%    %%% % =7= %%      %%  % 7= %% <    < %% =7==  <<    <<   =7= <<<<<<<<<< %% 7 <<<<<<<<< < %% 7==== <<  << ====7= << <<<<<< << =777 7 777",
"77 7 7777 % %<  %%  <% % 7 % %  %%%%  % % 7== % <<<< % %% =7= %% <<<< %% %% 7= %%  <<<<  %% =7= %%  <<<<  %% =7== <<<  <<< < % 7= <  <<<< %<< % 7==== <<<<<< ====7==  %<<<<<<%  ==777 7 777",
"77 7 7777 % %%  %%  %% % 7 % %%% %% %%% % 7=== <<<<<< %%% =7==  <<<<<<  %% =7==  <<    <<  ==7= %% <    < %% =7==   <<<<  %<  =7==  <<<  %<<<  =7=== %<<<<<<% ===7=== %<<<<<<% ===777 7 777",
"77 7 7777= % %%%%%%%% % =7= % %%%%%%%% % =7==  <<<<<<  % ==7==  <<<<<<  %% =7===  <<<<<<  ===7==  <<<<<<<<  <=7== %%    %%%% ==7== %   %%%%<< ==7=== %<<<<<<% ===7==== %<<<<% ====777 7 777",
"77 7 7777= %%  %%%%  %% =7= %%  %%%%  %% =7= %% <<<< %% ===7= %% <<<< %%  ==7== %  <<<<  % ==7== %  <<<<  % ==7=== <%%%%<<%% ==7=== <%%%%<<%< ==7==== %<<<<% ====7=====      =====777 7 777",
"77 7 7777==  ==    ==  ==7==  ==    ==  ==7= %%%    %%% ===7= %%%    %%% ===7== %%%    %%% ==7== %%%    %%% ==7=== << % <<  ===7=== << % <<  ===7====== << ======7===== ==== =====777 7 777",
"77 7 7777================7================7==   ====   ====7==   ====   ====7===   ====   ===7===   ====   ===7====       =====7====       =====7===== %  % =====7================777 7 777",
"77 7 77777777777777777777777777777777777777777777777777777777777777777777777777777777777777777777777777777777777777777777777777777777777777777777777777777777777777777777777777777777 7 777",
"77 7 7777================7================7================7================7================7================7=======  =======7================7================7================777 7 777",
"77 7 7777======  ========7=====  =========7================7================7================7=======  =======7=      <<      =7=======  =======7================7================777 7 777",
"77 7 7777====  <<  ======7===  <<  =======7================7===  ======  ===7=======  =======7=====  <<  =====7= << % << % << =7=      <<      =7============    7================777 7 777",
"77 7 7777=== %%  %% =====7== %%  %% ======7=   ===  ====  =7== << =  = << ==7=====  <<  =====7==== <<<<<< ====7== <%%%%%%%%< ==7= << % << % << =7=========== <<< 7   =======   ===777 7 777",
"77 7 7777== %%%%%%%% ====7= %%%%%%%% =====7 <<< =    =  << 7== <<<    <<< ==7==   <<<<<<   ==7==    <<<<    ==7=== % %%%% % ===7== <%%%%%%%%< ==7    =====    << 7     ===        777 7 777",
"77 7 7777== %% %% %% ====7= %% %% %% =====7 <%%< <  < <%%< 7= <%% <  < %%< =7= ==  <<<<  == =7= ==  <<<<  == =7== %%  <<  %% ==7=== % %%%% % ===7   <     <   < =7=  <<   <<  <<< 777 7 777",
"77 7 7777== %%%%%%%% ====7= %%%%%%%% =====7 <%%< <  < <%%< 7= <%% <  < %%< =7====  <<<<  ====7==== <<<<<< ====7== %%%%%%%%%% ==7== %%  <<  %% ==7= <<<<<<<<< < ==7= <<<<<<<<< << =777 7 777",
"77 7 7777== %%   %%% ====7= %%   %%% =====7 <<<<      <<<< 7= <<<      <<< =7==   <<<<<<   ==7===== <<<< =====7===   %<<%   ===7   %%%%%%%%%%   7== < <<< < < ===7== < <<< < << ==777 7 777",
"77 7 7777== %%   %%% ====7= %%   %%% =====7= <<<<    <<<< =7== <<<    <<< ==7= <<  <<<<  << =7===  =    =  ===7== % <    < % ==7 %%   %<<%   %% 7== <<<%<<< <<  =7== <<<%<<< < ===777 7 777",
"77 7 7777=== %%%%%% =====7== %%%%%% ======7= <<< %  % <<< =7== << %  % << ==7 <<< =    = <<< 7== <  %%%%  < ==7= % % <<<< % % =7 %%% <    < %%% 7= <<<%<%<<< << =7= <<<%<%<<< <  =777 7 777",
"77 7 7777====      ======7===      ====  =7== <<  %%  << ==7=== <  %%  < ===7 << = %%%% = << 7= <<< %  % <<< =7 %% %%    %% %% 7= % % <<<< % % =7= %<<<<<<<%%% ==7= %<<<<<<<%%<< =777 7 777",
"77 7 7777==== %%%%   =  =7==== %%%%    << 7= <<< %  % <<< =7== << %  % << ==7 << =  %%  = << 7= <<<  %%  <<< =7=   %<<<<<<%   =7==  %%    %%  ==7= <<<<<<<<<% ===7= <<<<<<<<<%% ==777 7 777",
"77 7 7777==== %%%% %% << 7==== %%%% %% << 7= <<<< %% <<<< =7== <<< %% <<< ==7 << = %  % = << 7= <<< %  % <<< =7===  <<<<<<  ===7==  %<<<<<<%  ==7= %<<<<<<<% ====7= %<<<<<<<%  ===777 7 777",
"77 7 7777===== %% %%% << 7===== %% %%%   =7= <<< =  = <<< =7=== <<    << ===7= < == %% == < =7== <<< %% <<< ==7== %  <<<<  % ==7== %  <<<<  % ==7= <<<<<<<<< ====7= <<<<<<<<< ====777 7 777",
"77 7 7777======  %%%%   =7======  %%%% ===7==   ======   ==7=== << == << ===7==  ===  ===  ==7===  <<  <<  ===7== <%<    <%< ==7== <%<    <%< ==7== <<   << =====7== <<   << =====777 7 777",
"77 7 7777========    ====7========    ====7================7====  ====  ====7================7=====  ==  =====7===   ====   ===7===   ====   ===7===  ===  ======7===  ===  ======777 7 777",
"77 7 77777777777777777777777777777777777777777777777777777777777777777777777777777777777777777777777777777777777777777777777777777777777777777777777777777777777777777777777777777777 7 777",
"77 7 7777================7================7================7================7================7================7================7================7================7================777 7 777",
"77 7 7777================7================7================7======    ======7================7===  === ===  ==7================7================7================7================777 7 777",
"77 7 7777=   ==    ==   =7================7======    ======7=     <<<<     =7======== =======7== %% = % = %% =7====  ====  ====7================7================7================777 7 777",
"77 7 7777= <<  <<<<  << =7=   ==    ==   =7=     <<<<     =7=  <  %<<%  <  =7==  === % ===  =7== %%% %%%  %% =7==   ======   ==7================7======   =======7======   =======777 7 777",
"77 7 7777=  << <<% <<<  =7= <<  <<<<  << =7=  <  %<<%  <  =7==  << %% <<  ==7= %% = %%% = %% 7=== %% %%% %% ==7=    ======    =7=======  =======7====  %%%  =====7====  %%%  =====777 7 777",
"77 7 7777== <<< << <<< ==7=  << <<% <<<  =7==  << %% <<  ==7=== <<<  <<< ===7= %%%  %%%  %%% 7=== %% %%% %% ==7= %   =  =   % =7=====      =====7=== %%%%%%% ====7=== %%%%%%% ====777 7 777",
"77 7 7777= <<  <  <  << =7== <<< << <<< ==7=== <<<  <<< ===7== << <<<< << ==7== %%% %%% %%% =7==== %% % %% ===7 %%%        %%% 7=== = <  < = ===7=== % %% %% ====7=== %% %% % ====777 7 777",
"77 7 7777= < <  <<  < < =7= <<  <  <  << =7== << <<<< << ==7=  <<<<<<<<<<  =7===  %% % %%  ==7=====       ====7  % % <  < % %  7==            ==7== %%%%%%%%% ===7== %%%%%%%%% ===777 7 777",
"77 7 7777= <    <<    < =7= < <  <<  < < =7== <<<<<<<<<< ==7 <<<%<<  <<%<<< 7=====       ====7====         ===7 = %%      %% = 7=     %%%%     =7== %%   %%%% ===7== %%%%   %% ===777 7 777",
"77 7 7777= <<  <<<<  << =7= <    <<    < =7= <<%<<  <<%<< =7= %<<<<<<<<<<% =7====         ===7===    < <    ==7==    %%%%    ==7       %%       7== %%   %%%% ===7== %%%%   %% ===777 7 777",
"77 7 7777 <<<<<<  <<<<<< 7= <<  <<<<  << =7 <%<<<<<<<<<<%< 7== <<<<<<<<<< ==7===    < <    ==7===           ==7== ==  %%  == ==7     =    =     7== %%%%%%%%% ===7== %%%%%%%%% ===777 7 777",
"77 7 7777=  <<<<<<<<<<  =7= <<<<<  <<<<< =7=  <<<<<<<<<<  =7== %<<<<<<<<% ==7===           ==7====         ===7======    ======7    ========    7== %%%%%%%%% ===7== %%%%%%%%% ===777 7 777",
"77 7 7777==  <<<<<<<<  ==7== < <<<<<< < ==7== %<<<<<<<<% ==7=== %<<<<<<% ===7====         ===7======     =====7================7   ==========   7==   %  %%    ==7==   %  %%    ==777 7 777",
"77 7 7777===   <<<<   ===7==  <<<<<<<<  ==7=== %<<<<<<% ===7=== %%%%%%%% ===7======     =====7=====  ===  ====7================7=  ==========  =7= <<< <<   <<  =7= <<< <<   <<  =777 7 777",
"77 7 7777== <<<    <<< ==7= <<  <<<<  << =7==== %%  %% ====7==== %%  %% ====7====    =    ===7====    =    ===7================7==  ========  ==7==       =    ==7==       =    ==777 7 777",
"77 7 7777===   ====   ===7==   =    =   ==7=====  ==  =====7=====  ==  =====7================7================7================7================7================7================777 7 777",
"77 7 77777777777777777777777777777777777777777777777777777777777777777777777777777777777777777777777777777777777777777777777777777777777777777777777777777777777777777777777777777777 7 777",
"77 7 7777================7================7================7================7================7================7================7================7===   ==========7================777 7 777",
"77 7 7777================7================7=======  =======7================7====== =========7======= ========7=====  =========7================7== <%%  ========7===   ==========777 7 777",
"77 7 7777================7=====    =======7====== <% ======7=======  =======7===== < ========7====== < =======7===    =========7======  ========7=== %%%% =======7== <%%  ========777 7 777",
"77 7 7777=====    =======7===  <  <  =====7====== %% ======7====== <% ======7===== << =======7===== <<< ======7==      ==== ===7====    ========7== %<<%% =======7=== %%%% =======777 7 777",
"77 7 7777===  <  <  =====7== < <  < < ====7===== %  % =====7====== %% ======7===  %  < ======7===  %  < ======7==    %% == < ==7===      ==== ==7= %% <% ========7== %<<%% =======777 7 777",
"77 7 7777== < <  < < ====7== << %% << =  =7==   % << %   ==7===== %  % =====7== %%%%%  ======7== %%%%%  ===  =7=       %  << ==7===    %% == < =7= %%<<% ========7= %% <% ========777 7 777",
"77 7 7777== << %% <<   ==7=            << 7= <<% <  < %<< =7==   % << %   ==7== %%%%%%% ==  =7== %%%%%%% = < =7=   <%%%% << < =7==       %  << =7= %%%%% = ======7= %%<<% ========777 7 777",
"77 7 7777=           << =7=   <<<<<<   << 7= %% < %% < %% =7= <<% <<<< %<< =7= %%<<<%%%%  < =7= %%<<<%%%% << =7 <% <%%%% %<<< =7==   <%%%% << < 7==    %  <  ====7= %%%%% = ======777 7 777",
"77 7 7777=   <<<<<<   < =7=  <<    <<  << 7== % < %% < % ==7= %% <<  << %% =7= %%< <%%%%%<< =7= %%< <%%%%%<< =7= <%%%%%% %%< ==7= <% <%%%% %<<< 7=== <%% <<<<  ==7==    %  <  ====777 7 777",
"77 7 7777=  <<    <<  < =7=  < <<<< <  << 7===  <<  <<  ===7== % < %% < % ==7= <%<<<  %%%<< =7= <%<<<%  %%<< =7= <%%%  % %% ===7== <%%%  % %%< =7=== <%%% <<<<< =7==== <% <<<<  ==777 7 777",
"77 7 7777=  < <<<< <  < =7=  < <   <<  < =7=== % <<<< % ===7===  < %% <  ===7=  %%%%< %% << =7=  %%%% < %  < =7  <%% << %%%  ==7=  <%% <<  %% ==7== <<%%% <<<<< =7=== <<%% <<<<< =777 7 777",
"77 7 7777=  < <   <<  < =7==  <<<<<<  < ==7=== %% << %% ===7=== % <  < % ===7= <%%%%< %%  < =7= <%%%%<< % =  =7  <% <<< %%% % =7= <%%  << %%%  =7== <%%%% <<<<<< 7=== <%%% <<<<< =777 7 777",
"77 7 7777==  <<<<<<  < ==7===          ===7== %%%%  %%%% ==7== %%% << %%% ==7== %%%%  %% =  =7== %%%%   % ====7 <% = < =   %% =7==   = <  %%%  <7= <<%%%%%  <<<  7== <<%%% <<<<<< 777 7 777",
"77 7 7777===        < ===7====  ==  ======7== %%  ==  %% ==7== %%      %% ==7===  %%%   =====7===  %%%   =====7=  === == %%%% =7======= <<   %%<7= <<%%%%%%%   % 7== <<%%%%  <<<  777 7 777",
"77 7 7777==   ====   ====7===  ====  =====7==   ======   ==7==   ======   ==7=====    =======7=====    =======7=========<%%%%<=7========<<%%%%<<7== <<%%%%%%%%% =7=== <<%%%%%   % 777 7 777",
"77 7 7777================7================7================7================7================7================7==========<<<<==7=========<<<<<<=7===  <<%<%<%  ==7====  %<%<%<<% =777 7 777",
"77 7 77777777777777777777777777777777777777777777777777777777777777777777777777777777777777777777777777777777777777777777777777777777777777777777777777777777777777777777777777777777 7 777",
"77 7 7777================7================7================7================7================7================7================7================7================7================777 7 777",
"77 7 7777======    ======7================7=   ========   =7================7=====  ==  =====7================7================7================7================7================777 7 777",
"77 7 7777====  <<<<  ====7======    ======7 <%% =    = %%< 7==   =    =   ==7=  = %%  %%    =7=====  ==  =====7===== ==== =====7==  == == ==  ==7=====  ==   ====7====        ====777 7 777",
"77 7 7777=== %  <<  % ===7====  <<<<  ====7 %%%  <<<<  %%% 7= <%% <<<< %%< =7 %% %%%%%%%% %% 7==== %%  %%  ===7==            ==7==            ==7===  <<  <<< ===7=== <<<<< << ===777 7 777",
"77 7 7777=== %  <<  % ===7=== %  <<  % ===7= % %%<<<<%% % =7= %%% <<<< %%% =7 %% % %%%% % %% 7==  %%%%%%%   ==7==            ==7==            ==7== <<<<<< <<< ==7== <<<<<<<%<< ==777 7 777",
"77 7 7777==     <<     ==7=== %  <<  % ===7 %% <<%%%%%% %% 7=  % <%%%%% %  =7   %%< %% <%%   7= %%  %%%%  %% =7===          ===7===  <    <  ===7== <<<%%<<<<<< =7= <<<%%<<<<<<< =777 7 777",
"77 7 7777== <  <<<<  < ==7==     <<     ==7 %%<<<<<%%%%%%% 7 %%%<<<<%%%%%%% 7 % %%< %% <%% % 7  %% < %% < %%  7==   <    <   ==7==   <<  <<   ==7= <<<%<<<<<<<% =7= <<%<<<<<<<<% =777 7 777",
"77 7 7777== <<<<<<<<<< ==7== <  <<<<  < ==7 %%<  <<%%  %%% 7 %%<  <<%%  %%% 7 %% %%%%%%%% %% 7    %< %% <%    7==   <<  <<   ==7==            ==7= <<%<<<<<<< % =7= <%<<<<<<%<<  =777 7 777",
"77 7 7777== %<<<<<<<<% ==7== %<<<<<<<<% ==7=  <<< %% %%%  =7 % <<< %% %%% % 7 %%% %    % %%% 7 %% %%%%%%%% %% 7==            ==7=   <<%<<%<<   =7= <%<<<<<<%<< ==7= <%<<<<<<%<<< =777 7 777",
"77 7 7777===   <<<<   ===7=     <<<<     =7== <<< %% %%% ==7=  <<< %% %%%  =7= % % %%%% % % =7 %%% %    % %%% 7=    <%<<%<    =7=    <%<<%<    =7= <%<<<<<<%<<< =7== <<<<<<%<<<% =777 7 777",
"77 7 7777== % % %% % % ==7 %%% % %% % %%% 7=== %%%%%%%% ===7=== %%%%%%%% ===7==  %%    %%  ==7= % % %%%% % % =7=     %<<%     =7==    %<<%    ==7== <<<<<<%<<<% =7== <<<<<%<<<< ==777 7 777",
"77 7 7777= %% %    % %% =7 <  %% %% %%  < 7=== %%    %% ===7=== %%    %% ===7===  %%%%%%  ===7==  %%    %%  ==7==            ==7===          ===7== <<<<<%<<<< ==7==  <<%%<<<<% ==777 7 777",
"77 7 7777= < <% == %< < =7= <<<      <<< =7====  %%%%  ====7====  %%%%  ====7===          ===7===  %%%%%%  ===7===          ===7===          ===7=== <<%%<<<<% ==7===    <<%%   ==777 7 777",
"77 7 7777== << ==== << ==7==   ======   ==7======    ======7======    ======7== %        % ==7= %          % =7====        ====7====  ====  ====7====  <<<%%  ===7====         ===777 7 777",
"77 7 7777===  ======  ===7================7================7================7== <%<    <%< ==7= <%<      <%< =7================7================7======     =====7======     =====777 7 777",
"77 7 7777================7================7================7================7===   ====   ===7==   ======   ==7================7================7================7================777 7 777",
"77 7 77777777777777777777777777777777777777777777777777777777777777777777777777777777777777777777777777777777777777777777777777777777777777777777777777777777777777777777777777777777 7 777",
"77 7 7777================7================7================7================7================7================7================7================7==   =====   ===7===   =====   ==777 7 777",
"77 7 7777================7================7==   =    =   ==7==   =    =   ==7======    ======7======    ======7================7================7= %%%     %%% ==7== %%%     %%% =777 7 777",
"77 7 7777======    ======7================7==    <<<<    ==7==    <<<<    ==7===   %%%%   ===7====  %%%%  ====7======    ======7======    ======7= % %%%%%%% % ==7== % %%%%%%% % =777 7 777",
"77 7 7777===== <<<< =====7======    ======7===  <<<<<<  ===7===  <<<<<<  ===7== <<      << ==7===  %%%%%%  ===7====  %%%%  ====7====  %%%%  ====7=  <<<%%%<<<  ==7==  <<<%%%<<<  =777 7 777",
"77 7 7777==== %%<<%% ====7===== <<<< =====7=== << << << ===7=== << << << ===7=== <<%%%%<< ===7== <<      << ==7=== %%%<<%%% ===7=== %%%<<%%% ===7== < <%%%< < ===7=== < <%%%< < ==777 7 777",
"77 7 7777==== %%%%%% ====7==== %%<<%% ====7=== <<<<<<<< ===7=== <<<<<<<< ===7== % %%%%%% % ==7==  <<%%%%<<  ==7=== %%%<<%%% ===7=== %%%<<%%% ===7== <<<%%%<<< ===7=== <<<%%%<<< ==777 7 777",
"77 7 7777=== << %%%<< ===7==== %%%%%% ====7==   <<%%<<  ===7===  <<%%<<   ==7== % <<%%<< % ==7== % %%%%%% % ==7== %  %%%%  % ==7== %%%%%%%%%% ==7= <<<<<<<<<<< ==7== <<<<<<<<<<< =777 7 777",
"77 7 7777=== %<<<< <% ===7==  << %%%<< ===7= <<  <<<<    ==7==    <<<<  << =7== % < %% < % ==7== % <<%%<< % ==7== %<< %% <<% ==7== %  %%%%  % ==7= <<       << ==7== <<       << =777 7 777",
"77 7 7777== <%%%%%%%%< ==7= %%%<<<<< <%  =7= << %    % << =7= << %    % << =7== % %%%%%% % ==7== % < %% < % ==7== %<< %% <<% ==7== %<< %% <<% ==7== <<<<<<<<< ===7=== <<<<<<<<< ==777 7 777",
"77 7 7777= <<<%%%%%%<<< =7 <%%%%%%%%%%%<< 7==  %%%%%%% << =7= << %%%%%%%  ==7== %% %%%% %% ==7== % %%%%%% % ==7== <<% %% %<< ==7== %<< %% <<% ==7===         ====7====         ===777 7 777",
"77 7 7777= %<<<<<<<<<%% =7 <<<<%%%%%%<<<< 7=== %%%  %%%  ==7==  %%%  %%% ===7== %% <  < %% ==7== %% %%%% %% ==7=== <<<<<<<< ===7=== <%%%%%%< ===7=== %%%%%%%% ===7=== %%%%%%%% ===777 7 777",
"77 7 7777= %%%%<<<<%%%% =7 %%%<<<<<<<<%%% 7==== %%  %% ====7==== %%  %% ====7== %%% %% %%% ==7== %% <  < %% ==7=== <<<<<<<< ===7=== <<<<<<<< ===7=== %%%%%%%% ===7=== %%%%%%%% ===777 7 777",
"77 7 7777== %%%%%%%%   ==7=  %%%%%%%     =7=== < %%%% < ===7=== < %%%% < ===7=== %%%  %%% ===7=== %%    %% ===7====  <<<<  ====7====  <<<<  ====7== %%%%%%%%%% ==7== %%%%%%%%%% ==777 7 777",
"77 7 7777===    %%% =====7===   %%% ======7=== <<    << ===7=== <<    << ===7=== %% == %% ===7=== %% == %% ===7======    ======7======    ======7== %%%%%%%%%% ==7== %%%%%%%%%% ==777 7 777",
"77 7 7777=======   ======7======   =======7====  ====  ====7====  ====  ====7=== << == << ===7=== << == << ===7================7================7=== %%   %%% ===7=== %%   %%% ===777 7 777",
"77 7 7777================7================7================7================7====  ====  ====7====  ====  ====7================7================7====  ===   ====7====  ===   ====777 7 777",
"77 7 77777777777777777777777777777777777777777777777777777777777777777777777777777777777777777777777777777777777777777777777777777777777777777777777777777777777777777777777777777777 7 777",
"77 7 7777================7================7================7================7=   ==    ==   =7================7===========   ==7==   ===========7================7================777 7 777",
"77 7 7777================7================7=======  =======7================7= %<  %%%%  <% =7================7=======  = <%% =7= %%< =  =======7================7================777 7 777",
"77 7 7777====  ====  ====7====  ====  ====7====== %% ======7=======  =======7== %< %%%% <% ==7=   ==    ==   =7==   = << <%<%% 7 %%<%< << =   ==7======    ======7======    ======777 7 777",
"77 7 7777===          ===7===          ===7=====      =====7====== %% ======7===  %%%%%%  ===7= %<  %%%%  <% =7= <%%  << %<%%% 7 %%%<% <<  %%< =7=====  <<  =====7=====  <<  =====777 7 777",
"77 7 7777===  <<  <<  ===7===  <<  <<  ===7==== %%%%%% ====7=====      =====7=== < %%%% < ===7== %< %%%% <% ==7 <%<%% <<<%%%%% 7 %%%%%<<< %%<%< 7====  <<<<  ====7====  <<<<  ====777 7 777",
"77 7 7777==  <  <<  <  ==7==  <  <<  <  ==7=== <<%%%%<< ===7==== %%%%%% ====7==  <  %%  <  ==7===  %%%%%%  ===7 %<%%%<<<< %%% =7= %%% <<<<%%%<% 7==== <  <<< ====7==== <<<  < ====777 7 777",
"77 7 7777==  <<<<<<<<  ==7==  <<    <<  ==7=== < <%%< < ===7=== <<%%%%<< ===7=  %%%%%%%%%%  =7=   < %%%% <   =7 %%%%% <%<    ==7==    <%< %%%%% 7==== <  <<< ====7==== <<<  < ====777 7 777",
"77 7 7777==  <<    <<  ==7==    <<<<    ==7==== <<%%<< ====7=== < <%%< < ===7 <   % %% %   < 7 <  <  %%  <  < 7= %%% = %< =====7===== <% = %%% =7====  <<<<  ====7====  <<<<  ====777 7 777",
"77 7 7777===   <<<<   ===7=== <<<<<<<< ===7===== %%%% =====7==== <<%%<< ====7 %    %%%%    % 7 % %%%%%%%%%% % 7==   == << =====7===== << ==   ==7=====  <<  =====7=====  <<  =====777 7 777",
"77 7 7777=   <<<<<<<<   =7=  <<<<<<<<<<  =7==== % %% % ====7===== %%%% =====7   %        %   7     % %% %     7======= << =====7===== << =======7======    ======7======    ======777 7 777",
"77 7 7777 <  <<<<<<<<  < 7 < <<<<<<<<<< < 7==== %<  <% ====7==== % %% % ====7= % %%<<<<%% % =7=     %%%%     =7====== << ======7====== << ======7=======  =======7=======  =======777 7 777",
"77 7 7777 <  <<<<<<<<  < 7 <  <<<<<<<<  < 7=== %%<<<<%% ===7=== %<<  <<% ===7 <% %<<<<<<% %< 7 < %        % < 7=====  <<% =====7===== %<<  =====7=======  =======7=======  =======777 7 777",
"77 7 7777=    <<<<<<    =7=     <<<<<    =7=== %<%%%%<% ===7=== %%<<<<%% ===7= %  <<<<<<  % =7= %  <<<<<<  % =7====  <<<%< ====7==== <%<<<  ====7======    ======7======    ======777 7 777",
"77 7 7777== << %%%% << ==7== << %%%% << ==7==== <<<<<< ====7=== %<%%%%<% ===7== %% <<<< %% ==7== %% <<<< %% ==7==== <<<<<< ====7==== <<<<<< ====7=====  ==  =====7=====  ==  =====777 7 777",
"77 7 7777== <<      << ==7== <<      << ==7===== <<<< =====7==== <<<<<< ====7== <%<    <%< ==7== <%<    <%< ==7====  <<<<  ====7====  <<<<  ====7================7================777 7 777",
"77 7 7777===  =    =  ===7===  =    =  ===7======    ======7=====      =====7===   ====   ===7===   ====   ===7=====      =====7=====      =====7================7================777 7 777",
"77 7 77777777777777777777777777777777777777777777777777777777777777777777777777777777777777777777777777777777777777777777777777777777777777777777777777777777777777777777777777777777 7 777",
"77 7 7777===============  ===============77==   ==============       ======77==========  ========  ==========77================7================7================7================777 7 777",
"77 7 7777============== 33 ==============77= <<+ ============= +<<<<<  ====77========= 33  ====  33 =========77==  =  ==  =  ==7=====  ==  =====7====    ========7===    =========777 7 777",
"77 7 7777============= 3333 =============77 <<++  =========== +<<<<<<< ====77======== 33333    33333 ========77= %% <<  << %% =7==== <   << ====7=== <<<< =======7== <<<< ========777 7 777",
"77 7 7777=============  33  =============77 +++     ======== +<<<<<<  + ===77======== 33333333333333 ========77 <%% < %% < %%< 7===   < %%<  ===7== <     =======7= <     ========777 7 777",
"77 7 7777===========  <<  <<  ===========77 ++   <<<  ===   ++++<<< ++++ ==77======= 333<<<<33<<<<333 =======77=  %% < %% %%  =7== < << %% << ==7= < <<   =======7 < <<   ==  ====777 7 777",
"77 7 7777==    ===  <<<<<<<<<<  ===    ==77=  <+<<<<< === <  + ++<+++++  ==77======= 33<<<<<<<<<<<<33 =======77 <%% <<   %%%<< 7== < <<<   << ==7= <     ====== =7 <     =  <<  ==777 7 777",
"77 7 7777= 3333  = <  <<<<<<  < =  3333 =77= ++ +<<<<+   <<   + + +++ +  ==77====== 33<<   <<<<   <<33 ======77=  % <<< %%%   =7=== % << %%  ===7= <<<<< =   = < 7 <<<<<  <<<< < =777 7 777",
"77 7 7777= 333333 << < <<<< < << 333333 =77 ++++ +<+  << <<<   +   + + + ==77====== 33<<<<<<<<<<<<<<33 ======77 <%%% << %%%%< =7== % %<%  %% ===7==    <  < <  < 7=    < <<<<< < =777 7 777",
"77 7 7777== 3333   <<<<<<<<<<<<   3333 ==77 ++++ ++ +<< <+<+  +   +     ===77====== 33<<<<<<<<<<<<<<33 ======77= <% %<%  %<  ==7= %% %% < %%% ==7==== << <<<< << 7=== <<< <<< << =777 7 777",
"77 7 7777== 3333 <<<<<<<<<<<<<<<< 3333 ==77 ++++ ++ ++< +<+++   +<<<<<+ ===77====== 33<<<<<    <<<<<33 ======77== < %% < <<< ==7= %% %%   %%%% =7=== <<<<    << =7=== <<<<<      =777 7 777",
"77 7 7777=== 33 3<   <<    <<   <3 33 ===77 +++ +++  ++ ++++++ +<<<<<<<+ ==77====== 33<<<<<<<<<<<<<<33 ======77===  %%      ===7= %%% %% = %%% =7=== <<<<<<<    =7=== <<<<<<<<<<< 777 7 777",
"77 7 7777==== 3 3 333  3333  333 3 3 ====77= + + +      ++++ + ++<<<<<<<+ =77======= 3<<<<<<<<<<<<<<3 =======77===== %% =======7 <%<  < == %<%< 7== %%<<< <<<<<< 7== %%<<< <<<< < 777 7 777",
"77 7 7777===== 3 33333 3333 33333 3 =====77=  + + +   <+  + + +++++<<<++++ 77======= 33<<<<<<<<<<<<33 =======77===== < ========7 < <  < == << < 7== %%%%< <<<< < 7== %%%%<  < << =777 7 777",
"77 7 7777======  3333333  3333333  ======77===        <+      ++++++<++ +  77=====  333333<<<<<<333333  =====77===== < ========7=  <  < === <  =7=== %%%   < << =7=== %%% <<    ==777 7 777",
"77 7 7777======  333333 33 333333  ======77=====     + ++     ++++++ + +   77===  33 333<<<<<<<<<<333 33  ===77===== < ========7==  == =====  ==7====   <<<    ==7====   <<<< ====777 7 777",
"77 7 7777   ===  3 333333333333 3  ===   77==========  <+      ++++   +   =77== 333 33<<<<<<<<<<<<<<33 333 ==77====== =========7================7=======    =====7=======    =====777 7 777",
"77 7 7777 33  = <  333333333333  < =  33 77==========  <++ +++           ==77= 333 33<<<<<<<<<<<<<<<<33 333 =777777777777777777777777777777777777777777777777777777777777777777777777 7 777",
"77 7 7777 3333  <  3 33333333 3  <  3333 77========= +< <++ +++ ++<<<<<  ==77 <333 3<<<<<<<<<<<<<<<<<<3 333< 77================7================7================7================777 7 777",
"77 7 7777 33333 3< 3< 333333 <3 <3 33333 77========= << <++ +++ +<<<<<<< ==77  33 33<<<<<<<<<<<<<<<<<<33 33  77================7================7=              =7=              =777 7 777",
"77 7 7777 <333333  3  333333  3  333333< 77======== +<< ++ +++ + +<<<<<<< =77 < 3 3<<<<<<<<<<<<<<<<<<<<3 3 < 77====    ========7========    ====7=  <<<<<<<<<<  =7=  <<<<<<<<<<  =777 7 777",
"77 7 7777= 33333  3 3 333333 3 3  33333 =77======== <<<++++++ +++  <<<<+++ 77=   33<<<<<<<<<<<<<<<<<<<<33   =77=== <<<<  ======7======  <<<< ===7= < <<<<<<<< < =7= <  <<<<<<  < =777 7 777",
"77 7 7777= <33333 3 3333333333 3 33333< =77======== <<++++++++++++ <+<+ ++ 77=== 33<<<<<<<<<<<<<<<<<<<<33 ===77== <<<<<<% =====7===== <<<<<<< ==7= << <<<<<< << =7= <<%  <<  %<< =777 7 777",
"77 7 7777== <333333< 33333333 <333333< ==77======== <+++++++   +++ +<+ +++ 77=== 33<<<<<<<<<<<<<<<<<<<<33 ===77== <<<<<<<% ====7==== <<<<<<<< ==7= <<< <<<< <<< =7= <<<%%  %%<<< =777 7 777",
"77 7 7777==  <<333<< 33333333 <<333<<  ==77========  ++++++ < <+++ ++<++++ 77=== 3  <<<<<<<<<<<<<<<<<<  3 ===77= <<<<<<<<% ====7==== <<<<<<<<% =7= <<<< << <<<< =7= <<<<%%%%<<<< =777 7 777",
"77 7 7777==== <<<<<<< 333333 <<<<<<< ====77========   ++++ <<<++  +++ ++++ 77===   < 3 <<<<<<<<<<<< 3 <   ===77= <<<<<<<<%% ===7=== <<<<<<<<<% =7= <<<<<  <<<<< =7= <<<<<%%<<<<< =777 7 777",
"77 7 7777=====  <<<<<<  33  <<<<<<  =====77========= + ++  +++++ ++++ ++++ 77== < 333 < <<<<<<<<<< < 333 < ==77= <<<<<<<<%% ===7=== <<<<<<<<%% =7= <<<<<<<<<<<< =7= <<<<<<<<<<<< =777 7 777",
"77 7 7777=======  <<<<<<  <<<<<<  =======77========= + +   +++   +++++ +++ 77== 33<<<<3 33<<<<<<33 3<<<<33 ==77== <<<<<<%%% ===7=== <<<<<<<<% ==7= <<<<<<<<<<<< =7= <<<<<<<<<<<< =777 7 777",
"77 7 7777=========   <<<<<<<<   =========77========= +++ ++++     + + + + =77== <<<<<<<< 33333333 <<<<<<<< ==77== <<<<<<%% ====7==== <<<<<<%% ==7= <<<<<<<<<<<< =7= <<<<<<<<<<<< =777 7 777",
"77 7 7777============        ============77=========  +++++  +   + + + +  =77== <<333<<< 33333333 <<<333<< ==77=== <<<<%%% ====7==== <<<<%%% ===7= <<<<<<<<<<<< =7= <<<<<<<<<<<< =777 7 777",
"77 7 7777================================77==========       +           ===77== <<<333<<          <<333<<< ==77====  %%%  =====7=====  %%%  ====7=              =7=              =777 7 777",
"77 7 7777================================77=========== <<+++ ===      =====77===  <<<<<  ========  <<<<<  ===77======   =======7=======   ======7================7================777 7 777",
"77 7 7777================================77============     ===============77=====     ============     =====77================7================7================7================777 7 777",
"77 7 7777777777777777777777777777777777777777777777777777777777777777777777777777777777777777777777777777777777================7================7================7================777 7 777",
"77 7 77777777777777777777777777777777777777777777777777777777777777777777777777777777777777777777777777777777777777777777777777777777777777777777777777777777777777777777777777777777 7 777",
"77 7 7777==  =====< == ==7=========  =====7==  =====< == ==7==  =====< == ==7======    ======7=======  =======7====33=  =33====7======    ======7=======  =======7====$$=  =$$====777 7 777",
"77 7 7777== -   ===< =< =7==    ===<< = ==7== -   ===< =< =7== -   ===< =< =7===== <  < =====7===  = << =  ===7==3333 << 3333==7===== 6  6 =====7===  = 66 =  ===7==$$$$ 66 $$$$==777 7 777",
"77 7 7777=== - -    <==< 7== ---     <<< =7=== - -    <==< 7=== - -    <==< 7====        ====7=== <  <<  < ===7=3333 <333 3333=7====        ====7=== 6  66  6 ===7=$$$$ 6$$$ $$$$=777 7 777",
"77 7 7777===  ---  --  < 7=== ----  <-  < 7===  ---  --  < 7===  ---  --  < 7=== <      < ===7==   <<<<<<   ==7=333  <  3  333=7=== 6      6 ===7==   666666   ==7=$$$  6  $  $$$=777 7 777",
"77 7 7777=== - <-<< << -=7===   <-<< << -=7=== - <-<< << -=7=== - <-<< << -=7== <        < ==7= %%   <<   %% =7==3 < <  3 3 3==7== 6        6 ==7= $$   66   $$ =7==$ 6 6  $ $ $==777 7 777",
"77 7 7777==== -- <<<<<- =7==== -- <<<<<- =7==== -- <<<<<- =7==== -- <<<<<- =7= << +    + << =7==  % %  % %  ==7===3 <<  33 3===7= 66 $    $ 66 =7==  $ $  $ $  ==7===$ 66  $$ $===777 7 777",
"77 7 7777====  --<<<<<< =7====  --<<<<<< =7  ==  --<<<<<< =7  ==  --<<<<<< =7= <   <  <   < =7= %%%%    %%%% =7==  3 <333 3  ==7= 6   6  6   6 =7= $$$$    $$$$ =7==  $ 6$$$ $  ==777 7 777",
"77 7 7777  ===   <<<<   =7  ===   <<<<   =7 -  =   <<<<   =7 -  =   <<<<   =7= < <<    << < =7==  % <  < %  ==7= < 3  <3  3 < =7= 6 66    66 6 =7==  $ 6  6 $  ==7= 6 $  6$  $ 6 =777 7 777",
"77 7 7777 -   = -<<< < ==7 -   = -<<< < ==7= -< = -<<< < ==7= -< = -<<< < ==7== < <<<<<< < ==7==  % <<<< %  ==7 <  3 <  < 3  < 7== 6 666666 6 ==7==  $ 6666 $  ==7 6  $ 6  6 $  6 777 7 777",
"77 7 7777= -<<   ---   ==7= -<<   ---   ==7== <<   ---   ==7== <<   ---   ==7==    <  <    ==7== <  <  <  < ==7 < = 3 33 33  < 7==    6  6    ==7== 6  6  6  6 ==7 6 = $ $$ $$  6 777 7 777",
"77 7 7777==   <<<    ====7==   <<<    ====7==   <<<    ====7==   <<<    ====7=   + <  < +   =7== <<      << ==7 < = 3 33 3 = < 7=   $ 6  6 $   =7== 66      66 ==7 6 = $ $$ $ = 6 777 7 777",
"77 7 7777==  --<<< ======7==  --<<< ======7==  --<<<  =====7==  --<<<  =====7=   ++    ++   =7==   <    <   ==7= <  33  33  < =7=   $$    $$   =7==   6    6   ==7= 6  $$  $$  6 =777 7 777",
"77 7 7777= <   - << =====7= <   - << =====7= <   - <<-  ===7= <   - <<-  ===7== +++    +++ ==7==            ==7= <  33  33  < =7== $$$    $$$ ==7==            ==7= 6  $$  $$  6 =777 7 777",
"77 7 7777= -  <   <-  ===7= -  <   <-  ===7= -  <    -- ===7= -  <    -- ===7==   + == +    =7= <<<  ==  <<< =7 < = 3 == 3 = < 7==   $ == $    =7= 666  ==  666 =7 6 = $ == $ = 6 777 7 777",
"77 7 7777=  = - =  -- ===7=  = - =  -- ===7=  = - ===  ====7=  = - ===  ====7= < <  ==  < < =7= < << == << < =7= = 33 == 33 = =7= 6 6  ==  6 6 =7= 6 66 == 66 6 =7= = $$ == $$ = =777 7 777",
"77 7 7777====  ====  ====7====  ====  ====7====  ==========7====  ==========7=     ====     =7==    ====    ==7===3  ====  3===7=     ====     =7==    ====    ==7===$  ====  $===777 7 777",
"77 7 77777777777777777777777777777777777777777777777777777777777777777777777777777777777777777777777777777777777777777777777777777777777777777777777777777777777777777777777777777777 7 777",
"77 7 77777777777777777777777777777777777777777777777777777777777777777777777777777777777777777777777777777777777777777777777777777777777777777777777777777777777777777777777777777777 7 777",
"77 7 77777777777777777777777777777777777777777777777777777777777777777777777777777777777777777777777777777777777777777777777777777777777777777777777777777777777777777777777777777777 7 777",
"77 7 77777777                                                                                                                                                                77777777 7 777",
"77 7 7777777 7777777777777777777777777777777777777777777777777777777777777777777777777777777777777777777777777777777777777777777777777777777777777777777777777777777777777777 7777777 7 777",
"77 7 777777 77                                                                                                                                                              77 777777 7 777",
"77 7 777777 7                                                                                                                                                                7 777777 7 777",
"77 7 777777 7  777777777777777777777777777777777777777777777777777777777777777777777777777777777777777777777777777777777777777777777777777777777777777777777777777777777777  7 777777 7 777",
"77 7 777777 7 77777777777777777777777777777777777777777777777777777777777777777777777777777777777777777777777777777777777777777777777777777777777777777777777777777777777777 7 777777 7 777",
"77 7 777777 7 77 77777 77777777777777777777777777777 77 77777777777777777777777777777777777777777777777777777777777777777777777777777777777777777777777777777777777777777777 7 777777 7 777",
"77 7 777777 7 77  777  77 77777777777777777777777777 77 77777777777777777777777777777777777777777777777777777777777777777777777777777777777777777777777777777777777777777777 7 777777 7 777",
"77 7 777777 7 77 7 7 7 777777    7777    7777    777 77 777   7777    7777    7777    777 777 777    77777777777777777777777777777777777777777777777777777777777777777777777 7 777777 7 777",
"77 7 777777 7 77 77 77 77 77 7777777 7777 77 7777 77 77 777777 777 777 77 7777 77 7777 77 777 77 777777777777777777777777777777777777777777777777777777777777777777777777777 7 777777 7 777",
"77 7 777777 7 77 77777 77 777    777 7777777      77 77 777    777 777 77      77 7777 77 777 777    77777777777777777777777777777777777777777777777777777777777777777777777 7 777777 7 777",
"77 7 777777 7 77 77777 77 7777777 77 7777 77 7777777 77 77 777 777 777 77 7777777 7777 77 777 7777777 7777777777777777777777777777777777777777777777777777777777777777777777 7 777777 7 777",
"77 7 777777 7 77 77777 77 77     7777    7777     77 77 777     77 777 777     777    7777    77     77777777777777777777777777777777777777777777777777777777777777777777777 7 777777 7 777",
"77 7 777777 7 77777777777777777777777777777777777777777777777777777777777777777777777777777777777777777777777777777777777777777777777777777777777777777777777777777777777777 7 777777 7 777",
"77 7 777777 7 77777777777777777777777777777777777777777777777777777777777777777777777777777777777777777777777777777777777777777777777777777777777777777777777777777777777777 7 777777 7 777",
"77 7 777777 7 77777777777777777777777777777777777777777777777777777777777777777777777777777777777777777777777777777777777777777777777777777777777777777777777777777777777777 7 777777 7 777",
"77 7 777777 77                                                                                                                                                              77 777777 7 777",
"77 7 777777  7777777777777777777777777777777777777777777777777777777777777777777777777777777777777777777777777777777777777777777777777777777777777777777777777777777777777777  777777 7 777",
"77 7 7777777                                                                                                                                                                  7777777 7 777",
"77 7 77777777                                                                                                                                                                77777777 7 777",
"77 7 77777777777777777777777777777777777777777777777777777777777777777777777777777777777777777777777777777777777777777777777777777777777777777777777777777777777777777777777777777777 7 777",
"77 7 77777777777777777777777777777777777777777777777777777777777777777777777777777777777777777777777777777777777777777777777777777777777777777777777777777777777777777777777777777777 7 777",
"77 7 77777777777777777777777777777777777777777777777777777777777777777777777777777777777777777777777777777777777777777777777777777777777777777777777777777777777777777777777777777777 7 777",
"77 7 77777777777777777777777777777777777777777777777777777777777777777777777777777777777777777777777777777777777777777777777777777777777777777777777777777777777777777777777777777777 7 777",
"77 7 7777================7================7================7================7=====     ======7================7================7================7================7===$$======$$===777 7 777",
"77 7 7777================7================7================7================7===  <<<<<  ====7================7======    ======7====        ====7================7=$$66$ ==$$66$ =777 7 777",
"77 7 7777================7======    ======7================7================7==  +<<<<<+  ===7==            ==7====  $$$$  ====7=    ++++++    =7================7=$===6$==$===6$=777 7 777",
"77 7 7777==     ===     =7====  %%%%  ====7================7================7==           ===7=  %%%    %%%  =7==   6    6   ==7= = <      < = =7================7$===6=6 $===6=6X777 7 777",
"77 7 7777= +<<<<   <<<<+ 7=== %%%<<%%% ===7======    ======7=====      =====7==  + +++ +  ===7  %   %<<%   %  7== = $66$$$ = ==7= = <<+<++++ = =7=====      =====7$6=6$66$$6=6$66$777 7 777",
"77 7 7777= +<+++<+<+++<+ 7=== %%%<<%%% ===7===== <<<< =====7====  <<<<  ====7==           ===7 % < %%%%%% < % 7===  $$$$$$  ===7==  ++++++++  ==7===          ===7==$6 $ ===$6 $ =777 7 777",
"77 7 7777= +<<<<++<+++<+ 7== %%%%%%%%%% ==7==== %<%%<% ====7=== <3<33<3< ===7=    +++++    ==7 % < %<<<<% < % 7===== $$$$ =====7==== ++++++ ====7==            ==7=6=$66$==6=$66$=777 7 777",
"77 7 7777= +<+<+<+<+++<+ 7== %%%%%%%%%% ==7===  <    <  ===7=== <      < ===7= + ++   ++ + ==7     %<<<<%     7====== $$ ======7=====  ++  =====7=              =7==   =====   ===777 7 777",
"77 7 7777= +<<<<<+<<<<<+ 7== <<%%%%%%<< ==7=== %<<<<<<% ===7=== <<<<<<<< ===7=  <+<+++<+<  ==7  %%  %%%%  %%  7=======  =======7=======  =======7=              =7===$$======$$===777 7 777",
"77 7 7777= +<<<<<+<+<+<+ 7== <<<<<<<<<< ==7=== %%<%%<%% ===7=== <3<33<3< ===7== <          ==7                7=====      =====7=====      =====7==            ==7=$$66$ ==$$66$ =777 7 777",
"77 7 7777= +<+++<+<<<<<+ 7=== <<<<<<<< ===7=== %<<<<<<% ===7=== <<<<<<<< ===7==  <<<  <<<<  =7=              =7=====      =====7=====      =====7===          ===7=$===6$==$===6$=777 7 777",
"77 7 7777= +<<<<<+<<<<<+ 7=== <<<<<<<< ===7===  %%%%%%  ===7=== 33333333 ===7== <<< <+<<<+<< 7== %  ====  % ==7====  6$$$  ====7====  <+++  ====7=====      =====7$===6=6 $===6=6 777 7 777",
"77 7 7777= +++++++++++++ 7====  <<<<  ====7===  <<<<<<  ===7=== 3  33  3 ===7===    <<<++<+< 7==   ======   ==7====  $$$$  ====7====  ++++  ====7================7$6=6$66$$6=6$66$777 7 777",
"77 7 7777=               7======    ======7=====      =====7====        ====7====== + <++< + 7================7=====      =====7=====      =====7================7==$6 $ ===$6 $ =777 7 777",
"77 7 7777================7================7================7================7====== <  <<  < 7================7================7================7================7=6=$66$==6=$66$=777 7 777",
"77 7 7777================7================7================7================7======= ==  == =7================7================7================7================7==   =====   ===777 7 777",
"77 7 77777777777777777777777777777777777777777777777777777777777777777777777777777777777777777777777777777777777777777777777777777777777777777777777777777777777777777777777777777777 7 777",
"77 7 7777===XXX;XX;XXX===7==========X=X===7================7=====&XXXX======7===XXXXXXXXXX===7===   1  1   ===7========== = ===7================7=====o    ======7===          ===777 7 777",
"77 7 7777==XX;=X;=X;=XX==7=========XOXOX==7==XXXX====XXXX==7====XXXX&,XX====7==X,,,,,,,,&&X==7==  1= 1= 1=  ==7========= @ @ ==7==    ====    ==7====    o#  ====7== ########oo ==777 7 777",
"77 7 7777=X;=XXXOOXXX=;X=7==X=X===XOXOOOX=7=X;;;;X==X;;;;X=7=&XX&XXXX&&XX&==7=X,,,,,,&,&,&&X=7= 1=   @@   =1 =7== = === @ @@@ =7= 1111 == 1111 =7=o  o    oo  o==7= ######o#o#oo =777 7 777",
"77 7 7777=XO;X;=XX;=X;OX=7=XOXOX==OXOXOXOX7X;;OOO;XX;;OOO;X7=X,XXX,,,XXXXX==7X&,,,&,&,&,&&XX=7= @1 1=  1= 1@ =7= @ @ ==@ @ @ @ 7 11@@@1  11@@@1 7= #   ###     ==7 o###o#o#o#oo  =777 7 777",
"77 7 7777==X;O;;OO;;O;X==7XOOOOOX=XXXXXOX=7X;O;;;;XX;O;;;;X7X,&X,X,&&,,XX&X=7X,&,&,&,&,&&&&XX7== 1@11@@11@1 ==7 @@@@@ =     @ =7 1@1111  1@1111 7 #o # #oo##  o =7 #o#o#o#o#oooo  777 7 777",
"77 7 7777=XO;;;=;;;;;;OX=7=XOXOXXXOXOXOX==7OO;;;;X=OO;;;;X=7X&X,&&X,&&&,XXX&7X,,&,&,&&&&&&X&X7= @111=111111@ =7= @ @   @ @ @ ==7@@1111 =@@1111 =7 o #oo #ooo#   o7 ##o#o#oooooo o 777 7 777",
"77 7 7777XO;O;;;;;;OO;=OX7XXXOXXXX;XXOXXO=7X;;;XX==X;;;XX==7XXX,&,XXX&,&X&XX7X,&,&&&,&&,&X&XX7 @1@111111@@1=@ 7   @    1  @  @=7 111  == 111  ==7   #o#   o#o o  7 #o#ooo#oo#o o  777 7 777",
"77 7 7777XO;;;==;O;OO;;OX7=XOXXXOX;O;XXO==7XXXX====XXXX====7&XX,&X&&&&&&&XXX7X&,&,&&&&&&&&X&X7 @111==1@1@@11@ 7= @   @ 1@1  @==7    ====    ====7o  #o ooooooo   7 o#o#oooooooo o 777 7 777",
"77 7 7777XOO;;==;;;;;;OOX7====XXOOOOX=====7================7=XXX&&&,X&&&XXX&7X,&,&&,&X&&&&&XX7 @@11==111111@@ 7====  @@@@ =====7================7=   ooo# ooo   o7 #o#oo#o ooooo  777 7 777",
"77 7 7777=XOOO;;;;;;OOOX=7=====OXOOX======7==XXXX====XXXX==7X&&X&&,X&&&X&XX=7XX&&&&&&&&&X&XXX7= @@@111111@@@ =7=====@ @@ ======7==    ====    ==7 oo oo# ooo o  =7  ooooooooo o   777 7 777",
"77 7 7777==XXOOOOOOOOXX==7======X=;X======7=X;;;;X==X;;;;X=7X&,&X&&X&&XXXXX&7X&&,&&X&&&X&X&XX7==  @@@@@@@@  ==7====== =1 ======7= 1111 == 1111 =7 o#o oo oo     o7 oo#oo ooo o o  777 7 777",
"77 7 7777====OXXOXXXO====7======X=;X======7X;;OOO;XX;;OOO;X7X,X&&XXXXXXX,XXX7XX&&&&&&&X&X&XXX7====@  @   @====7====== =1 ======7 11@@@1  11@@@1 7 # oo       #   7  ooooooo o o   777 7 777",
"77 7 7777======OXXX======7====OX=;=;XO====7X;O;;;;XX;O;;;;X7=X&&&XXXXX&,X&X&7XXX&X&X&X&X&XXXX7======@   ======7====@ =1=1 @====7 1@1111  1@1111 7= ooo     o# o o7   o o o o o    777 7 777",
"77 7 7777===;;;OXXX;;;===7===;XO;=;;OXO===7OO;;;;X=OO;;;;X=7=XX&XXXXX&X&&XX=7=XXX&X&X&XXXXXX=7===111@   111===7===1 @1=11@ @===7@@1111 =@@1111 =7=  o     o oo  =7=   o o o      =777 7 777",
"77 7 7777==;;;XXOXXX;;;==7====OXXOOXXO;===7X;;;XX==X;;;XX==7==XXXXXXXXXXXX==7=XXXXXXXXXXXXXX=7==111  @   111==7====@  @@  @1===7 111  == 111  ==7==            ==7=              =777 7 777",
"77 7 7777===;;;OXXO;;;===7=====OOXXOO=====7XXXX====XXXX====7====&XX==XXX&===7==XXXXXXXXXXXX==7===111@  @111===7=====@@  @@=====7    ====    ====7====o  ==   o===7==            ==777 7 777",
"77 7 77777777777777777777777777777777777777777777777777777777777777777777777777777777777777777777777777777777777777777777777777777777777777777777777777777777777777777777777777777777 7 777",
"77 7 7777===6666666666===7===6666666666===7:::6666666666:::7:::6666666666:::7:::6666666666:::7:::6666666666:::7:::6666666666:::7:::6666666666:::7::::::::::::::::7::::::    ::::::777 7 777",
"77 7 7777==6          6==7==6          6==7::6          6::7::6          6::7::6          6::7::6          6::7::6          6::7::6          6::7::           :::7::::  %%%%  ::::777 7 777",
"77 7 7777=6 6666666666 6=7=6 6666666666 6=7:6 6666666666 6:7:6 6666666666 6:7:6 6666666666 6:7:6 6666666666 6:7:6 6666666666 6:7:6 6666666666 6:7:: <<<<<<<<< :::7::: %%%%%%%% :::777 7 777",
"77 7 77776 66666  66666 676 66  666   66 676 666666666666 676 66        66 676 66        66 676 666666  6666 676 666666666666 676 6    6666666 67:: <3333333< :::7:: %%%%%%%%%% ::777 7 777",
"77 7 77776 66666  66666 676 6    6  6  6 676 66  6666  66 676 6   6666   6 676 6  66  66  6 676 6666   66666 676 666666666666 676 666 66666666 67:: <<<<<<<<< :::7:: %%% %% %%% ::777 7 777",
"77 7 77776 66666  66666 676 6        6 6 676 6 66 66 66 6 676 6   6666   6 676 6  66  66  6 676 666   666666 676 666   6666 6 676 66 666 6 6 6 67:: <33<3<33< :::7:: %% <  < %% ::777 7 777",
"77 7 77776 66666  66666 676 6          6 676 6 66 66 66 6 676 66666    666 676 6  6    6  6 676 66        66 676 6       6  6 676 6    6666666 67:: <<<<<<<<< :::7: %% <<<<<< %% :777 7 777",
"77 7 77776 66666  66666 676 66        66 676 666666666666 676 66666  66666 676 66        66 676 666666   666 676            6 676 666666    66 67:: <33<3<33< :::7 %%<<< << <<<%% 777 7 777",
"77 7 77776 666666666666 676 666      666 676 666666666666 676 666666666666 676 666666666666 676 66666   6666 676 6       6  6 676 66666666 666 67:: <<<<<<<<< :::7 %%%<< << <<%%% 777 7 777",
"77 7 77776 66666  66666 676 6666    6666 676 666 6666 666 676 6666    6666 676 666 6  6 666 676 6666   66666 676 666   6666 6 676 66 6 66 6666 67:: <333<3<3< :::7:  % <<%%<< %  :777 7 777",
"77 7 77776 66666  66666 676 66666  66666 676 6666    6666 676 6666    6666 676 666      666 676 666  6666666 676 666666666666 676 666666    66 67:: <<<<<<<<< :::7::: <      < :::777 7 777",
"77 7 7777=6 6666666666 6=7=6 6666666666 6=7:6 6666666666 6:7:6 6666666666 6:7:6 6666666666 6:7:6 6666666666 6:7:6 6666666666 6:7:6 6666666666 6:7:: 333<<<<<< :::7::: < <<   < :::777 7 777",
"77 7 7777==6          6==7==6          6==7::6          6::7::6          6::7::6          6::7::6          6::7::6          6::7::6          6::7:: <<3<3<33< :::7:::  <    <  :::777 7 777",
"77 7 7777===66666  666===7===66666  666===7:::66666  666:::7:::66666  666:::7:::66666  666:::7:::66666  666:::7:::66666  666:::7:::66666  666:::7::: <3<<<<<< :::7::::        ::::777 7 777",
"77 7 7777=======6 6======7=======6 6======7:::::::6 6::::::7:::::::6 6::::::7:::::::6 6::::::7:::::::6 6::::::7:::::::6 6::::::7:::::::6 6::::::7::::         :::7:::: %%  %% ::::777 7 777",
"77 7 7777=======66=======7=======66=======7:::::::66:::::::7:::::::66:::::::7:::::::66:::::::7:::::::66:::::::7:::::::66:::::::7:::::::66:::::::7::::::::::::::::7:::::  ::  :::::777 7 777",
"77 7 77777777777777777777777777777777777777777777777777777777777777777777777777777777777777777777777777777777777777777777777777777777777777777777777777777777777777777777777777777777 7 777",
"77 7 77777777777777777777777777777777777777777777777777777777777777777777777777777777777777777777777777777777777777777777777777777777777777777777777777777777777777777777777777777777 7 777",
"77 7 77777777777777777777777777777777777777777777777777777777777777777777777777777777777777777777777777777777777777777777777777777777777777777777777777777777777777777777777777777777 7 777",
"77 7 77777777                                                                                                                                                                77777777 7 777",
"77 7 7777777 7777777777777777777777777777777777777777777777777777777777777777777777777777777777777777777777777777777777777777777777777777777777777777777777777777777777777777 7777777 7 777",
"77 7 777777 77                                                                                                                                                              77 777777 7 777",
"77 7 777777 7                                                                                                                                                                7 777777 7 777",
"77 7 777777 7  777777777777777777777777777777777777777777777777777777777777777777777777777777777777777777777777777777777777777777777777777777777777777777777777777777777777  7 777777 7 777",
"77 7 777777 7 77777777777777777777777777777777777777777777777777777777777777777777777777777777777777777777777777777777777777777777777777777777777777777777777777777777777777 7 777777 7 777",
"77 7 777777 7 77      7777777777777 7777777777777777777777777777777777777777777777777777777777777777777777777777777777777777777777777777777777777777777777777777777777777777 7 777777 7 777",
"77 7 777777 7 77 77777 777777777777 777777777777777 7777777 7777777777777777777777777777777777777777777777777777777777777777777777777777777777777777777777777777777777777777 7 777777 7 777",
"77 7 777777 7 77 77777 777   777777 777777    777     777     7777    7777    7777777777777777777777777777777777777777777777777777777777777777777777777777777777777777777777 7 777777 7 777",
"77 7 777777 7 77      7777777 77777 77777 7777 7777 7777777 77777 7777 77 77777777777777777777777777777777777777777777777777777777777777777777777777777777777777777777777777 7 777777 7 777",
"77 7 777777 7 77 777777777    77777 77777      7777 7777777 77777      777    7777777777777777777777777777777777777777777777777777777777777777777777777777777777777777777777 7 777777 7 777",
"77 7 777777 7 77 77777777 777 77777 77777 777777777 7777777 77777 777777777777 777777777777777777777777777777777777777777777777777777777777777777777777777777777777777777777 7 777777 7 777",
"77 7 777777 7 77 777777777     7777 777777     77777  777777  7777     77     7777777777777777777777777777777777777777777777777777777777777777777777777777777777777777777777 7 777777 7 777",
"77 7 777777 7 77777777777777777777777777777777777777777777777777777777777777777777777777777777777777777777777777777777777777777777777777777777777777777777777777777777777777 7 777777 7 777",
"77 7 777777 7 77777777777777777777777777777777777777777777777777777777777777777777777777777777777777777777777777777777777777777777777777777777777777777777777777777777777777 7 777777 7 777",
"77 7 777777 7 77777777777777777777777777777777777777777777777777777777777777777777777777777777777777777777777777777777777777777777777777777777777777777777777777777777777777 7 777777 7 777",
"77 7 777777 77                                                                                                                                                              77 777777 7 777",
"77 7 777777  7777777777777777777777777777777777777777777777777777777777777777777777777777777777777777777777777777777777777777777777777777777777777777777777777777777777777777  777777 7 777",
"77 7 7777777                                                                                                                                                                  7777777 7 777",
"77 7 77777777                                                                                                                                                                77777777 7 777",
"77 7 77777777777777777777777777777777777777777777777777777777777777777777777777777777777777777777777777777777777777777777777777777777777777777777777777777777777777777777777777777777 7 777",
"77 7 77777777777777777777777777777777777777777777777777777777777777777777777777777777777777777777777777777777777777777777777777777777777777777777777777777777777777777777777777777777 7 777",
"77 7 77777777777777777777777777777777777777777777777777777777777777777777777777777777777777777777777777777777777777777777777777777777777777777777777777777777777777777777777777777777 7 777",
"77 7 7777=====      =====7=====      =====7=====      =====7=====      =====7>>>>>      >>>>>7================7===XXX;XX;XXX===7=====&XXXX======7===   1  1   ===7=====o    ======777 7 777",
"77 7 7777==== %%%%%% ====7==== 333333 ====7==== ------ ====7==== ++++++ ====7>>>> ****** >>>>7======    ======7==XX;=X;=X;=XX==7====XXXX&,XX====7==  1= 1= 1=  ==7====    o#  ====777 7 777",
"77 7 7777=== %%%%%%%% ===7=== 33333333 ===7=== -------- ===7=== ++++++++ ===7>>> ******** >>>7====  $$$$  ====7=X;=XXXOOXXX=;X=7=&XX&XXXX&&XX&==7= 1=   @@   =1 =7=o  o    oo  o==777 7 777",
"77 7 7777=== %%%  %%% ===7=== 333  333 ===7=== ---  --- ===7=== +++  +++ ===7>>> ***  *** >>>7==   6    6   ==7=XO;X;=XX;=X;OX=7=X,XXX,,,XXXXX==7= @1 1=  1= 1@ =7= #   ###     ==777 7 777",
"77 7 7777==  %%    %%  ==7==  33    33  ==7==  --    --  ==7==  ++    ++  ==7>>  **    **  >>7== = $66$$$ = ==7==X;O;;OO;;O;X==7X,&X,X,&&,,XX&X=7== 1@11@@11@1 ==7 #o # #oo##  o =777 7 777",
"77 7 7777==    %%%%    ==7==    3333    ==7==    ----    ==7==    ++++    ==7>>    ****    >>7===  $$$$$$  ===7=XO;;;=;;;;;;OX=7X&X,&&X,&&&,XXX&7= @111=111111@ =7 o #oo #ooo#   o777 7 777",
"77 7 7777= < <<<<<<<< < =7= < <<<<<<<< < =7= < <<<<<<<< < =7= < <<<<<<<< < =7> < <<<<<<<< < >7===== $$$$ =====7XO;O;;;;;;OO;=OX7XXX,&,XXX&,&X&XX7 @1@111111@@1=@ 7   #o#   o#o o  777 7 777",
"77 7 7777= <<<< << <<<< =7= <<<< << <<<< =7= <<<< << <<<< =7= <<<< << <<<< =7> <<<< << <<<< >7====== $$ ======7XO;;;==;O;OO;;OX7&XX,&X&&&&&&&XXX7 @111==1@1@@11@ 7o  #o ooooooo   777 7 777",
"77 7 7777==  << << <<  ==7==  << << <<  ==7==  << << <<  ==7==  << << <<  ==7>>  << << <<  >>7=======  =======7XOO;;==;;;;;;OOX7=XXX&&&,X&&&XXX&7 @@11==111111@@ 7=   ooo# ooo   o777 7 777",
"77 7 7777===  <<%%<<  ===7===  <<33<<  ===7===  <<--<<  ===7===  <<++<<  ===7>>>  <<**<<  >>>7=====      =====7=XOOO;;;;;;OOOX=7X&&X&&,X&&&X&XX=7= @@@111111@@@ =7 oo oo# ooo o  =777 7 777",
"77 7 7777==  <%    %<  ==7==  <3    3<  ==7==  <-    -<  ==7==  <+    +<  ==7>>  <*    *<  >>7=====      =====7==XXOOOOOOOOXX==7X&,&X&&X&&XXXXX&7==  @@@@@@@@  ==7 o#o oo oo     o777 7 777",
"77 7 7777= << <<%%<< << =7= << <<33<< << =7= << <<--<< << =7= << <<++<< << =7> << <<**<< << >7====  6$$$  ====7====OXXOXXXO====7X,X&&XXXXXXX,XXX7====@  @   @====7 # oo       #   777 7 777",
"77 7 7777= << %%<<%% << =7= << 33<<33 << =7= << --<<-- << =7= << ++<<++ << =7> << **<<** << >7====  $$$$  ====7======OXXX======7=X&&&XXXXX&,X&X&7======@   ======7= ooo     o# o o777 7 777",
"77 7 7777==            ==7==            ==7==            ==7==            ==7>>            >>7=====      =====7===;;;OXXX;;;===7=XX&XXXXX&X&&XX=7===111@   111===7=  o     o oo  =777 7 777",
"77 7 7777=== %%    %% ===7=== 33    33 ===7=== --    -- ===7=== ++    ++ ===7>>> **    ** >>>7================7==;;;XXOXXX;;;==7==XXXXXXXXXXXX==7==111  @   111==7==            ==777 7 777",
"77 7 7777====   ==   ====7====   ==   ====7====   ==   ====7====   ==   ====7>>>>   >>   >>>>7================7===;;;OXXO;;;===7====&XX==XXX&===7===111@  @111===7====o  ==   o===777 7 777",
"77 7 77777777777777777777777777777777777777777777777777777777777777777777777777777777777777777777777777777777777777777777777777777777777777777777777777777777777777777777777777777777 7 777",
"77 7 77777777777777777777777777777777777777777777777777777777777777777777777777777777777777777777777777777777777777777777777777777777777777777777777777777777777777777777777777777777 7 777",
"77 7 77777777777777777777777777777777777777777777777777777777777777777777777777777777777777777777777777777777777777777777777777777777777777777777777777777777777777777777777777777777 7 777",
"77 7 77777777                                                                                                                                                                77777777 7 777",
"77 7 7777777 7777777777777777777777777777777777777777777777777777777777777777777777777777777777777777777777777777777777777777777777777777777777777777777777777777777777777777 7777777 7 777",
"77 7 777777 77                                                                                                                                                              77 777777 7 777",
"77 7 777777 7                                                                                                                                                                7 777777 7 777",
"77 7 777777 7  777777777777777777777777777777777777777777777777777777777777777777777777777777777777777777777777777777777777777777777777777777777777777777777777777777777777  7 777777 7 777",
"77 7 777777 7 77777777777777777777777777777777777777777777777777777777777777777777777777777777777777777777777777777777777777777777777777777777777777777777777777777777777777 7 777777 7 777",
"77 7 777777 7 77 77777777777777777777777777777777777777777777 77777777777777777777777777777777777777777777777777777777777777777777777777777777777777777777777777777777777777 7 777777 7 777",
"77 7 777777 7 77 77777777777777777777777777777777777777777777 77777777777777777777777777777777777777777777777777777777777777777777777777777777777777777777777777777777777777 7 777777 7 777",
"77 7 777777 7 77 777777777    7777     777    777    77777777 77777777777777777777777777777777777777777777777777777777777777777777777777777777777777777777777777777777777777 7 777777 7 777",
"77 7 777777 7 77 77777777 7777 77 7777 77 7777 77 777 777     77777777777777777777777777777777777777777777777777777777777777777777777777777777777777777777777777777777777777 7 777777 7 777",
"77 7 777777 7 77 77777777      77 7777 77      77 777 77 7777 77777777777777777777777777777777777777777777777777777777777777777777777777777777777777777777777777777777777777 7 777777 7 777",
"77 7 777777 7 77 77777777 77777777     77 7777777 777 77 7777 77777777777777777777777777777777777777777777777777777777777777777777777777777777777777777777777777777777777777 7 777777 7 777",
"77 7 777777 7 77       777     7777777 777     77 777 777     77777777777777777777777777777777777777777777777777777777777777777777777777777777777777777777777777777777777777 7 777777 7 777",
"77 7 777777 7 7777777777777777777     77777777777777777777777777777777777777777777777777777777777777777777777777777777777777777777777777777777777777777777777777777777777777 7 777777 7 777",
"77 7 777777 7 77777777777777777777777777777777777777777777777777777777777777777777777777777777777777777777777777777777777777777777777777777777777777777777777777777777777777 7 777777 7 777",
"77 7 777777 7 77777777777777777777777777777777777777777777777777777777777777777777777777777777777777777777777777777777777777777777777777777777777777777777777777777777777777 7 777777 7 777",
"77 7 777777 77                                                                                                                                                              77 777777 7 777",
"77 7 777777  7777777777777777777777777777777777777777777777777777777777777777777777777777777777777777777777777777777777777777777777777777777777777777777777777777777777777777  777777 7 777",
"77 7 7777777                                                                                                                                                                  7777777 7 777",
"77 7 77777777                                                                                                                                                                77777777 7 777",
"77 7 77777777777777777777777777777777777777777777777777777777777777777777777777777777777777777777777777777777777777777777777777777777777777777777777777777777777777777777777777777777 7 777",
"77 7 77777777777777777777777777777777777777777777777777777777777777777777777777777777777777777777777777777777777777777777777777777777777777777777777777777777777777777777777777777777 7 777",
"77 7 77777777777777777777777777777777777777777777777777777777777777777777777777777777777777777777777777777777777777777777777777777777777777777777777777777777777777777777777777777777 7 777",
"77 7 7777================777777777777777777777777777777777777777777777777777777777777777777777777777777777777777777777777777777777777777777777777777777777777777777777777777777777777 7 777",
"77 7 7777================777777777777777777777777777777777777777777777777777777777777777777777777777777777777777777777777777777777777777777777777777777777777777777777777777777777777 7 777",
"77 7 7777================777777777777777777777777777777777777777777777777777777777777777777777777777777777777777777777777777777777777777777777777777777777777777777777777777777777777 7 777",
"77 7 7777================777777777777777777777777777777777777777777777777777777777777777777777777777777777777777777777777777777777777777777777777777777777777777777777777777777777777 7 777",
"77 7 7777================777777777777777777777777777777777777777777777777777777777777777777777777777777777777777777777777777777777777777777777777777777777777777777777777777777777777 7 777",
"77 7 7777================777777777777777777777777777777777777777777777777777777777777777777777777777777777777777777777777777777777777777777777777777777777777777777777777777777777777 7 777",
"77 7 7777================777777777777777777777777777777777777777777777777777777777777777777777777777777777777777777777777777777777777777777777777777777777777777777777777777777777777 7 777",
"77 7 7777================77 77777 77777777777777777777777 777777777777777777777777777777777777777777777777777777777777777777777777777777777777777777777777777777777777777777777777777 7 777",
"77 7 7777================77 77777 77777777777777777777777 777777777777777777777777777777777777777777777777777777777777777777777777777777777777777777777777777777777777777777777777777 7 777",
"77 7 7777================77 77777 777    7777    77777777 777777777777777777777777777777777777777777777777777777777777777777777777777777777777777777777777777777777777777777777777777 7 777",
"77 7 7777================77 77777 77 7777777 7777 777     777777777777777777777777777777777777777777777777777777777777777777777777777777777777777777777777777777777777777777777777777 7 777",
"77 7 7777================77 77777 777    777      77 7777 777777777777777777777777777777777777777777777777777777777777777777777777777777777777777777777777777777777777777777777777777 7 777",
"77 7 7777================777 7777 7777777 77 7777777 7777 777777777777777777777777777777777777777777777777777777777777777777777777777777777777777777777777777777777777777777777777777 7 777",
"77 7 7777================7777     77     7777     777     777777777777777777777777777777777777777777777777777777777777777777777777777777777777777777777777777777777777777777777777777 7 777",
"77 7 7777================777777777777777777777777777777777777777777777777777777777777777777777777777777777777777777777777777777777777777777777777777777777777777777777777777777777777 7 777",
"77 7 7777================777777777777777777777777777777777777777777777777777777777777777777777777777777777777777777777777777777777777777777777777777777777777777777777777777777777777 7 777",
"77 7 77777777777777777777777777777777777777777777777777777777777777777777777777777777777777777777777777777777777777777777777777777777777777777777777777777777777777777777777777777777 7 777",
"77 7 7777>>>>>>>>>>>>>>>>777777777777777777777777777777777777777777777777777777777777777777777777777777777777777777777777777777777777777777777777777777777777777777777777777777777777 7 777",
"77 7 7777>>>>>>>>>>>>>>>>777777777777777777777777777777777777777777777777777777777777777777777777777777777777777777777777777777777777777777777777777777777777777777777777777777777777 7 777",
"77 7 7777>>>>>>>>>>>>>>>>777777777777777777777777777777777777777777777777777777777777777777777777777777777777777777777777777777777777777777777777777777777777777777777777777777777777 7 777",
"77 7 7777>>>>>>>>>>>>>>>>777777777777777777777777777777777777777777777777777777777777777777777777777777777777777777777777777777777777777777777777777777777777777777777777777777777777 7 777",
"77 7 7777>>>>>>>>>>>>>>>>777777777777777777777777777777777777777777777777777777777777777777777777777777777777777777777777777777777777777777777777777777777777777777777777777777777777 7 777",
"77 7 7777>>>>>>>>>>>>>>>>777777777777777777777777777777777777777777777777777777777777777777777777777777777777777777777777777777777777777777777777777777777777777777777777777777777777 7 777",
"77 7 7777>>>>>>>>>>>>>>>>777777777777777777777777777777777777777777777777777777777777777777777777777777777777777777777777777777777777777777777777777777777777777777777777777777777777 7 777",
"77 7 7777>>>>>>>>>>>>>>>>77 77777 7777777777777777777777777777777777777 7777777777777777777777777777777777777777777777777777777777777777777777777777777777777777777777777777777777777 7 777",
"77 7 7777>>>>>>>>>>>>>>>>77 77777 7777777777777777777777777777777777777 7777777777777777777777777777777777777777777777777777777777777777777777777777777777777777777777777777777777777 7 777",
"77 7 7777>>>>>>>>>>>>>>>>77 77777 77    777 777 777    7777    77777777 7777777777777777777777777777777777777777777777777777777777777777777777777777777777777777777777777777777777777 7 777",
"77 7 7777>>>>>>>>>>>>>>>>77 77777 77 777 77 777 77 7777777 7777 777     7777777777777777777777777777777777777777777777777777777777777777777777777777777777777777777777777777777777777 7 777",
"77 7 7777>>>>>>>>>>>>>>>>77 77777 77 777 77 777 777    777      77 7777 7777777777777777777777777777777777777777777777777777777777777777777777777777777777777777777777777777777777777 7 777",
"77 7 7777>>>>>>>>>>>>>>>>777 7777 77 777 77 777 7777777 77 7777777 7777 7777777777777777777777777777777777777777777777777777777777777777777777777777777777777777777777777777777777777 7 777",
"77 7 7777>>>>>>>>>>>>>>>>7777     77 777 777    77     7777     777     7777777777777777777777777777777777777777777777777777777777777777777777777777777777777777777777777777777777777 7 777",
"77 7 7777>>>>>>>>>>>>>>>>777777777777777777777777777777777777777777777777777777777777777777777777777777777777777777777777777777777777777777777777777777777777777777777777777777777777 7 777",
"77 7 7777>>>>>>>>>>>>>>>>777777777777777777777777777777777777777777777777777777777777777777777777777777777777777777777777777777777777777777777777777777777777777777777777777777777777 7 777",
"77 7 77777777777777777777777777777777777777777777777777777777777777777777777777777777777777777777777777777777777777777777777777777777777777777777777777777777777777777777777777777777 7 777",
"77 7 77777777777777777777777777777777777777777777777777777777777777777777777777777777777777777777777777777777777777777777777777777777777777777777777777777777777777777777777777777777 7 777",
"77 7 77777777777777777777777777777777777777777777777777777777777777777777777777777777777777777777777777777777777777777777777777777777777777777777777777777777777777777777777777777777 7 777",
"77 77                                                                                                                                                                                77 777",
"77  7777777777777777777777777777777777777777777777777777777777777777777777777777777777777777777777777777777777777777777777777777777777777777777777777777777777777777777777777777777777  777",
"777                                                                                                                                                                                    7777",
"7777                                                                                                                                                                                  77777",
"7777777777777777777777777777777777777777777777777777777777777777777777777777777777777777777777777777777777777777777777777777777777777777777777777777777777777777777777777777777777777777777",
"7777777777777777777777777777777777777777777777777777777777777777777777777777777777777777777777777777777777777777777777777777777777777777777777777777777777777777777777777777777777777777777"
};
