/* XPM */
static char * wall1_xpm[] = {
"64 64 7 1",
" 	c #63CE08",
".	c #B5FF52",
"+	c #383838",
"@	c #297300",
"#	c #287000",
"$	c #60C808",
"%	c #22B14C",
"    ....    ....    ....    ....    ....++++....++++....    ....",
"    ....    ....    ....    ....    ....++++....++++....    ....",
"    ....    ....    ....    ....    ....++++....++++....    ....",
"    ....    ....    ....    ....    ....++++....++++....    ....",
"....    ....@@@@....@@@@....    ....++++####++++####++++....    ",
"....    ....@@@@....@@@@....    ....++++####++++####++++....    ",
"....    ....@@@@....@@@@....    ....++++####++++####++++....    ",
"....    ....@@@@....@@@@....    ....++++####++++####++++....    ",
"    @@@@++++....++++....    @@@@++++####++++############++++@@@@",
"    @@@@++++....++++....    @@@@++++####++++############++++@@@@",
"    @@@@++++....++++....    @@@@++++####++++############++++@@@@",
"    @@@@++++....++++....    @@@@++++####++++############++++@@@@",
"....++++####++++####++++....    ####++++####++++####++++####++++",
"....++++####++++####++++....    ####++++####++++####++++####++++",
"....++++####++++####++++....    ####++++####++++####++++####++++",
"....++++####++++####++++....    ####++++####++++####++++####++++",
"++++####################++++....++++++++++++++++++++####++++....",
"++++####################++++....++++++++++++++++++++####++++....",
"++++####################++++....++++++++++++++++++++####++++....",
"++++####################++++....++++++++++++++++++++####++++....",
"....++++####++++####++++++++++++####++++####++++####++++....    ",
"....++++####++++####++++++++++++####++++####++++####++++....    ",
"....++++####++++####++++++++++++####++++####++++####++++....    ",
"....++++####++++####++++++++++++####++++####++++####++++....    ",
"++++++++++++####++++++++++++++++$$$$++++++++####++++++++####....",
"++++++++++++####++++++++++++++++$$$$++++++++####++++++++####....",
"++++++++++++####++++++++++++++++$$$$++++++++####++++++++####....",
"++++++++++++####++++++++++++++++$$$$++++++++####++++++++####....",
"....++++####++++++++++++####++++$$$$####$$$$++++++++####....    ",
"....++++####++++++++++++####++++$$$$####$$$$++++++++####....    ",
"....++++####++++++++++++####++++$$$$####$$$$++++++++####....    ",
"....++++####++++++++++++####++++$$$$####$$$$++++++++####....    ",
"    ....    ....++++++++################++++....    ....    ....",
"    ....    ....++++++++################++++....    ....    ....",
"    ....    ....++++++++################++++....    ....    ....",
"    ....    ....++++++++################++++....    ....    ....",
"....    ....@@@@....####++++########++++....@@@@....@@@@....    ",
"....    ....@@@@....####++++########++++....@@@@....@@@@....    ",
"....    ....@@@@....####++++########++++....@@@@....@@@@....    ",
"....    ....@@@@....####++++########++++....@@@@....@@@@....    ",
"    @@@@    ....    ....++++%%%%$$$$++++    ....    ....    @@@@",
"    @@@@    ....    ....++++%%%%$$$$++++    ....    ....    @@@@",
"    @@@@    ....    ....++++%%%%$$$$++++    ....    ....    @@@@",
"    @@@@    ....    ....++++%%%%$$$$++++    ....    ....    @@@@",
"....    ....    ....    ++++%%%%$$$$++++....    ....    ....    ",
"....    ....    ....    ++++%%%%$$$$++++....    ....    ....    ",
"....    ....    ....    ++++%%%%$$$$++++....    ....    ....    ",
"....    ....    ....    ++++%%%%$$$$++++....    ....    ....    ",
"    ....    ....####++++%%%%$$$$%%%%$$$$++++####    ....    ....",
"    ....    ....####++++%%%%$$$$%%%%$$$$++++####    ....    ....",
"    ....    ....####++++%%%%$$$$%%%%$$$$++++####    ....    ....",
"    ....    ....####++++%%%%$$$$%%%%$$$$++++####    ....    ....",
"....    ....$$$$++++####$$$$%%%%$$$$$$$$####++++####    ....    ",
"....    ....$$$$++++####$$$$%%%%$$$$$$$$####++++####    ....    ",
"....    ....$$$$++++####$$$$%%%%$$$$$$$$####++++####    ....    ",
"....    ....$$$$++++####$$$$%%%%$$$$$$$$####++++####    ....    ",
"    ....    ....####++++++++########++++++++####$$$$....    ....",
"    ....    ....####++++++++########++++++++####$$$$....    ....",
"    ....    ....####++++++++########++++++++####$$$$....    ....",
"    ....    ....####++++++++########++++++++####$$$$....    ....",
"....    ....    ....########++++++++########    ....    ....    ",
"....    ....    ....########++++++++########    ....    ....    ",
"....    ....    ....########++++++++########    ....    ....    ",
"....    ....    ....########++++++++########    ....    ....    "};
