/* XPM */
static char * exit_0_xpm[] = {
"64 64 7 1",
" 	c #63CE08",
".	c #B5FF52",
"+	c #297300",
"@	c #B88000",
"#	c #000000",
"$	c #F0D058",
"%	c #F8F8F8",
"    ....    ....    ....    ....    ....    ....    ....    ....",
"    ....    ....    ....    ....    ....    ....    ....    ....",
"    ....    ....    ....    ....    ....    ....    ....    ....",
"    ....    ....    ....    ....    ....    ....    ....    ....",
"....    ....++++....++++....    ....    ....++++....++++....    ",
"....    ....++++....++++....    ....    ....++++....++++....    ",
"....    ....++++....++++....    ....    ....++++....++++....    ",
"....    ....++++....++++....    ....    ....++++....++++....    ",
"    ++++    ....    ....    @@######++++    ....    ....    ++++",
"    ++++    ....    ....    @@######++++    ....    ....    ++++",
"    ++++    ....    ....@@##$$$$$$$$####    ....    ....    ++++",
"    ++++    ....    ....@@##$$$$$$$$####    ....    ....    ++++",
"....    ....    ....@@##$$%%%%%%%%$$$$$$####    ....    ....    ",
"....    ....    ....@@##$$%%%%%%%%$$$$$$####    ....    ....    ",
"....    ....    ..##$$$$%%%%%%%%%%%%$$$$$$$$##  ....    ....    ",
"....    ....    ..##$$$$%%%%%%%%%%%%$$$$$$$$##  ....    ....    ",
"    ....    ....##$$$$%%$$%%%%%%%%%%$$$$$$$$$$##    ....    ....",
"    ....    ....##$$$$%%$$%%%%%%%%%%$$$$$$$$$$##    ....    ....",
"    ....    ..##$$$$$$$$%%$$%%%%%%$$$$$$@@$$$$$$##  ....    ....",
"    ....    ..##$$$$$$$$%%$$%%%%%%$$$$$$@@$$$$$$##  ....    ....",
"....    ....@@$$$$$$$$%%$$%%$$%%$$$$$$@@$$@@@@$$$$##    ....    ",
"....    ....@@$$$$$$$$%%$$%%$$%%$$$$$$@@$$@@@@$$$$##    ....    ",
"....    ....##$$$$$$$$$$%%$$%%$$$$$$$$$$@@$$@@@@$$##    ....    ",
"....    ....##$$$$$$$$$$%%$$%%$$$$$$$$$$@@$$@@@@$$##    ....    ",
"    ....  ##$$$$$$$$$$$$$$$$$$$$$$$$$$@@$$@@@@@@$$$$##..    ....",
"    ....  ##$$$$$$$$$$$$$$$$$$$$$$$$$$@@$$@@@@@@$$$$##..    ....",
"    ....  ##$$$$$$$$$$$$$$$$$$$$$$$$$$$$@@@@@@$$$$$$##..    ....",
"    ....  ##$$$$$$$$$$$$$$$$$$$$$$$$$$$$@@@@@@$$$$$$##..    ....",
"....    @@$$$$$$$$$$$$$$$$$$$$$$$$$$$$$$$$@@$$$$$$$$$$##....    ",
"....    @@$$$$$$$$$$$$$$$$$$$$$$$$$$$$$$$$@@$$$$$$$$$$##....    ",
"....    ##$$$$$$$$$$$$$$$$$$$$$$$$$$$$$$$$$$$$$$$$$$$$##....    ",
"....    ##$$$$$$$$$$$$$$$$$$$$$$$$$$$$$$$$$$$$$$$$$$$$##....    ",
"    ....##$$$$$$@@$$$$$$$$$$$$$$$$$$$$$$$$$$$$$$$$$$$$##    ....",
"    ....##$$$$$$@@$$$$$$$$$$$$$$$$$$$$$$$$$$$$$$$$$$$$##    ....",
"    ....##$$$$@@@@@@$$$$$$$$$$$$$$@@@@$$$$$$$$$$$$$$$$##    ....",
"    ....##$$$$@@@@@@$$$$$$$$$$$$$$@@@@$$$$$$$$$$$$$$$$##    ....",
"....    ##$$@@@@@@@@@@$$$$$$$$$$@@@@@@$$$$$$$$$$$$$$$$##....    ",
"....    ##$$@@@@@@@@@@$$$$$$$$$$@@@@@@$$$$$$$$$$$$$$$$##....    ",
"....    ..##@@@@@@@@@@@@$$$$$$$$@@@@@@$$$$$$$$$$$$$$##++....    ",
"....    ..##@@@@@@@@@@@@$$$$$$$$@@@@@@$$$$$$$$$$$$$$##++....    ",
"    ++++  ##$$@@@@@@@@@@$$$$$$$$$$@@$$$$$$$$@@@@$$$$##..    ++++",
"    ++++  ##$$@@@@@@@@@@$$$$$$$$$$@@$$$$$$$$@@@@$$$$##..    ++++",
"    ++++    ##@@@@@@@@@@$$$$$$$$$$$$$$$$$$@@@@@@$$##....    ++++",
"    ++++    ##@@@@@@@@@@$$$$$$$$$$$$$$$$$$@@@@@@$$##....    ++++",
"....    ....##$$@@@@@@$$$$$$$$$$$$$$$$$$@@@@@@@@$$##    ....    ",
"....    ....##$$@@@@@@$$$$$$$$$$$$$$$$$$@@@@@@@@$$##    ....    ",
"....    ....  ##$$$$$$$$$$$$$$$$$$$$$$$$@@@@@@$$##..    ....    ",
"....    ....  ##$$$$$$$$$$$$$$$$$$$$$$$$@@@@@@$$##..    ....    ",
"    ....    ....##$$$$$$$$@@@@$$$$$$$$$$$$$$$$##    ....    ....",
"    ....    ....##$$$$$$$$@@@@$$$$$$$$$$$$$$$$##    ....    ....",
"    ....    ....  ####$$@@@@@@@@$$$$$$$$$$####..    ....    ....",
"    ....    ....  ####$$@@@@@@@@$$$$$$$$$$####..    ....    ....",
"....    ....    ....  ####@@@@$$$$$$$$####..    ....    ....    ",
"....    ....    ....  ####@@@@$$$$$$$$####..    ....    ....    ",
"....    ....    ....    ..############  ....    ....    ....    ",
"....    ....    ....    ..############  ....    ....    ....    ",
"    ....    ....    ....    ....    ....    ....    ....    ....",
"    ....    ....    ....    ....    ....    ....    ....    ....",
"    ....    ....    ....    ....    ....    ....    ....    ....",
"    ....    ....    ....    ....    ....    ....    ....    ....",
"....    ....    ....    ....    ....    ....    ....    ....    ",
"....    ....    ....    ....    ....    ....    ....    ....    ",
"....    ....    ....    ....    ....    ....    ....    ....    ",
"....    ....    ....    ....    ....    ....    ....    ....    "};
