/* XPM */
static char * exit_100_2_xpm[] = {
"64 64 6 1",
" 	c #63CE08",
".	c #B5FF52",
"+	c #297300",
"@	c #F83808",
"#	c #000000",
"$	c #F89850",
"    ....    ....    ....    ....    ....    ....    ....    ....",
"    ....    ....    ....    ....    ....    ....    ....    ....",
"    ....    ....    ....    ....    ....    ....    ....    ....",
"    ....    ....    ....    ....    ....    ....    ....    ....",
"....    ....++++....++++....@@@@########....++++....++++....    ",
"....    ....++++....++++....@@@@########....++++....++++....    ",
"....    ....++++....++++....@@@@########....++++....++++....    ",
"....    ....++++....++++....@@@@########....++++....++++....    ",
"    ++++    ....    ....################    ....    ....    ++++",
"    ++++    ....    ....################    ....    ....    ++++",
"    ++++    ....    ....################    ....    ....    ++++",
"    ++++    ....    ....################    ....    ....    ++++",
"....    ....    ....####@@@@@@@@@@@@@@@@####    ....    ....    ",
"....    ....    ....####@@@@@@@@@@@@@@@@####    ....    ....    ",
"....    ....    ....####@@@@@@@@@@@@@@@@####    ....    ....    ",
"....    ....    ....####@@@@@@@@@@@@@@@@####    ....    ....    ",
"    ....    ....@@@@$$$$@@@@@@@@@@@@@@@@$$$$@@@@    ....    ....",
"    ....    ....@@@@$$$$@@@@@@@@@@@@@@@@$$$$@@@@    ....    ....",
"    ....    ....@@@@$$$$@@@@@@@@@@@@@@@@$$$$@@@@    ....    ....",
"    ....    ....@@@@$$$$@@@@@@@@@@@@@@@@$$$$@@@@    ....    ....",
"....    ....    ########@@@@@@@@@@@@@@@@########....    ....    ",
"....    ....    ########@@@@@@@@@@@@@@@@########....    ....    ",
"....    ....    ########@@@@@@@@@@@@@@@@########....    ....    ",
"....    ....    ########@@@@@@@@@@@@@@@@########....    ....    ",
"    ....    ....####@@@@@@@@########@@@@@@@@####    ....    ....",
"    ....    ....####@@@@@@@@########@@@@@@@@####    ....    ....",
"    ....    ....####@@@@@@@@########@@@@@@@@####    ....    ....",
"    ....    ....####@@@@@@@@########@@@@@@@@####    ....    ....",
"....    ....    @@@@@@@@####$$$$@@@@####@@@@@@@@....    ....    ",
"....    ....    @@@@@@@@####$$$$@@@@####@@@@@@@@....    ....    ",
"....    ....    @@@@@@@@####$$$$@@@@####@@@@@@@@....    ....    ",
"....    ....    @@@@@@@@####$$$$@@@@####@@@@@@@@....    ....    ",
"    ....    @@@@####$$$$$$$$########$$$$$$$$####@@@@....    ....",
"    ....    @@@@####$$$$$$$$########$$$$$$$$####@@@@....    ....",
"    ....    @@@@####$$$$$$$$########$$$$$$$$####@@@@....    ....",
"    ....    @@@@####$$$$$$$$########$$$$$$$$####@@@@....    ....",
"....    ....####$$$$$$$$$$$$$$$$$$$$$$$$$$$$$$$$####++++....    ",
"....    ....####$$$$$$$$$$$$$$$$$$$$$$$$$$$$$$$$####++++....    ",
"....    ....####$$$$$$$$$$$$$$$$$$$$$$$$$$$$$$$$####++++....    ",
"....    ....####$$$$$$$$$$$$$$$$$$$$$$$$$$$$$$$$####++++....    ",
"    ++++####@@@@$$$$$$$$$$$$$$$$$$$$$$$$$$$$$$$$@@@@####    ++++",
"    ++++####@@@@$$$$$$$$$$$$$$$$$$$$$$$$$$$$$$$$@@@@####    ++++",
"    ++++####@@@@$$$$$$$$$$$$$$$$$$$$$$$$$$$$$$$$@@@@####    ++++",
"    ++++####@@@@$$$$$$$$$$$$$$$$$$$$$$$$$$$$$$$$@@@@####    ++++",
"....    ####@@@@$$$$$$$$$$$$$$$$$$$$$$$$$$$$$$$$@@@@####....    ",
"....    ####@@@@$$$$$$$$$$$$$$$$$$$$$$$$$$$$$$$$@@@@####....    ",
"....    ####@@@@$$$$$$$$$$$$$$$$$$$$$$$$$$$$$$$$@@@@####....    ",
"....    ####@@@@$$$$$$$$$$$$$$$$$$$$$$$$$$$$$$$$@@@@####....    ",
"    ....    ####@@@@$$$$$$$$$$$$$$$$$$$$$$$$@@@@####....    ....",
"    ....    ####@@@@$$$$$$$$$$$$$$$$$$$$$$$$@@@@####....    ....",
"    ....    ####@@@@$$$$$$$$$$$$$$$$$$$$$$$$@@@@####....    ....",
"    ....    ####@@@@$$$$$$$$$$$$$$$$$$$$$$$$@@@@####....    ....",
"....    ....    ....####@@@@$$$$$$$$@@@@####    ....    ....    ",
"....    ....    ....####@@@@$$$$$$$$@@@@####    ....    ....    ",
"....    ....    ....####@@@@$$$$$$$$@@@@####    ....    ....    ",
"....    ....    ....####@@@@$$$$$$$$@@@@####    ....    ....    ",
"    ....    ....    ....################    ....    ....    ....",
"    ....    ....    ....################    ....    ....    ....",
"    ....    ....    ....################    ....    ....    ....",
"    ....    ....    ....################    ....    ....    ....",
"....    ....    ....####@@@@    ....@@@@####    ....    ....    ",
"....    ....    ....####@@@@    ....@@@@####    ....    ....    ",
"....    ....    ....####@@@@    ....@@@@####    ....    ....    ",
"....    ....    ....####@@@@    ....@@@@####    ....    ....    "};
