/* XPM */
static char * gold_right_idle_xpm[] = {
"64 64 6 1",
" 	c #63CE08",
".	c #B5FF52",
"+	c #000000",
"@	c #297300",
"#	c #F83808",
"$	c #F89850",
"    ....    ....    ++++++++++++++++++++++++....    ....    ....",
"    ....    ....    ++++++++++++++++++++++++....    ....    ....",
"    ....    ....    ++++++++++++++++++++++++....    ....    ....",
"    ....    ....    ++++++++++++++++++++++++....    ....    ....",
"....    ....@@@@++++########################++++....@@@@....    ",
"....    ....@@@@++++########################++++....@@@@....    ",
"....    ....@@@@++++########################++++....@@@@....    ",
"....    ....@@@@++++########################++++....@@@@....    ",
"    @@@@    ++++################################++++....    @@@@",
"    @@@@    ++++################################++++....    @@@@",
"    @@@@    ++++################################++++....    @@@@",
"    @@@@    ++++################################++++....    @@@@",
"....    ++++++++$$$$########################++++++++    ....    ",
"....    ++++++++$$$$########################++++++++    ....    ",
"....    ++++++++$$$$########################++++++++    ....    ",
"....    ++++++++$$$$########################++++++++    ....    ",
"    ++++$$$$$$$$$$$$$$$$####################++++++++++++    ....",
"    ++++$$$$$$$$$$$$$$$$####################++++++++++++    ....",
"    ++++$$$$$$$$$$$$$$$$####################++++++++++++    ....",
"    ++++$$$$$$$$$$$$$$$$####################++++++++++++    ....",
"....    ++++++++############++++++++++++++++++++++++++++....    ",
"....    ++++++++############++++++++++++++++++++++++++++....    ",
"....    ++++++++############++++++++++++++++++++++++++++....    ",
"....    ++++++++############++++++++++++++++++++++++++++....    ",
"    ....++++++++++++++++++++++++$$$$$$$$++++$$$$++++....    ....",
"    ....++++++++++++++++++++++++$$$$$$$$++++$$$$++++....    ....",
"    ....++++++++++++++++++++++++$$$$$$$$++++$$$$++++....    ....",
"    ....++++++++++++++++++++++++$$$$$$$$++++$$$$++++....    ....",
"....    ....++++++++$$$$$$$$++++$$$$$$$$++++$$$$++++    ....    ",
"....    ....++++++++$$$$$$$$++++$$$$$$$$++++$$$$++++    ....    ",
"....    ....++++++++$$$$$$$$++++$$$$$$$$++++$$$$++++    ....    ",
"....    ....++++++++$$$$$$$$++++$$$$$$$$++++$$$$++++    ....    ",
"    ....    ....++++$$$$$$$$$$$$$$$$$$$$$$$$$$$$++++....    ....",
"    ....    ....++++$$$$$$$$$$$$$$$$$$$$$$$$$$$$++++....    ....",
"    ....    ....++++$$$$$$$$$$$$$$$$$$$$$$$$$$$$++++....    ....",
"    ....    ....++++$$$$$$$$$$$$$$$$$$$$$$$$$$$$++++....    ....",
"....    ....@@@@++++++++++++$$$$$$$$$$$$####++++....@@@@....    ",
"....    ....@@@@++++++++++++$$$$$$$$$$$$####++++....@@@@....    ",
"....    ....@@@@++++++++++++$$$$$$$$$$$$####++++....@@@@....    ",
"....    ....@@@@++++++++++++$$$$$$$$$$$$####++++....@@@@....    ",
"    @@@@    ++++$$$$$$$$++++++++++++++++++++....    ....    @@@@",
"    @@@@    ++++$$$$$$$$++++++++++++++++++++....    ....    @@@@",
"    @@@@    ++++$$$$$$$$++++++++++++++++++++....    ....    @@@@",
"    @@@@    ++++$$$$$$$$++++++++++++++++++++....    ....    @@@@",
"....    ....++++########++++++++++++####++++    ....    ....    ",
"....    ....++++########++++++++++++####++++    ....    ....    ",
"....    ....++++########++++++++++++####++++    ....    ....    ",
"....    ....++++########++++++++++++####++++    ....    ....    ",
"    ....    ++++$$$$$$$$++++$$$$$$$$++++    ....    ....    ....",
"    ....    ++++$$$$$$$$++++$$$$$$$$++++    ....    ....    ....",
"    ....    ++++$$$$$$$$++++$$$$$$$$++++    ....    ....    ....",
"    ....    ++++$$$$$$$$++++$$$$$$$$++++    ....    ....    ....",
"....    ....    ++++++++++++$$$$$$$$++++++++    ....    ....    ",
"....    ....    ++++++++++++$$$$$$$$++++++++    ....    ....    ",
"....    ....    ++++++++++++$$$$$$$$++++++++    ....    ....    ",
"....    ....    ++++++++++++$$$$$$$$++++++++    ....    ....    ",
"    ....    ....    ++++####++++++++########++++    ....    ....",
"    ....    ....    ++++####++++++++########++++    ....    ....",
"    ....    ....    ++++####++++++++########++++    ....    ....",
"    ....    ....    ++++####++++++++########++++    ....    ....",
"....    ....    ....    ++++++++++++++++++++    ....    ....    ",
"....    ....    ....    ++++++++++++++++++++    ....    ....    ",
"....    ....    ....    ++++++++++++++++++++    ....    ....    ",
"....    ....    ....    ++++++++++++++++++++    ....    ....    "};
